;FLAVOR:Marlin
;TIME:149
;Filament used: 0.0457134m
;Layer height: 0.2
;MINX:97.687
;MINY:101.697
;MINZ:0.2
;MAXX:122.313
;MAXY:118.303
;MAXZ:7.6
;TARGET_MACHINE.NAME:Creality Ender-3 Pro
;Generated with Cura_SteamEngine 5.6.0
M82 ;absolute extrusion mode
; Ender 3 Custom Start G-code
G92 E0 ; Reset Extruder
G28 ; Home all axes
G29 ; CR Touch
G1 Z5.0 F3000 ; Move Z Axis up a bit during heating to not damage bed
M104 S175 ; Start heating up the nozzle most of the way
M190 S60 ; Start heating the bed, wait until target temperature reached
M109 S200 ; Finish heating the nozzle
G1 Z2.0 F3000 ; Move Z Axis up little to prevent scratching of Heat Bed
G1 X0.1 Y20 Z0.3 F5000.0 ; Move to start position
G1 X0.1 Y200.0 Z0.3 F1500.0 E15 ; Draw the first line
G1 X0.4 Y200.0 Z0.3 F5000.0 ; Move to side a little
G1 X0.4 Y20 Z0.3 F1500.0 E30 ; Draw the second line
G92 E0 ; Reset Extruder
G1 Z2.0 F3000 ; Move Z Axis up little to prevent scratching of Heat Bed
G1 X5 Y20 Z0.3 F5000.0 ; Move over to prevent blob squish
G92 E0
G92 E0
G1 F1500 E-6.5
;LAYER_COUNT:38
;LAYER:0
M107
G0 F6000 X99.214 Y104.728 Z0.2
;TYPE:SKIRT
G1 F1500 E0
G1 F1200 X100.795 Y103.25 E0.07198
G1 X102.457 Y102.28 E0.13599
G1 X103.184 Y101.993 E0.16198
G1 X104.865 Y101.744 E0.2185
G1 X108.865 Y101.697 E0.35155
G1 X109.953 Y101.96 E0.38878
G1 X111.406 Y101.742 E0.43765
G1 X115.373 Y101.697 E0.5696
G1 X117.204 Y102.145 E0.6323
G1 X119.277 Y103.215 E0.70989
G1 X120.744 Y104.788 E0.78143
G1 X121.7 Y106.435 E0.84477
G1 X122.013 Y107.218 E0.87281
G1 X122.285 Y109.244 E0.9408
G1 X122.313 Y111.335 E1.01036
G1 X121.838 Y113.255 E1.07614
G1 X120.786 Y115.272 E1.1518
G1 X119.205 Y116.75 E1.22379
G1 X117.543 Y117.72 E1.28779
G1 X116.816 Y118.007 E1.31379
G1 X115.135 Y118.256 E1.37031
G1 X111.135 Y118.303 E1.50336
G1 X110.047 Y118.04 E1.54059
G1 X108.594 Y118.258 E1.58946
G1 X104.627 Y118.303 E1.72141
G1 X102.796 Y117.855 E1.7841
G1 X100.723 Y116.785 E1.86169
G1 X99.256 Y115.212 E1.93323
G1 X98.3 Y113.565 E1.99657
G1 X97.987 Y112.782 E2.02462
G1 X97.715 Y110.756 E2.09261
G1 X97.687 Y108.665 E2.16216
G1 X98.162 Y106.745 E2.22795
G1 X99.214 Y104.728 E2.30361
G0 F6000 X99.538 Y104.972
G1 F1200 X101.032 Y103.575 E2.37164
G1 X102.659 Y102.626 E2.43429
G1 X103.287 Y102.382 E2.45669
G1 X104.87 Y102.144 E2.50994
G1 X108.819 Y102.098 E2.64129
G1 X109.935 Y102.368 E2.67948
G1 X111.465 Y102.138 E2.73094
G1 X115.325 Y102.098 E2.85933
G1 X117.065 Y102.523 E2.9189
G1 X119.032 Y103.539 E2.99254
G1 X120.421 Y105.028 E3.06027
G1 X121.329 Y106.584 E3.12019
G1 X121.624 Y107.321 E3.14659
G1 X121.885 Y109.249 E3.2113
G1 X121.912 Y111.29 E3.27919
G1 X121.462 Y113.11 E3.34155
G1 X120.462 Y115.028 E3.41349
G1 X118.968 Y116.425 E3.48152
G1 X117.341 Y117.374 E3.54417
G1 X116.713 Y117.618 E3.56657
G1 X115.13 Y117.856 E3.61982
G1 X111.181 Y117.902 E3.75117
G1 X110.065 Y117.632 E3.78936
G1 X108.535 Y117.862 E3.84082
G1 X104.675 Y117.902 E3.96921
G1 X102.935 Y117.477 E4.02878
G1 X100.968 Y116.461 E4.10242
G1 X99.579 Y114.972 E4.17014
G1 X98.671 Y113.416 E4.23006
G1 X98.376 Y112.679 E4.25647
G1 X98.115 Y110.751 E4.32118
G1 X98.088 Y108.71 E4.38907
G1 X98.538 Y106.89 E4.45143
G1 X99.538 Y104.972 E4.52337
G0 F6000 X99.862 Y105.216
G1 F1200 X101.272 Y103.898 E4.58756
G1 X102.804 Y102.999 E4.64664
G1 X103.389 Y102.772 E4.66751
G1 X104.93 Y102.54 E4.71934
G1 X108.773 Y102.499 E4.84717
G1 X109.916 Y102.775 E4.88628
G1 X111.469 Y102.538 E4.93853
G1 X115.277 Y102.499 E5.06519
G1 X116.926 Y102.901 E5.12164
G1 X118.787 Y103.863 E5.19132
G1 X120.098 Y105.268 E5.25524
G1 X120.958 Y106.733 E5.31174
G1 X121.235 Y107.424 E5.3365
G1 X121.485 Y109.254 E5.39793
G1 X121.511 Y111.245 E5.46416
G1 X121.086 Y112.965 E5.52308
G1 X120.138 Y114.784 E5.59131
G1 X118.728 Y116.102 E5.6555
G1 X117.196 Y117.001 E5.71458
G1 X116.611 Y117.228 E5.73545
G1 X115.07 Y117.46 E5.78728
G1 X111.227 Y117.501 E5.91511
G1 X110.084 Y117.225 E5.95422
G1 X108.531 Y117.462 E6.00647
G1 X104.723 Y117.501 E6.13313
G1 X103.074 Y117.099 E6.18958
G1 X101.213 Y116.137 E6.25926
G1 X99.902 Y114.732 E6.32318
G1 X99.042 Y113.267 E6.37968
G1 X98.765 Y112.576 E6.40444
G1 X98.515 Y110.746 E6.46587
G1 X98.489 Y108.755 E6.5321
G1 X98.914 Y107.035 E6.59102
G1 X99.862 Y105.216 E6.65925
G0 F6000 X100.186 Y105.46
G1 F1200 X101.514 Y104.219 E6.7197
G1 X102.949 Y103.372 E6.77512
G1 X103.492 Y103.161 E6.7945
G1 X104.989 Y102.936 E6.84485
G1 X108.727 Y102.9 E6.96918
G1 X109.922 Y103.188 E7.01007
G1 X110.04 Y103.156 E7.01413
G1 X111.528 Y102.934 E7.06417
G1 X115.229 Y102.9 E7.18727
G1 X116.787 Y103.279 E7.2406
G1 X118.542 Y104.187 E7.30632
G1 X119.777 Y105.51 E7.36652
G1 X120.587 Y106.882 E7.41951
G1 X120.846 Y107.527 E7.44263
G1 X121.085 Y109.259 E7.50078
G1 X121.11 Y111.2 E7.56534
G1 X120.71 Y112.82 E7.62084
G1 X119.814 Y114.54 E7.68535
G1 X118.486 Y115.781 E7.7458
G1 X117.051 Y116.628 E7.80122
G1 X116.508 Y116.839 E7.8206
G1 X115.011 Y117.064 E7.87095
G1 X111.273 Y117.1 E7.99528
G1 X110.078 Y116.812 E8.03617
G1 X109.96 Y116.844 E8.04023
G1 X108.472 Y117.066 E8.09027
G1 X104.771 Y117.1 E8.21337
G1 X103.213 Y116.721 E8.2667
G1 X101.458 Y115.813 E8.33242
G1 X100.223 Y114.49 E8.39262
G1 X99.413 Y113.118 E8.44561
G1 X99.154 Y112.473 E8.46873
G1 X98.915 Y110.741 E8.52688
G1 X98.89 Y108.8 E8.59144
G1 X99.29 Y107.18 E8.64694
G1 X100.186 Y105.46 E8.71145
G0 F6000 X100.51 Y105.704
G1 F1200 X101.754 Y104.542 E8.76807
G1 X103.094 Y103.745 E8.81992
G1 X103.594 Y103.551 E8.83776
G1 X105.049 Y103.332 E8.8867
G1 X108.681 Y103.3 E9.00751
G1 X109.936 Y103.603 E9.05045
G1 X110.099 Y103.552 E9.05613
G1 X111.587 Y103.33 E9.10617
G1 X115.181 Y103.3 E9.22571
G1 X116.648 Y103.657 E9.27592
G1 X118.297 Y104.511 E9.33769
G1 X119.454 Y105.75 E9.39407
G1 X120.216 Y107.031 E9.44365
G1 X120.456 Y107.63 E9.46511
G1 X120.685 Y109.264 E9.51999
G1 X120.709 Y111.155 E9.58289
G1 X120.334 Y112.675 E9.63496
G1 X119.49 Y114.296 E9.69574
G1 X118.246 Y115.458 E9.75236
G1 X116.906 Y116.255 E9.80422
G1 X116.406 Y116.449 E9.82205
G1 X114.951 Y116.668 E9.87099
G1 X111.319 Y116.7 E9.9918
G1 X110.064 Y116.397 E10.03474
G1 X109.901 Y116.448 E10.04042
G1 X108.413 Y116.67 E10.09046
G1 X104.819 Y116.7 E10.21
G1 X103.352 Y116.343 E10.26022
G1 X101.703 Y115.489 E10.32198
G1 X100.546 Y114.25 E10.37836
G1 X99.784 Y112.969 E10.42794
G1 X99.544 Y112.37 E10.4494
G1 X99.315 Y110.736 E10.50428
G1 X99.291 Y108.845 E10.56718
G1 X99.666 Y107.325 E10.61925
G1 X100.51 Y105.704 E10.68004
G0 F6000 X100.834 Y105.948
G1 F1200 X101.993 Y104.866 E10.73277
G1 X103.299 Y104.089 E10.78332
G1 X103.697 Y103.94 E10.79745
G1 X105.108 Y103.728 E10.84491
G1 X108.634 Y103.7 E10.96219
G1 X109.961 Y104.021 E11.0076
G1 X110.159 Y103.947 E11.01463
G1 X111.59 Y103.73 E11.06277
G1 X115.133 Y103.7 E11.18061
G1 X116.509 Y104.035 E11.22771
G1 X118.052 Y104.834 E11.28551
G1 X119.132 Y105.991 E11.33815
G1 X119.872 Y107.235 E11.38629
G1 X120.067 Y107.735 E11.40414
G1 X120.285 Y109.269 E11.45567
G1 X120.308 Y111.11 E11.51691
G1 X119.958 Y112.53 E11.56555
G1 X119.166 Y114.052 E11.62262
G1 X118.007 Y115.134 E11.67536
G1 X116.701 Y115.911 E11.7259
G1 X116.303 Y116.06 E11.74003
G1 X114.892 Y116.272 E11.78749
G1 X111.366 Y116.3 E11.90477
G1 X110.039 Y115.979 E11.95018
G1 X109.841 Y116.053 E11.95721
G1 X108.41 Y116.27 E12.00535
G1 X104.867 Y116.3 E12.12319
G1 X103.491 Y115.965 E12.1703
G1 X101.948 Y115.166 E12.22809
G1 X100.868 Y114.009 E12.28073
G1 X100.128 Y112.765 E12.32887
G1 X99.933 Y112.265 E12.34672
G1 X99.715 Y110.731 E12.39826
G1 X99.692 Y108.89 E12.45949
G1 X100.042 Y107.47 E12.50814
G1 X100.834 Y105.948 E12.5652
G0 F6000 X101.157 Y106.193
G1 F1200 X102.232 Y105.19 E12.6141
G1 X103.504 Y104.433 E12.66334
G1 X103.795 Y104.33 E12.6736
G1 X105.167 Y104.124 E12.71975
G1 X108.587 Y104.1 E12.8335
G1 X109.775 Y104.388 E12.87416
G1 X109.958 Y104.466 E12.88077
G1 X110.22 Y104.342 E12.89041
G1 X111.593 Y104.13 E12.93662
G1 X115.085 Y104.1 E13.05277
G1 X116.37 Y104.413 E13.09676
G1 X117.807 Y105.157 E13.15058
G1 X118.81 Y106.232 E13.19948
G1 X119.528 Y107.439 E13.24619
G1 X119.677 Y107.835 E13.26026
G1 X119.885 Y109.274 E13.30862
G1 X119.907 Y111.065 E13.3682
G1 X119.581 Y112.387 E13.41348
G1 X118.843 Y113.807 E13.46671
G1 X117.768 Y114.81 E13.51561
G1 X116.496 Y115.567 E13.56484
G1 X116.205 Y115.67 E13.57511
G1 X114.833 Y115.876 E13.62125
G1 X111.413 Y115.9 E13.73501
G1 X110.225 Y115.612 E13.77566
G1 X110.042 Y115.534 E13.78228
G1 X109.78 Y115.658 E13.79192
G1 X108.407 Y115.87 E13.83813
G1 X104.915 Y115.9 E13.95428
G1 X103.63 Y115.587 E13.99827
G1 X102.193 Y114.843 E14.05209
G1 X101.19 Y113.768 E14.10099
G1 X100.472 Y112.561 E14.1477
G1 X100.323 Y112.165 E14.16177
G1 X100.115 Y110.726 E14.21013
G1 X100.093 Y108.935 E14.2697
G1 X100.419 Y107.613 E14.31499
G1 X101.157 Y106.193 E14.36822
G0 F6000 X101.479 Y106.44
G1 F1200 X102.474 Y105.512 E14.41347
G1 X103.709 Y104.777 E14.46127
G1 X103.854 Y104.726 E14.46638
G1 X105.226 Y104.52 E14.51253
G1 X108.54 Y104.5 E14.62275
G1 X109.681 Y104.777 E14.66181
G1 X109.978 Y104.919 E14.67276
G1 X110.282 Y104.737 E14.68454
G1 X111.596 Y104.53 E14.72878
G1 X115.037 Y104.5 E14.84324
G1 X116.231 Y104.791 E14.88411
G1 X117.56 Y105.479 E14.93389
G1 X118.488 Y106.474 E14.97914
G1 X119.184 Y107.644 E15.02442
G1 X119.287 Y107.934 E15.03465
G1 X119.485 Y109.279 E15.07987
G1 X119.506 Y111.02 E15.13778
G1 X119.204 Y112.244 E15.17971
G1 X118.521 Y113.56 E15.22903
G1 X117.526 Y114.488 E15.27428
G1 X116.291 Y115.223 E15.32208
G1 X116.146 Y115.274 E15.32719
G1 X114.774 Y115.48 E15.37334
G1 X111.46 Y115.5 E15.48356
G1 X110.319 Y115.223 E15.52262
G1 X110.022 Y115.081 E15.53356
G1 X109.718 Y115.263 E15.54535
G1 X108.404 Y115.47 E15.58959
G1 X104.963 Y115.5 E15.70404
G1 X103.769 Y115.209 E15.74492
G1 X102.44 Y114.521 E15.79469
G1 X101.512 Y113.526 E15.83995
G1 X100.816 Y112.356 E15.88523
G1 X100.713 Y112.066 E15.89546
G1 X100.515 Y110.721 E15.94068
G1 X100.494 Y108.98 E15.99859
G1 X100.796 Y107.756 E16.04052
G1 X101.479 Y106.44 E16.08984
G0 F6000 X101.801 Y106.687
G1 F1200 X102.716 Y105.834 E16.13144
G1 X103.914 Y105.121 E16.17781
G1 X105.228 Y104.92 E16.22202
G1 X108.492 Y104.9 E16.33059
G1 X109.586 Y105.166 E16.36803
G1 X109.992 Y105.376 E16.38324
G1 X110.42 Y105.12 E16.39982
G1 X111.6 Y104.93 E16.43957
G1 X114.989 Y104.9 E16.5523
G1 X116.092 Y105.169 E16.59006
G1 X117.313 Y105.801 E16.63579
G1 X118.166 Y106.716 E16.67739
G1 X118.84 Y107.849 E16.72124
G1 X118.891 Y107.993 E16.72632
G1 X119.085 Y109.284 E16.76974
G1 X119.105 Y110.975 E16.82599
G1 X118.827 Y112.102 E16.8646
G1 X118.199 Y113.313 E16.90997
G1 X117.284 Y114.166 E16.95158
G1 X116.086 Y114.879 E16.99794
G1 X114.772 Y115.08 E17.04216
G1 X111.508 Y115.1 E17.15072
G1 X110.414 Y114.834 E17.18817
G1 X110.008 Y114.624 E17.20337
G1 X109.58 Y114.88 E17.21996
G1 X108.4 Y115.07 E17.25971
G1 X105.011 Y115.1 E17.37243
G1 X103.908 Y114.831 E17.41019
G1 X102.687 Y114.199 E17.45592
G1 X101.834 Y113.284 E17.49753
G1 X101.16 Y112.151 E17.54138
G1 X101.109 Y112.007 E17.54646
G1 X100.915 Y110.716 E17.58988
G1 X100.895 Y109.025 E17.64612
G1 X101.173 Y107.898 E17.68473
G1 X101.801 Y106.687 E17.7301
G0 F6000 X102.123 Y106.934
G1 F1200 X102.958 Y106.156 E17.76806
G1 X104.053 Y105.504 E17.81045
G1 X105.23 Y105.32 E17.85007
G1 X108.443 Y105.3 E17.95694
G1 X109.449 Y105.545 E17.99138
G1 X110.007 Y105.833 E18.01226
G1 X110.557 Y105.504 E18.03358
G1 X111.604 Y105.33 E18.06888
G1 X114.941 Y105.3 E18.17987
G1 X115.953 Y105.547 E18.21452
G1 X117.066 Y106.123 E18.2562
G1 X117.844 Y106.958 E18.29416
G1 X118.496 Y108.054 E18.33658
G1 X118.685 Y109.289 E18.37813
G1 X118.704 Y110.93 E18.43272
G1 X118.45 Y111.96 E18.468
G1 X117.877 Y113.066 E18.50943
G1 X117.042 Y113.844 E18.54739
G1 X115.947 Y114.496 E18.58977
G1 X114.77 Y114.68 E18.6294
G1 X111.557 Y114.7 E18.73626
G1 X110.551 Y114.455 E18.7707
G1 X109.993 Y114.167 E18.79159
G1 X109.443 Y114.496 E18.8129
G1 X108.396 Y114.67 E18.8482
G1 X105.059 Y114.7 E18.9592
G1 X104.047 Y114.453 E18.99385
G1 X102.934 Y113.877 E19.03553
G1 X102.156 Y113.042 E19.07349
G1 X101.504 Y111.946 E19.1159
G1 X101.315 Y110.711 E19.15746
G1 X101.296 Y109.07 E19.21204
G1 X101.55 Y108.04 E19.24732
G1 X102.123 Y106.934 E19.28875
G0 F6000 X102.445 Y107.181
G1 F1200 X103.2 Y106.478 E19.32307
G1 X104.192 Y105.887 E19.36147
G1 X105.233 Y105.72 E19.39654
G1 X108.394 Y105.7 E19.50168
G1 X109.312 Y105.924 E19.5331
G1 X110.021 Y106.29 E19.55964
G1 X110.695 Y105.887 E19.58576
G1 X111.67 Y105.725 E19.61863
G1 X114.893 Y105.7 E19.72583
G1 X115.814 Y105.925 E19.75737
G1 X116.819 Y106.445 E19.795
G1 X117.522 Y107.2 E19.82932
G1 X118.113 Y108.193 E19.86775
G1 X118.285 Y109.294 E19.90481
G1 X118.303 Y110.885 E19.95773
G1 X118.073 Y111.818 E19.98969
G1 X117.555 Y112.819 E20.02718
G1 X116.8 Y113.522 E20.06149
G1 X115.808 Y114.113 E20.0999
G1 X114.767 Y114.28 E20.13497
G1 X111.606 Y114.3 E20.2401
G1 X110.688 Y114.076 E20.27153
G1 X109.979 Y113.71 E20.29807
G1 X109.305 Y114.113 E20.32419
G1 X108.33 Y114.275 E20.35706
G1 X105.107 Y114.3 E20.46426
G1 X104.186 Y114.075 E20.4958
G1 X103.181 Y113.555 E20.53343
G1 X102.478 Y112.8 E20.56774
G1 X101.887 Y111.807 E20.60618
G1 X101.715 Y110.706 E20.64324
G1 X101.697 Y109.115 E20.69616
G1 X101.927 Y108.182 E20.72812
G1 X102.445 Y107.181 E20.76561
G0 F6000 X102.768 Y107.426
G1 F1200 X103.439 Y106.802 E20.79609
G1 X104.331 Y106.27 E20.83063
G1 X105.236 Y106.12 E20.86114
G1 X108.345 Y106.1 E20.96455
G1 X109.175 Y106.303 E20.99297
G1 X110.035 Y106.747 E21.02516
G1 X110.833 Y106.27 E21.05608
G1 X111.736 Y106.12 E21.08653
G1 X114.845 Y106.1 E21.18993
G1 X115.675 Y106.303 E21.21835
G1 X116.574 Y106.768 E21.25202
G1 X117.198 Y107.439 E21.28249
G1 X117.73 Y108.332 E21.31707
G1 X117.885 Y109.298 E21.34961
G1 X117.902 Y110.841 E21.40093
G1 X117.697 Y111.675 E21.42949
G1 X117.232 Y112.574 E21.46316
G1 X116.561 Y113.198 E21.49364
G1 X115.669 Y113.73 E21.52818
G1 X114.764 Y113.88 E21.55869
G1 X111.655 Y113.9 E21.6621
G1 X110.825 Y113.697 E21.69052
G1 X109.965 Y113.253 E21.72271
G1 X109.167 Y113.73 E21.75363
G1 X108.264 Y113.88 E21.78408
G1 X105.155 Y113.9 E21.88748
G1 X104.325 Y113.697 E21.9159
G1 X103.426 Y113.232 E21.94957
G1 X102.802 Y112.561 E21.98004
G1 X102.27 Y111.668 E22.01462
G1 X102.115 Y110.702 E22.04716
G1 X102.098 Y109.159 E22.09848
G1 X102.303 Y108.325 E22.12704
G1 X102.768 Y107.426 E22.16071
G0 F6000 X103.091 Y107.671
G1 F1200 X103.678 Y107.126 E22.18735
G1 X104.471 Y106.653 E22.21806
G1 X105.302 Y106.515 E22.24608
G1 X108.296 Y106.5 E22.34566
G1 X109.036 Y106.681 E22.371
G1 X109.768 Y107.059 E22.3984
G1 X110.008 Y107.284 E22.40934
G1 X110.212 Y107.106 E22.41835
G1 X110.971 Y106.653 E22.44774
G1 X111.802 Y106.515 E22.47576
G1 X114.796 Y106.5 E22.57534
G1 X115.536 Y106.681 E22.60068
G1 X116.329 Y107.091 E22.63037
G1 X116.874 Y107.678 E22.65702
G1 X117.347 Y108.471 E22.68773
G1 X117.485 Y109.302 E22.71574
G1 X117.501 Y110.793 E22.76534
G1 X117.319 Y111.536 E22.79078
G1 X116.909 Y112.329 E22.82047
G1 X116.322 Y112.874 E22.84711
G1 X115.529 Y113.347 E22.87782
G1 X114.698 Y113.485 E22.90584
G1 X111.704 Y113.5 E23.00542
G1 X110.964 Y113.319 E23.03076
G1 X110.232 Y112.941 E23.05816
G1 X109.992 Y112.716 E23.06911
G1 X109.788 Y112.894 E23.07811
G1 X109.029 Y113.347 E23.10751
G1 X108.198 Y113.485 E23.13553
G1 X105.204 Y113.5 E23.23511
G1 X104.464 Y113.319 E23.26045
G1 X103.671 Y112.909 E23.29014
G1 X103.126 Y112.322 E23.31678
G1 X102.653 Y111.529 E23.34749
G1 X102.515 Y110.698 E23.37551
G1 X102.499 Y109.207 E23.4251
G1 X102.681 Y108.464 E23.45055
G1 X103.091 Y107.671 E23.48024
G0 F6000 X103.414 Y107.916
G1 F1200 X103.917 Y107.45 E23.50304
G1 X104.611 Y107.036 E23.52992
