;FLAVOR:Marlin
;TIME:230
;Filament used: 0.0629657m
;Layer height: 0.2
;MINX:97.687
;MINY:99.9
;MINZ:0.2
;MAXX:122.313
;MAXY:120.1
;MAXZ:7.6
;TARGET_MACHINE.NAME:Creality Ender-3 Pro
;Generated with Cura_SteamEngine 5.6.0
M82 ;absolute extrusion mode
; Ender 3 Custom Start G-code
G92 E0 ; Reset Extruder
G28 ; Home all axes
G29 ; CR Touch
G1 Z5.0 F3000 ; Move Z Axis up a bit during heating to not damage bed
M104 S175 ; Start heating up the nozzle most of the way
M190 S60 ; Start heating the bed, wait until target temperature reached
M109 S200 ; Finish heating the nozzle
G1 Z2.0 F3000 ; Move Z Axis up little to prevent scratching of Heat Bed
G1 X0.1 Y20 Z0.3 F5000.0 ; Move to start position
G1 X0.1 Y200.0 Z0.3 F1500.0 E15 ; Draw the first line
G1 X0.4 Y200.0 Z0.3 F5000.0 ; Move to side a little
G1 X0.4 Y20 Z0.3 F1500.0 E30 ; Draw the second line
G92 E0 ; Reset Extruder
G1 Z2.0 F3000 ; Move Z Axis up little to prevent scratching of Heat Bed
G1 X5 Y20 Z0.3 F5000.0 ; Move over to prevent blob squish
G92 E0
G92 E0
G1 F1500 E-6.5
;LAYER_COUNT:38
;LAYER:0
M107
G0 F6000 X99.214 Y104.728 Z0.2
;TYPE:SKIRT
G1 F1500 E0
G1 F1200 X100.78 Y103.264 E0.0713
G1 X102.803 Y102.057 E0.14965
G1 X103.719 Y101.908 E0.18052
G1 X103.969 Y101.677 E0.19184
G1 X105.115 Y101.08 E0.23482
G1 X106.335 Y100.367 E0.28182
G1 X108.651 Y99.9 E0.3604
G1 X111.677 Y99.907 E0.46104
G1 X113.693 Y100.445 E0.53044
G1 X115.146 Y101.175 E0.58453
G1 X115.985 Y101.856 E0.62047
G1 X117.25 Y102.167 E0.66379
G1 X119.277 Y103.219 E0.73975
G1 X120.744 Y104.788 E0.81119
G1 X121.7 Y106.435 E0.87453
G1 X122.013 Y107.218 E0.90258
G1 X122.285 Y109.244 E0.97057
G1 X122.313 Y111.335 E1.04012
G1 X121.838 Y113.255 E1.10591
G1 X120.783 Y115.278 E1.18179
G1 X119.222 Y116.735 E1.25281
G1 X117.442 Y117.793 E1.32168
G1 X116.397 Y118.072 E1.35766
G1 X116.11 Y118.115 E1.36731
G1 X115.919 Y118.28 E1.37571
G1 X113.706 Y119.621 E1.46177
G1 X111.405 Y120.1 E1.53994
G1 X108.038 Y120.1 E1.65193
G1 X105.608 Y119.268 E1.73736
G1 X103.788 Y118.141 E1.80856
G1 X103.689 Y118.066 E1.81269
G1 X102.753 Y117.836 E1.84474
G1 X100.723 Y116.781 E1.92084
G1 X99.256 Y115.212 E1.99228
G1 X98.3 Y113.565 E2.05562
G1 X97.987 Y112.782 E2.08366
G1 X97.715 Y110.756 E2.15165
G1 X97.687 Y108.665 E2.22121
G1 X98.162 Y106.745 E2.28699
G1 X99.214 Y104.728 E2.36265
G0 F6000 X99.538 Y104.972
G1 F1200 X101.019 Y103.588 E2.43007
G1 X102.943 Y102.44 E2.50459
G1 X103.901 Y102.284 E2.53687
G1 X104.2 Y102.008 E2.55041
G1 X105.3 Y101.435 E2.59166
G1 X106.479 Y100.746 E2.63708
G1 X108.69 Y100.3 E2.7121
G1 X111.626 Y100.307 E2.80975
G1 X113.549 Y100.82 E2.87595
G1 X114.926 Y101.512 E2.9272
G1 X115.801 Y102.222 E2.96468
G1 X117.107 Y102.543 E3.00941
G1 X119.032 Y103.542 E3.08155
G1 X120.421 Y105.028 E3.1492
G1 X121.329 Y106.584 E3.20912
G1 X121.624 Y107.321 E3.23552
G1 X121.885 Y109.249 E3.30023
G1 X121.912 Y111.29 E3.36812
G1 X121.462 Y113.11 E3.43048
G1 X120.459 Y115.034 E3.50265
G1 X118.981 Y116.413 E3.56988
G1 X117.285 Y117.421 E3.6355
G1 X116.338 Y117.676 E3.66812
G1 X115.93 Y117.737 E3.68184
G1 X115.712 Y117.938 E3.6917
G1 X113.559 Y119.243 E3.77544
G1 X111.362 Y119.7 E3.85007
G1 X108.104 Y119.7 E3.95844
G1 X105.782 Y118.905 E4.04007
G1 X103.999 Y117.801 E4.10982
G1 X103.867 Y117.698 E4.11539
G1 X102.895 Y117.459 E4.14868
G1 X100.968 Y116.458 E4.2209
G1 X99.579 Y114.972 E4.28856
G1 X98.671 Y113.416 E4.34848
G1 X98.376 Y112.679 E4.37488
G1 X98.115 Y110.751 E4.43959
G1 X98.088 Y108.71 E4.50748
G1 X98.538 Y106.89 E4.56984
G1 X99.538 Y104.972 E4.64178
G0 F6000 X99.862 Y105.216
G1 F1200 X101.261 Y103.909 E4.70546
G1 X103.081 Y102.823 E4.77595
G1 X104.083 Y102.66 E4.80971
G1 X104.431 Y102.339 E4.82546
G1 X105.485 Y101.79 E4.86499
G1 X106.623 Y101.125 E4.90882
G1 X108.729 Y100.7 E4.98028
G1 X111.575 Y100.707 E5.07494
G1 X113.405 Y101.195 E5.13793
G1 X114.706 Y101.849 E5.18637
G1 X115.617 Y102.588 E5.22538
G1 X116.964 Y102.919 E5.27152
G1 X118.787 Y103.865 E5.33983
G1 X120.098 Y105.268 E5.40369
G1 X120.958 Y106.733 E5.46019
G1 X121.235 Y107.424 E5.48495
G1 X121.485 Y109.254 E5.54639
G1 X121.511 Y111.245 E5.61261
G1 X121.086 Y112.965 E5.67154
G1 X120.136 Y114.788 E5.73991
G1 X118.738 Y116.092 E5.8035
G1 X117.128 Y117.049 E5.86579
G1 X116.279 Y117.28 E5.89506
G1 X115.741 Y117.36 E5.91315
G1 X115.505 Y117.596 E5.92425
G1 X113.412 Y118.864 E6.00564
G1 X111.318 Y119.3 E6.07678
G1 X108.17 Y119.3 E6.18148
G1 X105.956 Y118.542 E6.25932
G1 X104.21 Y117.461 E6.32762
G1 X104.049 Y117.331 E6.3345
G1 X103.038 Y117.083 E6.36912
G1 X101.213 Y116.135 E6.43752
G1 X99.902 Y114.732 E6.50139
G1 X99.042 Y113.267 E6.55789
G1 X98.765 Y112.576 E6.58265
G1 X98.515 Y110.746 E6.64408
G1 X98.489 Y108.755 E6.71031
G1 X98.914 Y107.035 E6.76924
G1 X99.862 Y105.216 E6.83746
G0 F6000 X100.186 Y105.46
G1 F1200 X101.503 Y104.23 E6.8974
G1 X103.219 Y103.206 E6.96386
G1 X104.266 Y103.036 E6.99914
G1 X104.662 Y102.67 E7.01708
G1 X105.67 Y102.145 E7.05488
G1 X106.767 Y101.504 E7.09714
G1 X108.768 Y101.1 E7.16503
G1 X111.524 Y101.107 E7.2567
G1 X113.263 Y101.571 E7.31656
G1 X114.484 Y102.184 E7.362
G1 X115.433 Y102.954 E7.40265
G1 X116.821 Y103.295 E7.45019
G1 X118.542 Y104.188 E7.51467
G1 X119.777 Y105.51 E7.57485
G1 X120.587 Y106.882 E7.62784
G1 X120.846 Y107.527 E7.65096
G1 X121.085 Y109.259 E7.70911
G1 X121.11 Y111.2 E7.77367
G1 X120.71 Y112.82 E7.82917
G1 X119.812 Y114.544 E7.89382
G1 X118.498 Y115.77 E7.9536
G1 X116.972 Y116.676 E8.01262
G1 X116.22 Y116.884 E8.03857
G1 X115.551 Y116.984 E8.06107
G1 X115.255 Y117.28 E8.075
G1 X113.265 Y118.486 E8.15239
G1 X111.275 Y118.9 E8.21999
G1 X108.236 Y118.9 E8.32107
G1 X106.13 Y118.179 E8.39511
G1 X104.421 Y117.121 E8.46196
G1 X104.237 Y116.966 E8.46996
G1 X103.181 Y116.707 E8.50613
G1 X101.458 Y115.812 E8.5707
G1 X100.223 Y114.49 E8.63087
G1 X99.413 Y113.118 E8.68387
G1 X99.154 Y112.473 E8.70698
G1 X98.915 Y110.741 E8.76514
G1 X98.89 Y108.8 E8.8297
G1 X99.29 Y107.18 E8.8852
G1 X100.186 Y105.46 E8.9497
G0 F6000 X100.51 Y105.704
G1 F1200 X101.745 Y104.551 E9.0059
G1 X103.357 Y103.589 E9.06834
G1 X104.448 Y103.412 E9.1051
G1 X104.893 Y103.001 E9.12525
G1 X105.855 Y102.5 E9.16132
G1 X106.911 Y101.883 E9.202
G1 X108.807 Y101.5 E9.26633
G1 X111.473 Y101.507 E9.35501
G1 X113.119 Y101.946 E9.41167
G1 X114.264 Y102.521 E9.45428
G1 X115.249 Y103.32 E9.49647
G1 X116.678 Y103.671 E9.54541
G1 X118.297 Y104.511 E9.60607
G1 X119.454 Y105.75 E9.66245
G1 X120.216 Y107.031 E9.71203
G1 X120.456 Y107.63 E9.73349
G1 X120.685 Y109.264 E9.78837
G1 X120.709 Y111.155 E9.85127
G1 X120.334 Y112.675 E9.90334
G1 X119.489 Y114.298 E9.9642
G1 X118.255 Y115.449 E10.02033
G1 X116.814 Y116.305 E10.07607
G1 X116.161 Y116.488 E10.09863
G1 X115.362 Y116.607 E10.1255
G1 X115.005 Y116.964 E10.14229
G1 X113.118 Y118.107 E10.21567
G1 X111.231 Y118.5 E10.27977
G1 X108.302 Y118.5 E10.37719
G1 X106.304 Y117.816 E10.44743
G1 X104.632 Y116.781 E10.51284
G1 X104.429 Y116.602 E10.52184
G1 X103.323 Y116.33 E10.55972
G1 X101.703 Y115.489 E10.62043
G1 X100.546 Y114.25 E10.67681
G1 X99.784 Y112.969 E10.72639
G1 X99.544 Y112.37 E10.74785
G1 X99.315 Y110.736 E10.80273
G1 X99.291 Y108.845 E10.86563
G1 X99.666 Y107.325 E10.9177
G1 X100.51 Y105.704 E10.97848
G0 F6000 X100.834 Y105.948
G1 F1200 X101.987 Y104.872 E11.03094
G1 X103.495 Y103.972 E11.08935
G1 X104.63 Y103.788 E11.12759
G1 X105.124 Y103.332 E11.14995
G1 X106.04 Y102.855 E11.1843
G1 X107.055 Y102.262 E11.2234
G1 X108.846 Y101.9 E11.28417
G1 X111.418 Y101.907 E11.36972
G1 X112.979 Y102.323 E11.42345
G1 X114.044 Y102.858 E11.46309
G1 X115.104 Y103.718 E11.50849
G1 X115.269 Y103.736 E11.51401
G1 X116.535 Y104.047 E11.55737
G1 X118.052 Y104.834 E11.61421
G1 X119.132 Y105.991 E11.66685
G1 X119.872 Y107.235 E11.71499
G1 X120.067 Y107.735 E11.73284
G1 X120.285 Y109.269 E11.78438
G1 X120.308 Y111.11 E11.84562
G1 X119.958 Y112.53 E11.89426
G1 X119.165 Y114.054 E11.9514
G1 X118.015 Y115.127 E12.00371
G1 X116.657 Y115.933 E12.05623
G1 X116.102 Y116.092 E12.07544
G1 X115.172 Y116.231 E12.10671
G1 X114.755 Y116.648 E12.12633
G1 X112.971 Y117.729 E12.19571
G1 X111.188 Y118.1 E12.25628
G1 X108.368 Y118.1 E12.35007
G1 X106.478 Y117.453 E12.41652
G1 X104.843 Y116.441 E12.48047
G1 X104.628 Y116.239 E12.49028
G1 X103.465 Y115.953 E12.53012
G1 X101.948 Y115.166 E12.58696
G1 X100.868 Y114.009 E12.6396
G1 X100.128 Y112.765 E12.68774
G1 X99.933 Y112.265 E12.70559
G1 X99.715 Y110.731 E12.75713
G1 X99.692 Y108.89 E12.81836
G1 X100.042 Y107.47 E12.867
G1 X100.834 Y105.948 E12.92407
G0 F6000 X101.157 Y106.193
G1 F1200 X102.229 Y105.193 E12.97283
G1 X103.633 Y104.355 E13.02721
G1 X104.814 Y104.164 E13.067
G1 X105.357 Y103.662 E13.0916
G1 X106.225 Y103.21 E13.12415
G1 X107.199 Y102.641 E13.16167
G1 X108.885 Y102.3 E13.21888
G1 X111.363 Y102.307 E13.3013
G1 X112.839 Y102.7 E13.3521
G1 X113.824 Y103.195 E13.38877
G1 X114.949 Y104.108 E13.43695
G1 X115.173 Y104.124 E13.44442
G1 X116.393 Y104.424 E13.48621
G1 X117.807 Y105.157 E13.53918
G1 X118.81 Y106.232 E13.58808
G1 X119.528 Y107.439 E13.6348
G1 X119.677 Y107.835 E13.64887
G1 X119.885 Y109.274 E13.69723
G1 X119.907 Y111.065 E13.7568
G1 X119.581 Y112.387 E13.80209
G1 X118.843 Y113.807 E13.85531
G1 X117.772 Y114.806 E13.90403
G1 X116.497 Y115.563 E13.95334
G1 X116.043 Y115.696 E13.96908
G1 X114.983 Y115.854 E14.00472
G1 X114.505 Y116.332 E14.02721
G1 X112.824 Y117.351 E14.09259
G1 X111.145 Y117.7 E14.14963
G1 X108.434 Y117.7 E14.23979
G1 X106.652 Y117.09 E14.30244
G1 X105.054 Y116.101 E14.36495
G1 X104.834 Y115.878 E14.37536
G1 X103.607 Y115.576 E14.41739
G1 X102.193 Y114.843 E14.47037
G1 X101.19 Y113.768 E14.51927
G1 X100.472 Y112.561 E14.56598
G1 X100.323 Y112.165 E14.58005
G1 X100.115 Y110.726 E14.62841
G1 X100.093 Y108.935 E14.68798
G1 X100.419 Y107.613 E14.73327
G1 X101.157 Y106.193 E14.7865
G0 F6000 X101.479 Y106.44
G1 F1200 X102.474 Y105.512 E14.83175
G1 X103.771 Y104.738 E14.88199
G1 X104.996 Y104.54 E14.92326
G1 X105.588 Y103.993 E14.95007
G1 X106.41 Y103.565 E14.98089
G1 X107.343 Y103.02 E15.01683
G1 X108.924 Y102.7 E15.07048
G1 X111.308 Y102.707 E15.14977
G1 X112.699 Y103.077 E15.19765
G1 X113.604 Y103.532 E15.23134
G1 X114.557 Y104.303 E15.27211
G1 X114.758 Y104.5 E15.28147
G1 X115.078 Y104.512 E15.29212
G1 X116.25 Y104.8 E15.33226
G1 X117.56 Y105.479 E15.38134
G1 X118.488 Y106.474 E15.42659
G1 X119.184 Y107.644 E15.47187
G1 X119.287 Y107.934 E15.4821
G1 X119.485 Y109.279 E15.52732
G1 X119.506 Y111.02 E15.58523
G1 X119.204 Y112.244 E15.62716
G1 X118.521 Y113.56 E15.67648
G1 X117.529 Y114.485 E15.72159
G1 X116.337 Y115.193 E15.7677
G1 X115.984 Y115.3 E15.77997
G1 X114.793 Y115.478 E15.82002
G1 X114.255 Y116.016 E15.84533
G1 X112.677 Y116.972 E15.90669
G1 X111.101 Y117.3 E15.96023
G1 X108.499 Y117.3 E16.04678
G1 X106.827 Y116.728 E16.10555
G1 X105.303 Y115.784 E16.16518
G1 X105.005 Y115.483 E16.17926
G1 X104.824 Y115.464 E16.18532
G1 X103.75 Y115.2 E16.2221
G1 X102.44 Y114.521 E16.27118
G1 X101.512 Y113.526 E16.31643
G1 X100.816 Y112.356 E16.36171
G1 X100.713 Y112.066 E16.37195
G1 X100.515 Y110.721 E16.41716
G1 X100.494 Y108.98 E16.47507
G1 X100.796 Y107.756 E16.517
G1 X101.479 Y106.44 E16.56632
G0 F6000 X101.801 Y106.687
G1 F1200 X102.716 Y105.834 E16.60793
G1 X103.911 Y105.121 E16.65421
G1 X105.18 Y104.916 E16.69696
G1 X105.821 Y104.323 E16.72601
G1 X106.595 Y103.92 E16.75503
G1 X107.487 Y103.399 E16.78939
G1 X108.963 Y103.1 E16.83948
G1 X111.253 Y103.107 E16.91564
G1 X112.559 Y103.454 E16.96059
G1 X113.387 Y103.87 E16.99141
G1 X114.277 Y104.589 E17.02946
G1 X114.595 Y104.9 E17.04426
G1 X114.983 Y104.9 E17.05716
G1 X116.107 Y105.176 E17.09566
G1 X117.313 Y105.801 E17.14083
G1 X118.166 Y106.716 E17.18244
G1 X118.84 Y107.849 E17.22629
G1 X118.891 Y107.993 E17.23137
G1 X119.085 Y109.284 E17.27479
G1 X119.105 Y110.975 E17.33104
G1 X118.827 Y112.102 E17.36964
G1 X118.199 Y113.313 E17.41502
G1 X117.286 Y114.164 E17.45653
G1 X116.175 Y114.824 E17.49951
G1 X115.925 Y114.904 E17.50824
G1 X114.604 Y115.101 E17.55266
G1 X114.005 Y115.7 E17.58084
G1 X112.53 Y116.594 E17.6382
G1 X111.058 Y116.9 E17.68821
G1 X108.565 Y116.9 E17.77113
G1 X106.999 Y116.364 E17.82618
G1 X105.556 Y115.471 E17.88262
G1 X105.184 Y115.094 E17.90024
G1 X104.919 Y115.076 E17.90907
G1 X103.893 Y114.824 E17.94421
G1 X102.687 Y114.199 E17.98939
G1 X101.834 Y113.284 E18.03099
G1 X101.16 Y112.151 E18.07484
G1 X101.109 Y112.007 E18.07992
G1 X100.915 Y110.716 E18.12334
G1 X100.895 Y109.025 E18.17959
G1 X101.173 Y107.898 E18.2182
G1 X101.801 Y106.687 E18.26357
G0 F6000 X102.123 Y106.934
G1 F1200 X102.958 Y106.156 E18.30153
G1 X104.051 Y105.504 E18.34386
G1 X105.155 Y105.325 E18.38106
G1 X105.333 Y105.318 E18.38698
G1 X106.052 Y104.654 E18.41953
G1 X106.78 Y104.275 E18.44683
G1 X107.631 Y103.778 E18.47961
G1 X109.002 Y103.5 E18.52614
G1 X111.198 Y103.507 E18.59918
G1 X112.421 Y103.832 E18.64127
G1 X113.168 Y104.207 E18.66907
G1 X113.997 Y104.875 E18.70448
G1 X114.431 Y105.3 E18.72468
G1 X114.936 Y105.3 E18.74148
G1 X115.965 Y105.553 E18.77672
G1 X117.066 Y106.123 E18.81796
G1 X117.844 Y106.958 E18.85591
G1 X118.496 Y108.054 E18.89833
G1 X118.685 Y109.289 E18.93988
G1 X118.704 Y110.93 E18.99447
G1 X118.45 Y111.96 E19.02975
G1 X117.877 Y113.066 E19.07118
G1 X117.043 Y113.843 E19.10909
G1 X116.01 Y114.457 E19.14906
G1 X115.866 Y114.508 E19.15414
G1 X114.647 Y114.69 E19.19514
G1 X114.447 Y114.692 E19.20179
G1 X113.755 Y115.384 E19.23434
G1 X112.383 Y116.215 E19.28769
G1 X111.014 Y116.5 E19.3342
G1 X108.63 Y116.5 E19.41349
G1 X107.174 Y116.002 E19.46467
G1 X105.805 Y115.154 E19.51823
G1 X105.356 Y114.7 E19.53947
G1 X105.015 Y114.688 E19.55082
G1 X104.035 Y114.447 E19.58439
G1 X102.934 Y113.877 E19.62562
G1 X102.156 Y113.042 E19.66358
G1 X101.504 Y111.946 E19.706
G1 X101.315 Y110.711 E19.74755
G1 X101.296 Y109.07 E19.80213
G1 X101.55 Y108.04 E19.83742
G1 X102.123 Y106.934 E19.87885
G0 F6000 X102.445 Y107.181
G1 F1200 X103.2 Y106.478 E19.91316
G1 X104.191 Y105.887 E19.95154
G1 X105.171 Y105.725 E19.98457
G1 X105.495 Y105.712 E19.99536
G1 X106.283 Y104.985 E20.03102
G1 X106.965 Y104.63 E20.05659
G1 X107.775 Y104.157 E20.08779
G1 X109.042 Y103.9 E20.13079
G1 X111.143 Y103.907 E20.20067
G1 X112.281 Y104.209 E20.23983
G1 X112.95 Y104.545 E20.26473
G1 X113.717 Y105.161 E20.29745
G1 X114.267 Y105.7 E20.32306
G1 X114.89 Y105.7 E20.34378
G1 X115.822 Y105.929 E20.3757
G1 X116.819 Y106.445 E20.41304
G1 X117.522 Y107.2 E20.44735
G1 X118.113 Y108.193 E20.48578
G1 X118.285 Y109.294 E20.52285
G1 X118.303 Y110.885 E20.57577
G1 X118.073 Y111.818 E20.60773
G1 X117.555 Y112.819 E20.64522
G1 X116.8 Y113.522 E20.67953
G1 X115.806 Y114.113 E20.71799
G1 X114.644 Y114.29 E20.75709
G1 X114.279 Y114.293 E20.76923
G1 X113.505 Y115.068 E20.80566
G1 X112.236 Y115.837 E20.85501
G1 X110.971 Y116.1 E20.89798
G1 X108.696 Y116.1 E20.97365
G1 X107.346 Y115.638 E21.02111
G1 X106.058 Y114.841 E21.07148
G1 X105.524 Y114.3 E21.09677
G1 X105.11 Y114.3 E21.11054
G1 X104.178 Y114.071 E21.14246
G1 X103.181 Y113.555 E21.17979
G1 X102.478 Y112.8 E21.21411
G1 X101.887 Y111.807 E21.25254
G1 X101.715 Y110.706 E21.2896
G1 X101.697 Y109.115 E21.34252
G1 X101.927 Y108.182 E21.37449
G1 X102.445 Y107.181 E21.41197
G0 F6000 X102.768 Y107.426
G1 F1200 X103.439 Y106.802 E21.44245
G1 X104.331 Y106.27 E21.47699
G1 X105.236 Y106.12 E21.5075
G1 X105.696 Y106.107 E21.52281
G1 X105.809 Y105.96 E21.52898
G1 X106.514 Y105.316 E21.56074
G1 X107.15 Y104.985 E21.58458
G1 X107.919 Y104.536 E21.6142
G1 X109.082 Y104.3 E21.65367
G1 X111.088 Y104.307 E21.72039
G1 X112.139 Y104.586 E21.75656
G1 X112.732 Y104.883 E21.77862
G1 X113.466 Y105.473 E21.80994
G1 X114.103 Y106.1 E21.83967
