(G-CODE GENERATED BY FLATCAM v8.99 - www.flatcam.org - Version Date: 2019/12/15)

(Name: BusCardv1-F_Cu.gbr_iso_cnc)
(Type: G-code from Geometry)
(Units: MM)

(Created on Sunday, 23 November 2025 at 23:52)

(TOOL DIAMETER: 0.1536 mm)
(Feedrate: 120.0 mm/min)
(Feedrate_Z: 60.0 mm/min)
(Feedrate rapids 1500.0 mm/min)

(Z_Cut: -0.1 mm)
(Z_Move: 2.0 mm)
(Z Toolchange: 15.0 mm)
(X,Y Toolchange: 0.0000, 0.0000 mm)
(Z Start: None mm)
(Z End: 5.0 mm)
(Steps per circle: 64)
(Preprocessor Geometry: default)

(X range:   -1.2267 ...   91.7267  mm)
(Y range:   -1.2267 ...   53.7267  mm)

(Spindle Speed: None RPM)
G21
G90
G94




G01 F120.00
G00 Z2.0000

M03
G00 X6.5763 Y18.1121
G01 F60.00
G01 Z-0.1000
G01 F120.00
G01 X6.5763 Y17.8879
G01 X6.6114 Y17.6666
G01 X6.6806 Y17.4535
G01 X6.7823 Y17.2538
G01 X6.9141 Y17.0725
G01 X7.0725 Y16.9141
G01 X7.2538 Y16.7823
G01 X7.4535 Y16.6806
G01 X7.6666 Y16.6114
G01 X7.8879 Y16.5763
G01 X8.1121 Y16.5763
G01 X8.3334 Y16.6114
G01 X8.5465 Y16.6806
G01 X8.7462 Y16.7823
G01 X8.9275 Y16.9141
G01 X9.0859 Y17.0725
G01 X9.2177 Y17.2538
G01 X9.3194 Y17.4535
G01 X9.3886 Y17.6666
G01 X9.4237 Y17.8879
G01 X9.4237 Y18.1121
G01 X9.3886 Y18.3334
G01 X9.3194 Y18.5465
G01 X9.2177 Y18.7462
G01 X9.0859 Y18.9275
G01 X8.9275 Y19.0859
G01 X8.7462 Y19.2177
G01 X8.5465 Y19.3194
G01 X8.3334 Y19.3886
G01 X8.1121 Y19.4237
G01 X7.8879 Y19.4237
G01 X7.6666 Y19.3886
G01 X7.4535 Y19.3194
G01 X7.2538 Y19.2177
G01 X7.0725 Y19.0859
G01 X6.9141 Y18.9275
G01 X6.8580 Y18.8503
G01 X6.7823 Y18.7462
G01 X6.6806 Y18.5465
G01 X6.6114 Y18.3334
G01 X6.5763 Y18.1121
G00 Z2.0000
G00 X6.7299 Y18.1000
G01 F60.00
G01 Z-0.1000
G01 F120.00
G01 X6.7299 Y17.9000
G01 X6.7612 Y17.7026
G01 X6.8230 Y17.5124
G01 X6.9137 Y17.3343
G01 X7.0312 Y17.1726
G01 X7.1726 Y17.0312
G01 X7.3343 Y16.9137
G01 X7.5124 Y16.8230
G01 X7.7026 Y16.7612
G01 X7.9000 Y16.7299
G01 X8.1000 Y16.7299
G01 X8.2974 Y16.7612
G01 X8.4875 Y16.8230
G01 X8.6657 Y16.9137
G01 X8.8274 Y17.0312
G01 X8.9688 Y17.1726
G01 X9.0863 Y17.3343
G01 X9.1770 Y17.5125
G01 X9.2388 Y17.7026
G01 X9.2701 Y17.9000
G01 X9.2701 Y18.1000
G01 X9.2388 Y18.2974
G01 X9.1770 Y18.4875
G01 X9.0863 Y18.6657
G01 X8.9688 Y18.8274
G01 X8.8274 Y18.9688
G01 X8.6657 Y19.0863
G01 X8.4876 Y19.1770
G01 X8.2974 Y19.2388
G01 X8.1000 Y19.2701
G01 X7.9000 Y19.2701
G01 X7.7026 Y19.2388
G01 X7.5124 Y19.1770
G01 X7.3343 Y19.0863
G01 X7.1726 Y18.9688
G01 X7.0312 Y18.8274
G01 X6.9823 Y18.7600
G01 X6.9137 Y18.6657
G01 X6.8230 Y18.4876
G01 X6.7612 Y18.2974
G01 X6.7299 Y18.1000
G00 Z2.0000
G00 X9.0768 Y18.0019
G01 F60.00
G01 Z-0.1000
G01 F120.00
G01 X9.0716 Y18.1055
G01 X9.0561 Y18.2101
G01 X9.0304 Y18.3126
G01 X8.9948 Y18.4121
G01 X8.9497 Y18.5076
G01 X8.8953 Y18.5982
G01 X8.8324 Y18.6831
G01 X8.7614 Y18.7614
G01 X8.6831 Y18.8324
G01 X8.5982 Y18.8953
G01 X8.5076 Y18.9497
G01 X8.4121 Y18.9948
G01 X8.3126 Y19.0304
G01 X8.2101 Y19.0561
G01 X8.1055 Y19.0716
G01 X8.0000 Y19.0768
G01 X7.8945 Y19.0716
G01 X7.7899 Y19.0561
G01 X7.6874 Y19.0304
G01 X7.5879 Y18.9948
G01 X7.4924 Y18.9497
G01 X7.4018 Y18.8953
G01 X7.3169 Y18.8324
G01 X7.2386 Y18.7614
G01 X7.1676 Y18.6831
G01 X7.1047 Y18.5982
G01 X7.0503 Y18.5076
G01 X7.0052 Y18.4121
G01 X6.9696 Y18.3126
G01 X6.9439 Y18.2101
G01 X6.9284 Y18.1055
G01 X6.9232 Y18.0000
G01 X6.9284 Y17.8945
G01 X6.9439 Y17.7899
G01 X6.9696 Y17.6874
G01 X7.0052 Y17.5879
G01 X7.0503 Y17.4924
G01 X7.1047 Y17.4018
G01 X7.1676 Y17.3169
G01 X7.2386 Y17.2386
G01 X7.3169 Y17.1676
G01 X7.4018 Y17.1047
G01 X7.4924 Y17.0503
G01 X7.5879 Y17.0052
G01 X7.6874 Y16.9696
G01 X7.7899 Y16.9439
G01 X7.8945 Y16.9284
G01 X8.0000 Y16.9232
G01 X8.1055 Y16.9284
G01 X8.2101 Y16.9439
G01 X8.3126 Y16.9696
G01 X8.4121 Y17.0052
G01 X8.5076 Y17.0503
G01 X8.5982 Y17.1047
G01 X8.6831 Y17.1676
G01 X8.7614 Y17.2386
G01 X8.8324 Y17.3169
G01 X8.8953 Y17.4018
G01 X8.9497 Y17.4924
G01 X8.9948 Y17.5879
G01 X9.0304 Y17.6874
G01 X9.0561 Y17.7899
G01 X9.0716 Y17.8945
G01 X9.0768 Y18.0019
G00 Z2.0000
G00 X9.2303 Y18.0057
G01 F60.00
G01 Z-0.1000
G01 F120.00
G01 X9.2253 Y18.1093
G01 X9.2245 Y18.1206
G01 X9.2087 Y18.2289
G01 X9.2068 Y18.2400
G01 X9.1804 Y18.3463
G01 X9.1774 Y18.3572
G01 X9.1408 Y18.4603
G01 X9.1367 Y18.4709
G01 X9.0902 Y18.5699
G01 X9.0851 Y18.5800
G01 X9.0291 Y18.6740
G01 X9.0230 Y18.6836
G01 X8.9581 Y18.7716
G01 X8.9511 Y18.7806
G01 X8.9437 Y18.7891
G01 X8.8700 Y18.8700
G01 X8.7891 Y18.9437
G01 X8.7806 Y18.9511
G01 X8.7716 Y18.9581
G01 X8.6836 Y19.0230
G01 X8.6740 Y19.0291
G01 X8.5800 Y19.0851
G01 X8.5699 Y19.0902
G01 X8.4709 Y19.1367
G01 X8.4603 Y19.1408
G01 X8.3572 Y19.1774
G01 X8.3463 Y19.1804
G01 X8.2400 Y19.2068
G01 X8.2289 Y19.2087
G01 X8.1206 Y19.2245
G01 X8.1093 Y19.2253
G01 X8.0000 Y19.2304
G01 X7.8907 Y19.2253
G01 X7.8794 Y19.2245
G01 X7.7711 Y19.2087
G01 X7.7600 Y19.2068
G01 X7.6537 Y19.1804
G01 X7.6428 Y19.1774
G01 X7.5397 Y19.1408
G01 X7.5291 Y19.1367
G01 X7.4301 Y19.0902
G01 X7.4200 Y19.0851
G01 X7.3260 Y19.0291
G01 X7.3164 Y19.0230
G01 X7.2284 Y18.9581
G01 X7.2194 Y18.9511
G01 X7.2109 Y18.9437
G01 X7.1300 Y18.8700
G01 X7.0563 Y18.7891
G01 X7.0489 Y18.7806
G01 X7.0419 Y18.7716
G01 X6.9770 Y18.6836
G01 X6.9709 Y18.6740
G01 X6.9149 Y18.5800
G01 X6.9098 Y18.5699
G01 X6.8633 Y18.4709
G01 X6.8592 Y18.4603
G01 X6.8226 Y18.3572
G01 X6.8196 Y18.3463
G01 X6.7932 Y18.2400
G01 X6.7913 Y18.2289
G01 X6.7755 Y18.1206
G01 X6.7747 Y18.1093
G01 X6.7696 Y18.0000
G01 X6.7747 Y17.8907
G01 X6.7755 Y17.8794
G01 X6.7913 Y17.7711
G01 X6.7932 Y17.7600
G01 X6.8196 Y17.6537
G01 X6.8226 Y17.6428
G01 X6.8592 Y17.5397
G01 X6.8633 Y17.5291
G01 X6.9098 Y17.4301
G01 X6.9149 Y17.4200
G01 X6.9709 Y17.3260
G01 X6.9770 Y17.3164
G01 X7.0419 Y17.2284
G01 X7.0489 Y17.2194
G01 X7.0563 Y17.2109
G01 X7.1300 Y17.1300
G01 X7.2109 Y17.0563
G01 X7.2194 Y17.0489
G01 X7.2284 Y17.0419
G01 X7.3164 Y16.9770
G01 X7.3260 Y16.9709
G01 X7.4200 Y16.9149
G01 X7.4301 Y16.9098
G01 X7.5291 Y16.8633
G01 X7.5397 Y16.8592
G01 X7.6428 Y16.8226
G01 X7.6537 Y16.8196
G01 X7.7600 Y16.7932
G01 X7.7711 Y16.7913
G01 X7.8794 Y16.7755
G01 X7.8907 Y16.7747
G01 X8.0000 Y16.7696
G01 X8.1093 Y16.7747
G01 X8.1206 Y16.7755
G01 X8.2289 Y16.7913
G01 X8.2400 Y16.7932
G01 X8.3463 Y16.8196
G01 X8.3572 Y16.8226
G01 X8.4603 Y16.8592
G01 X8.4709 Y16.8633
G01 X8.5699 Y16.9098
G01 X8.5800 Y16.9149
G01 X8.6740 Y16.9709
G01 X8.6836 Y16.9770
G01 X8.7716 Y17.0419
G01 X8.7806 Y17.0489
G01 X8.7891 Y17.0563
G01 X8.8700 Y17.1300
G01 X8.9437 Y17.2109
G01 X8.9511 Y17.2194
G01 X8.9581 Y17.2284
G01 X9.0230 Y17.3164
G01 X9.0291 Y17.3260
G01 X9.0851 Y17.4200
G01 X9.0902 Y17.4301
G01 X9.1367 Y17.5291
G01 X9.1408 Y17.5397
G01 X9.1774 Y17.6428
G01 X9.1804 Y17.6537
G01 X9.2068 Y17.7600
G01 X9.2087 Y17.7711
G01 X9.2245 Y17.8794
G01 X9.2301 Y17.9887
G01 X9.2303 Y18.0057
G00 Z2.0000
G00 X13.0763 Y18.1121
G01 F60.00
G01 Z-0.1000
G01 F120.00
G01 X13.0763 Y17.8879
G01 X13.1114 Y17.6666
G01 X13.1806 Y17.4535
G01 X13.2823 Y17.2538
G01 X13.4141 Y17.0725
G01 X13.5725 Y16.9141
G01 X13.7538 Y16.7823
G01 X13.9535 Y16.6806
G01 X14.1666 Y16.6114
G01 X14.3879 Y16.5763
G01 X14.6121 Y16.5763
G01 X14.8334 Y16.6114
G01 X15.0465 Y16.6806
G01 X15.2462 Y16.7823
G01 X15.4275 Y16.9141
G01 X15.5859 Y17.0725
G01 X15.7270 Y17.2670
G01 X15.7321 Y17.2726
G01 X15.7378 Y17.2776
G01 X15.7415 Y17.2803
G01 X15.7771 Y17.3178
G01 X15.7823 Y17.3225
G01 X15.7880 Y17.3266
G01 X15.7941 Y17.3302
G01 X15.8004 Y17.3333
G01 X15.8070 Y17.3357
G01 X15.8729 Y17.3536
G01 X15.8828 Y17.3556
G01 X15.8895 Y17.3562
G01 X36.3253 Y17.3563
G01 X36.3362 Y17.3555
G01 X36.3434 Y17.3541
G01 X36.4174 Y17.3324
G01 X36.4242 Y17.3297
G01 X36.4307 Y17.3263
G01 X36.4369 Y17.3224
G01 X36.4426 Y17.3179
G01 X36.4479 Y17.3128
G01 X36.4961 Y17.2573
G01 X36.5030 Y17.2480
G01 X36.5068 Y17.2412
G01 X36.5105 Y17.2330
G01 X36.5406 Y17.1603
G01 X36.6470 Y16.9760
G01 X36.7766 Y16.8071
G01 X36.9271 Y16.6566
G01 X37.0960 Y16.5270
G01 X37.2803 Y16.4206
G01 X37.4770 Y16.3392
G01 X37.6826 Y16.2841
G01 X37.8936 Y16.2563
G01 X38.1064 Y16.2563
G01 X38.3174 Y16.2841
G01 X38.5230 Y16.3392
G01 X38.7197 Y16.4206
G01 X38.9040 Y16.5270
G01 X39.0729 Y16.6566
G01 X39.2234 Y16.8071
G01 X39.3530 Y16.9760
G01 X39.4594 Y17.1603
G01 X39.5408 Y17.3570
G01 X39.5959 Y17.5626
G01 X39.6237 Y17.7736
G01 X39.6237 Y17.9864
G01 X39.5959 Y18.1974
G01 X39.5408 Y18.4030
G01 X39.4594 Y18.5997
G01 X39.3530 Y18.7840
G01 X39.2234 Y18.9529
G01 X39.0729 Y19.1034
G01 X38.9040 Y19.2329
G01 X38.7197 Y19.3394
G01 X38.5231 Y19.4208
G01 X38.3174 Y19.4759
G01 X38.1064 Y19.5037
G01 X37.8936 Y19.5037
G01 X37.6826 Y19.4759
G01 X37.4770 Y19.4208
G01 X37.2803 Y19.3394
G01 X37.0960 Y19.2330
G01 X36.9271 Y19.1034
G01 X36.7766 Y18.9529
G01 X36.6471 Y18.7840
G01 X36.5406 Y18.5997
G01 X36.5108 Y18.5277
G01 X36.5059 Y18.5179
G01 X36.4996 Y18.5089
G01 X36.4534 Y18.4517
G01 X36.4483 Y18.4464
G01 X36.4427 Y18.4417
G01 X36.4367 Y18.4375
G01 X36.4304 Y18.4340
G01 X36.4237 Y18.4310
G01 X36.3502 Y18.4066
G01 X36.3427 Y18.4049
G01 X36.3350 Y18.4040
G01 X36.3253 Y18.4037
G01 X16.0080 Y18.4038
G01 X16.0008 Y18.4045
G01 X15.9900 Y18.4068
G01 X15.9195 Y18.4276
G01 X15.9127 Y18.4303
G01 X15.9062 Y18.4337
G01 X15.9001 Y18.4376
G01 X15.8944 Y18.4421
G01 X15.8891 Y18.4472
G01 X15.8409 Y18.5027
G01 X15.8381 Y18.5061
G01 X15.8331 Y18.5133
G01 X15.8290 Y18.5211
G01 X15.8273 Y18.5251
G01 X15.8194 Y18.5465
G01 X15.7177 Y18.7462
G01 X15.5859 Y18.9275
G01 X15.4275 Y19.0859
G01 X15.2462 Y19.2177
G01 X15.0465 Y19.3194
G01 X14.8334 Y19.3886
G01 X14.6121 Y19.4237
G01 X14.3879 Y19.4237
G01 X14.1666 Y19.3886
G01 X13.9535 Y19.3194
G01 X13.7538 Y19.2177
G01 X13.5725 Y19.0859
G01 X13.4141 Y18.9275
G01 X13.2823 Y18.7462
G01 X13.1806 Y18.5465
G01 X13.1114 Y18.3334
G01 X13.0763 Y18.1121
G00 Z2.0000
G00 X13.2299 Y18.1000
G01 F60.00
G01 Z-0.1000
G01 F120.00
G01 X13.2299 Y17.9000
G01 X13.2612 Y17.7026
G01 X13.3230 Y17.5124
G01 X13.4137 Y17.3343
G01 X13.5312 Y17.1726
G01 X13.6726 Y17.0312
G01 X13.8343 Y16.9137
G01 X14.0124 Y16.8230
G01 X14.2026 Y16.7612
G01 X14.4000 Y16.7299
G01 X14.6000 Y16.7299
G01 X14.7974 Y16.7612
G01 X14.9875 Y16.8230
G01 X15.1657 Y16.9137
G01 X15.3274 Y17.0312
G01 X15.4688 Y17.1726
G01 X15.5927 Y17.3432
G01 X15.5956 Y17.3476
G01 X15.6082 Y17.3644
G01 X15.6223 Y17.3800
G01 X15.6669 Y17.4249
G01 X15.6862 Y17.4423
G01 X15.7032 Y17.4547
G01 X15.7213 Y17.4655
G01 X15.7404 Y17.4747
G01 X15.7601 Y17.4820
G01 X15.8426 Y17.5043
G01 X15.8626 Y17.5079
G01 X15.8828 Y17.5097
G01 X36.3253 Y17.5099
G01 X36.3362 Y17.5096
G01 X36.3581 Y17.5076
G01 X36.3796 Y17.5034
G01 X36.4572 Y17.4809
G01 X36.4677 Y17.4775
G01 X36.4880 Y17.4694
G01 X36.5075 Y17.4593
G01 X36.5260 Y17.4475
G01 X36.5432 Y17.4339
G01 X36.5591 Y17.4188
G01 X36.6122 Y17.3579
G01 X36.6196 Y17.3489
G01 X36.6330 Y17.3298
G01 X36.6444 Y17.3095
G01 X36.6493 Y17.2990
G01 X36.6787 Y17.2284
G01 X36.7750 Y17.0615
G01 X36.8923 Y16.9086
G01 X37.0286 Y16.7724
G01 X37.1815 Y16.6550
G01 X37.3484 Y16.5587
G01 X37.5264 Y16.4849
G01 X37.7126 Y16.4351
G01 X37.9036 Y16.4099
G01 X38.0964 Y16.4099
G01 X38.2874 Y16.4351
G01 X38.4736 Y16.4849
G01 X38.6516 Y16.5587
G01 X38.8185 Y16.6550
G01 X38.9714 Y16.7723
G01 X39.1077 Y16.9086
G01 X39.2250 Y17.0615
G01 X39.3213 Y17.2284
G01 X39.3951 Y17.4064
G01 X39.4449 Y17.5926
G01 X39.4701 Y17.7836
G01 X39.4701 Y17.9764
G01 X39.4449 Y18.1674
G01 X39.3951 Y18.3536
G01 X39.3213 Y18.5316
G01 X39.2250 Y18.6985
G01 X39.1077 Y18.8514
G01 X38.9714 Y18.9876
G01 X38.8185 Y19.1050
G01 X38.6516 Y19.2013
G01 X38.4736 Y19.2751
G01 X38.2874 Y19.3249
G01 X38.0964 Y19.3501
G01 X37.9036 Y19.3501
G01 X37.7126 Y19.3249
G01 X37.5264 Y19.2751
G01 X37.3484 Y19.2013
G01 X37.1815 Y19.1050
G01 X37.0286 Y18.9877
G01 X36.8924 Y18.8514
G01 X36.7750 Y18.6985
G01 X36.6787 Y18.5316
G01 X36.6527 Y18.4689
G01 X36.6483 Y18.4589
G01 X36.6380 Y18.4395
G01 X36.6259 Y18.4212
G01 X36.6192 Y18.4125
G01 X36.5754 Y18.3581
G01 X36.5683 Y18.3497
G01 X36.5530 Y18.3340
G01 X36.5363 Y18.3199
G01 X36.5182 Y18.3073
G01 X36.4991 Y18.2966
G01 X36.4791 Y18.2877
G01 X36.4025 Y18.2620
G01 X36.3913 Y18.2586
G01 X36.3686 Y18.2535
G01 X36.3455 Y18.2507
G01 X36.3253 Y18.2501
G01 X16.0117 Y18.2501
G01 X16.0007 Y18.2504
G01 X15.9789 Y18.2524
G01 X15.9574 Y18.2566
G01 X15.8797 Y18.2791
G01 X15.8693 Y18.2825
G01 X15.8489 Y18.2906
G01 X15.8294 Y18.3007
G01 X15.8110 Y18.3125
G01 X15.7938 Y18.3261
G01 X15.7779 Y18.3412
G01 X15.7248 Y18.4021
G01 X15.7164 Y18.4123
G01 X15.7016 Y18.4340
G01 X15.6893 Y18.4573
G01 X15.6776 Y18.4864
G01 X15.5863 Y18.6657
G01 X15.4688 Y18.8274
G01 X15.3274 Y18.9688
G01 X15.1657 Y19.0863
G01 X14.9876 Y19.1770
G01 X14.7974 Y19.2388
G01 X14.6000 Y19.2701
G01 X14.4000 Y19.2701
G01 X14.2026 Y19.2388
G01 X14.0124 Y19.1770
G01 X13.8343 Y19.0863
G01 X13.6726 Y18.9688
G01 X13.5312 Y18.8274
G01 X13.4137 Y18.6657
G01 X13.3230 Y18.4876
G01 X13.2612 Y18.2974
G01 X13.2299 Y18.1000
G00 Z2.0000
G00 X15.5345 Y17.7031
G01 F60.00
G01 Z-0.1000
G01 F120.00
G01 X36.7369 Y17.7031
G01 X36.7477 Y17.6309
G01 X36.7782 Y17.5094
G01 X36.8204 Y17.3914
G01 X36.8740 Y17.2781
G01 X36.9384 Y17.1706
G01 X37.0130 Y17.0700
G01 X37.0972 Y16.9772
G01 X37.1872 Y16.8955
G01 X37.1930 Y16.8907
G01 X37.2876 Y16.8206
G01 X37.2938 Y16.8164
G01 X37.3981 Y16.7540
G01 X37.5079 Y16.7019
G01 X37.5149 Y16.6990
G01 X37.6294 Y16.6582
G01 X37.7509 Y16.6277
G01 X37.8749 Y16.6093
G01 X38.0000 Y16.6032
G01 X38.1251 Y16.6093
G01 X38.2491 Y16.6277
G01 X38.3706 Y16.6582
G01 X38.4886 Y16.7004
G01 X38.6019 Y16.7540
G01 X38.7094 Y16.8184
G01 X38.8100 Y16.8930
G01 X38.9028 Y16.9772
G01 X38.9870 Y17.0700
G01 X39.0616 Y17.1706
G01 X39.1260 Y17.2781
G01 X39.1796 Y17.3914
G01 X39.2218 Y17.5094
G01 X39.2523 Y17.6309
G01 X39.2707 Y17.7549
G01 X39.2768 Y17.8819
G01 X39.2707 Y18.0051
G01 X39.2523 Y18.1291
G01 X39.2218 Y18.2506
G01 X39.1796 Y18.3686
G01 X39.1260 Y18.4819
G01 X39.0616 Y18.5894
G01 X38.9870 Y18.6900
G01 X38.9028 Y18.7828
G01 X38.8100 Y18.8670
G01 X38.7094 Y18.9416
G01 X38.6019 Y19.0060
G01 X38.4886 Y19.0596
G01 X38.3706 Y19.1018
G01 X38.2491 Y19.1323
G01 X38.1251 Y19.1507
G01 X38.0000 Y19.1568
G01 X37.8749 Y19.1507
G01 X37.7509 Y19.1323
G01 X37.6294 Y19.1018
G01 X37.5149 Y19.0610
G01 X37.5079 Y19.0581
G01 X37.4015 Y19.0077
G01 X37.3948 Y19.0042
G01 X37.2906 Y18.9416
G01 X37.1930 Y18.8693
G01 X37.1872 Y18.8645
G01 X37.0972 Y18.7828
G01 X37.0130 Y18.6900
G01 X36.9384 Y18.5894
G01 X36.8740 Y18.4819
G01 X36.8204 Y18.3686
G01 X36.7782 Y18.2506
G01 X36.7477 Y18.1291
G01 X36.7369 Y18.0569
G01 X15.5741 Y18.0569
G01 X15.5716 Y18.1055
G01 X15.5568 Y18.2064
G01 X15.5553 Y18.2138
G01 X15.5304 Y18.3126
G01 X15.4962 Y18.4086
G01 X15.4933 Y18.4155
G01 X15.4497 Y18.5076
G01 X15.3953 Y18.5982
G01 X15.3324 Y18.6831
G01 X15.2640 Y18.7587
G01 X15.2587 Y18.7640
G01 X15.1831 Y18.8324
G01 X15.0982 Y18.8953
G01 X15.0076 Y18.9497
G01 X14.9121 Y18.9948
G01 X14.8126 Y19.0304
G01 X14.7101 Y19.0561
G01 X14.6055 Y19.0716
G01 X14.5000 Y19.0768
G01 X14.3945 Y19.0716
G01 X14.2936 Y19.0568
G01 X14.2862 Y19.0553
G01 X14.1874 Y19.0304
G01 X14.0879 Y18.9948
G01 X13.9958 Y18.9513
G01 X13.9891 Y18.9478
G01 X13.9049 Y18.8973
G01 X13.8987 Y18.8932
G01 X13.8169 Y18.8324
G01 X13.7386 Y18.7614
G01 X13.6676 Y18.6831
G01 X13.6068 Y18.6013
G01 X13.6027 Y18.5951
G01 X13.5522 Y18.5109
G01 X13.5487 Y18.5042
G01 X13.5052 Y18.4121
G01 X13.4696 Y18.3126
G01 X13.4439 Y18.2101
G01 X13.4284 Y18.1055
G01 X13.4232 Y18.0000
G01 X13.4284 Y17.8945
G01 X13.4439 Y17.7899
G01 X13.4696 Y17.6874
G01 X13.5052 Y17.5879
G01 X13.5503 Y17.4924
G01 X13.6047 Y17.4018
G01 X13.6676 Y17.3169
G01 X13.7386 Y17.2386
G01 X13.8169 Y17.1676
G01 X13.9018 Y17.1047
G01 X13.9924 Y17.0503
G01 X14.0879 Y17.0052
G01 X14.1874 Y16.9696
G01 X14.2899 Y16.9439
G01 X14.3945 Y16.9284
G01 X14.5000 Y16.9232
G01 X14.6055 Y16.9284
G01 X14.7101 Y16.9439
G01 X14.8126 Y16.9696
G01 X14.9121 Y17.0052
G01 X15.0076 Y17.0503
G01 X15.0982 Y17.1047
G01 X15.1831 Y17.1676
G01 X15.2614 Y17.2386
G01 X15.3324 Y17.3169
G01 X15.3953 Y17.4018
G01 X15.4497 Y17.4924
G01 X15.4948 Y17.5879
G01 X15.5293 Y17.6838
G01 X15.5345 Y17.7031
G00 Z2.0000
G00 X15.6443 Y17.5495
G01 F60.00
G01 Z-0.1000
G01 F120.00
G01 X36.6097 Y17.5495
G01 X36.6312 Y17.4648
G01 X36.6347 Y17.4540
G01 X36.6744 Y17.3432
G01 X36.6785 Y17.3326
G01 X36.6831 Y17.3223
G01 X36.7334 Y17.2158
G01 X36.7385 Y17.2057
G01 X36.7441 Y17.1959
G01 X36.8046 Y17.0949
G01 X36.8107 Y17.0853
G01 X36.8172 Y17.0761
G01 X36.8873 Y16.9815
G01 X36.8943 Y16.9726
G01 X36.9017 Y16.9640
G01 X36.9808 Y16.8767
G01 X36.9886 Y16.8686
G01 X36.9967 Y16.8608
G01 X37.0840 Y16.7817
G01 X37.0926 Y16.7743
G01 X37.1015 Y16.7673
G01 X37.1961 Y16.6972
G01 X37.2053 Y16.6907
G01 X37.2149 Y16.6846
G01 X37.3159 Y16.6241
G01 X37.3257 Y16.6185
G01 X37.3358 Y16.6134
G01 X37.4423 Y16.5631
G01 X37.4526 Y16.5585
G01 X37.4632 Y16.5544
G01 X37.5740 Y16.5147
G01 X37.5848 Y16.5112
G01 X37.5957 Y16.5082
G01 X37.7099 Y16.4796
G01 X37.7209 Y16.4771
G01 X37.7321 Y16.4752
G01 X37.8486 Y16.4579
G01 X37.8598 Y16.4565
G01 X37.8711 Y16.4557
G01 X37.9887 Y16.4499
G01 X38.0000 Y16.4496
G01 X38.0113 Y16.4499
G01 X38.1289 Y16.4557
G01 X38.1402 Y16.4565
G01 X38.1514 Y16.4579
G01 X38.2679 Y16.4752
G01 X38.2791 Y16.4771
G01 X38.2901 Y16.4796
G01 X38.4043 Y16.5082
G01 X38.4152 Y16.5112
G01 X38.4260 Y16.5147
G01 X38.5368 Y16.5544
G01 X38.5474 Y16.5585
G01 X38.5577 Y16.5631
G01 X38.6642 Y16.6134
G01 X38.6743 Y16.6185
G01 X38.6841 Y16.6241
G01 X38.7851 Y16.6846
G01 X38.7947 Y16.6907
G01 X38.8039 Y16.6972
G01 X38.8985 Y16.7673
G01 X38.9074 Y16.7743
G01 X38.9160 Y16.7817
G01 X39.0033 Y16.8608
G01 X39.0114 Y16.8686
G01 X39.0192 Y16.8767
G01 X39.0983 Y16.9640
G01 X39.1057 Y16.9726
G01 X39.1127 Y16.9815
G01 X39.1828 Y17.0761
G01 X39.1893 Y17.0853
G01 X39.1954 Y17.0949
G01 X39.2559 Y17.1959
G01 X39.2615 Y17.2057
G01 X39.2666 Y17.2158
G01 X39.3169 Y17.3223
G01 X39.3215 Y17.3326
G01 X39.3256 Y17.3432
G01 X39.3653 Y17.4540
G01 X39.3688 Y17.4648
G01 X39.3718 Y17.4757
G01 X39.4004 Y17.5899
G01 X39.4029 Y17.6009
G01 X39.4048 Y17.6121
G01 X39.4221 Y17.7286
G01 X39.4235 Y17.7398
G01 X39.4243 Y17.7511
G01 X39.4301 Y17.8687
G01 X39.4303 Y17.8857
G01 X39.4243 Y18.0089
G01 X39.4235 Y18.0202
G01 X39.4221 Y18.0314
G01 X39.4048 Y18.1479
G01 X39.4029 Y18.1591
G01 X39.4004 Y18.1701
G01 X39.3718 Y18.2843
G01 X39.3688 Y18.2952
G01 X39.3653 Y18.3060
G01 X39.3256 Y18.4168
G01 X39.3215 Y18.4274
G01 X39.3169 Y18.4377
G01 X39.2666 Y18.5442
G01 X39.2615 Y18.5543
G01 X39.2559 Y18.5641
G01 X39.1954 Y18.6651
G01 X39.1893 Y18.6747
G01 X39.1828 Y18.6839
G01 X39.1127 Y18.7785
G01 X39.1057 Y18.7874
G01 X39.0983 Y18.7960
G01 X39.0192 Y18.8833
G01 X39.0114 Y18.8914
G01 X39.0033 Y18.8992
G01 X38.9160 Y18.9783
G01 X38.9074 Y18.9857
G01 X38.8985 Y18.9927
G01 X38.8039 Y19.0628
G01 X38.7947 Y19.0693
G01 X38.7851 Y19.0754
G01 X38.6841 Y19.1359
G01 X38.6743 Y19.1415
G01 X38.6642 Y19.1466
G01 X38.5577 Y19.1969
G01 X38.5474 Y19.2015
G01 X38.5368 Y19.2056
G01 X38.4260 Y19.2453
G01 X38.4152 Y19.2488
G01 X38.4043 Y19.2518
G01 X38.2901 Y19.2804
G01 X38.2791 Y19.2829
G01 X38.2679 Y19.2848
G01 X38.1514 Y19.3021
G01 X38.1402 Y19.3035
G01 X38.1289 Y19.3043
G01 X38.0113 Y19.3101
G01 X38.0000 Y19.3104
G01 X37.9887 Y19.3101
G01 X37.8711 Y19.3043
G01 X37.8598 Y19.3035
G01 X37.8486 Y19.3021
G01 X37.7321 Y19.2848
G01 X37.7209 Y19.2829
G01 X37.7099 Y19.2804
G01 X37.5957 Y19.2518
G01 X37.5848 Y19.2488
G01 X37.5740 Y19.2453
G01 X37.4632 Y19.2056
G01 X37.4526 Y19.2015
G01 X37.4423 Y19.1969
G01 X37.3358 Y19.1466
G01 X37.3257 Y19.1415
G01 X37.3159 Y19.1359
G01 X37.2149 Y19.0754
G01 X37.2053 Y19.0693
G01 X37.1961 Y19.0628
G01 X37.1015 Y18.9927
G01 X37.0926 Y18.9857
G01 X37.0840 Y18.9783
G01 X36.9967 Y18.8992
G01 X36.9886 Y18.8914
G01 X36.9808 Y18.8833
G01 X36.9017 Y18.7960
G01 X36.8943 Y18.7874
G01 X36.8873 Y18.7785
G01 X36.8172 Y18.6839
G01 X36.8107 Y18.6747
G01 X36.8046 Y18.6651
G01 X36.7441 Y18.5641
G01 X36.7385 Y18.5543
G01 X36.7334 Y18.5442
G01 X36.6831 Y18.4377
G01 X36.6785 Y18.4274
G01 X36.6744 Y18.4168
G01 X36.6347 Y18.3060
G01 X36.6312 Y18.2952
G01 X36.6097 Y18.2105
G01 X15.7114 Y18.2105
G01 X15.7068 Y18.2400
G01 X15.7043 Y18.2511
G01 X15.6804 Y18.3463
G01 X15.6774 Y18.3572
G01 X15.6739 Y18.3679
G01 X15.6367 Y18.4709
G01 X15.5902 Y18.5699
G01 X15.5851 Y18.5800
G01 X15.5795 Y18.5898
G01 X15.5230 Y18.6836
G01 X15.4581 Y18.7716
G01 X15.4511 Y18.7806
G01 X15.4437 Y18.7891
G01 X15.3700 Y18.8700
G01 X15.2891 Y18.9437
G01 X15.2806 Y18.9511
G01 X15.2716 Y18.9581
G01 X15.1836 Y19.0230
G01 X15.1740 Y19.0291
G01 X15.0800 Y19.0851
G01 X15.0699 Y19.0902
G01 X14.9709 Y19.1367
G01 X14.8679 Y19.1739
G01 X14.8572 Y19.1774
G01 X14.8463 Y19.1804
G01 X14.7511 Y19.2043
G01 X14.7400 Y19.2068
G01 X14.7289 Y19.2087
G01 X14.6206 Y19.2245
G01 X14.6093 Y19.2253
G01 X14.5000 Y19.2304
G01 X14.3907 Y19.2253
G01 X14.3794 Y19.2245
G01 X14.2711 Y19.2087
G01 X14.2600 Y19.2068
G01 X14.2489 Y19.2043
G01 X14.1428 Y19.1774
G01 X14.0397 Y19.1408
G01 X14.0291 Y19.1367
G01 X13.9301 Y19.0902
G01 X13.9200 Y19.0851
G01 X13.9102 Y19.0795
G01 X13.8164 Y19.0230
G01 X13.7284 Y18.9581
G01 X13.7194 Y18.9511
G01 X13.6382 Y18.8778
G01 X13.6300 Y18.8700
G01 X13.6222 Y18.8618
G01 X13.5489 Y18.7806
G01 X13.4835 Y18.6928
G01 X13.4770 Y18.6836
G01 X13.4709 Y18.6740
G01 X13.4149 Y18.5800
G01 X13.4098 Y18.5699
G01 X13.3633 Y18.4709
G01 X13.3592 Y18.4603
G01 X13.3226 Y18.3572
G01 X13.3196 Y18.3463
G01 X13.2932 Y18.2400
G01 X13.2913 Y18.2289
G01 X13.2755 Y18.1206
G01 X13.2747 Y18.1093
G01 X13.2696 Y18.0000
G01 X13.2747 Y17.8907
G01 X13.2755 Y17.8794
G01 X13.2913 Y17.7711
G01 X13.2932 Y17.7600
G01 X13.3196 Y17.6537
G01 X13.3226 Y17.6428
G01 X13.3592 Y17.5397
G01 X13.3633 Y17.5291
G01 X13.4098 Y17.4301
G01 X13.4149 Y17.4200
G01 X13.4709 Y17.3260
G01 X13.4770 Y17.3164
G01 X13.5419 Y17.2284
G01 X13.5489 Y17.2194
G01 X13.5563 Y17.2109
G01 X13.6300 Y17.1300
G01 X13.7109 Y17.0563
G01 X13.7194 Y17.0489
G01 X13.7284 Y17.0419
G01 X13.8164 Y16.9770
G01 X13.8260 Y16.9709
G01 X13.9200 Y16.9149
G01 X13.9301 Y16.9098
G01 X14.0291 Y16.8633
G01 X14.0397 Y16.8592
G01 X14.1428 Y16.8226
G01 X14.1537 Y16.8196
G01 X14.2600 Y16.7932
G01 X14.2711 Y16.7913
G01 X14.3794 Y16.7755
G01 X14.3907 Y16.7747
G01 X14.5000 Y16.7696
G01 X14.6093 Y16.7747
G01 X14.6206 Y16.7755
G01 X14.7289 Y16.7913
G01 X14.7400 Y16.7932
G01 X14.8463 Y16.8196
G01 X14.8572 Y16.8226
G01 X14.9603 Y16.8592
G01 X14.9709 Y16.8633
G01 X15.0699 Y16.9098
G01 X15.0800 Y16.9149
G01 X15.1740 Y16.9709
G01 X15.1836 Y16.9770
G01 X15.2716 Y17.0419
G01 X15.2806 Y17.0489
G01 X15.2891 Y17.0563
G01 X15.3700 Y17.1300
G01 X15.4437 Y17.2109
G01 X15.4511 Y17.2194
G01 X15.4581 Y17.2284
G01 X15.5230 Y17.3164
G01 X15.5291 Y17.3260
G01 X15.5851 Y17.4200
G01 X15.6322 Y17.5188
G01 X15.6367 Y17.5291
G01 X15.6443 Y17.5495
G00 Z2.0000
G00 X15.5768 Y22.5019
G01 F60.00
G01 Z-0.1000
G01 F120.00
G01 X15.5716 Y22.6055
G01 X15.5561 Y22.7101
G01 X15.5304 Y22.8126
G01 X15.4948 Y22.9121
G01 X15.4497 Y23.0076
G01 X15.3953 Y23.0982
G01 X15.3324 Y23.1831
G01 X15.2614 Y23.2614
G01 X15.1831 Y23.3324
G01 X15.0982 Y23.3953
G01 X15.0076 Y23.4497
G01 X14.9121 Y23.4948
G01 X14.8126 Y23.5304
G01 X14.7101 Y23.5561
G01 X14.6055 Y23.5716
G01 X14.5000 Y23.5768
G01 X14.3945 Y23.5716
G01 X14.2899 Y23.5561
G01 X14.1874 Y23.5304
G01 X14.0879 Y23.4948
G01 X13.9924 Y23.4497
G01 X13.9018 Y23.3953
G01 X13.8169 Y23.3324
G01 X13.7386 Y23.2614
G01 X13.6676 Y23.1831
G01 X13.6047 Y23.0982
G01 X13.5503 Y23.0076
G01 X13.5052 Y22.9121
G01 X13.4696 Y22.8126
G01 X13.4439 Y22.7101
G01 X13.4284 Y22.6055
G01 X13.4232 Y22.5000
G01 X13.4284 Y22.3945
G01 X13.4439 Y22.2899
G01 X13.4696 Y22.1874
G01 X13.5052 Y22.0879
G01 X13.5503 Y21.9924
G01 X13.6047 Y21.9018
G01 X13.6676 Y21.8169
G01 X13.7386 Y21.7386
G01 X13.8169 Y21.6676
G01 X13.9018 Y21.6047
G01 X13.9924 Y21.5503
G01 X14.0879 Y21.5052
G01 X14.1874 Y21.4696
G01 X14.2899 Y21.4439
G01 X14.3945 Y21.4284
G01 X14.5000 Y21.4232
G01 X14.6055 Y21.4284
G01 X14.7101 Y21.4439
G01 X14.8126 Y21.4696
G01 X14.9121 Y21.5052
G01 X15.0076 Y21.5503
G01 X15.0982 Y21.6047
G01 X15.1831 Y21.6676
G01 X15.2614 Y21.7386
G01 X15.3324 Y21.8169
G01 X15.3953 Y21.9018
G01 X15.4497 Y21.9924
G01 X15.4948 Y22.0879
G01 X15.5304 Y22.1874
G01 X15.5561 Y22.2899
G01 X15.5716 Y22.3945
G01 X15.5768 Y22.5019
G00 Z2.0000
G00 X15.7303 Y22.5057
G01 F60.00
G01 Z-0.1000
G01 F120.00
G01 X15.7253 Y22.6093
G01 X15.7245 Y22.6206
G01 X15.7087 Y22.7289
G01 X15.7068 Y22.7400
G01 X15.6804 Y22.8463
G01 X15.6774 Y22.8572
G01 X15.6408 Y22.9603
G01 X15.6367 Y22.9709
G01 X15.5902 Y23.0699
G01 X15.5851 Y23.0800
G01 X15.5291 Y23.1740
G01 X15.5230 Y23.1836
G01 X15.4581 Y23.2716
G01 X15.4511 Y23.2806
G01 X15.4437 Y23.2891
G01 X15.3700 Y23.3700
G01 X15.2891 Y23.4437
G01 X15.2806 Y23.4511
G01 X15.2716 Y23.4581
G01 X15.1836 Y23.5230
G01 X15.1740 Y23.5291
G01 X15.0800 Y23.5851
G01 X15.0699 Y23.5902
G01 X14.9709 Y23.6367
G01 X14.9603 Y23.6408
G01 X14.8572 Y23.6774
G01 X14.8463 Y23.6804
G01 X14.7400 Y23.7068
G01 X14.7289 Y23.7087
G01 X14.6206 Y23.7245
G01 X14.6093 Y23.7253
G01 X14.5000 Y23.7304
G01 X14.3907 Y23.7253
G01 X14.3794 Y23.7245
G01 X14.2711 Y23.7087
G01 X14.2600 Y23.7068
G01 X14.1537 Y23.6804
G01 X14.1428 Y23.6774
G01 X14.0397 Y23.6408
G01 X14.0291 Y23.6367
G01 X13.9301 Y23.5902
G01 X13.9200 Y23.5851
G01 X13.8260 Y23.5291
G01 X13.8164 Y23.5230
G01 X13.7284 Y23.4581
G01 X13.7194 Y23.4511
G01 X13.7109 Y23.4437
G01 X13.6300 Y23.3700
G01 X13.5563 Y23.2891
G01 X13.5489 Y23.2806
G01 X13.5419 Y23.2716
G01 X13.4770 Y23.1836
G01 X13.4709 Y23.1740
G01 X13.4149 Y23.0800
G01 X13.4098 Y23.0699
G01 X13.3633 Y22.9709
G01 X13.3592 Y22.9603
G01 X13.3226 Y22.8572
G01 X13.3196 Y22.8463
G01 X13.2932 Y22.7400
G01 X13.2913 Y22.7289
G01 X13.2755 Y22.6206
G01 X13.2747 Y22.6093
G01 X13.2696 Y22.5000
G01 X13.2747 Y22.3907
G01 X13.2755 Y22.3794
G01 X13.2913 Y22.2711
G01 X13.2932 Y22.2600
G01 X13.3196 Y22.1537
G01 X13.3226 Y22.1428
G01 X13.3592 Y22.0397
G01 X13.3633 Y22.0291
G01 X13.4098 Y21.9301
G01 X13.4149 Y21.9200
G01 X13.4709 Y21.8260
G01 X13.4770 Y21.8164
G01 X13.5419 Y21.7284
G01 X13.5489 Y21.7194
G01 X13.5563 Y21.7109
G01 X13.6300 Y21.6300
G01 X13.7109 Y21.5563
G01 X13.7194 Y21.5489
G01 X13.7284 Y21.5419
G01 X13.8164 Y21.4770
G01 X13.8260 Y21.4709
G01 X13.9200 Y21.4149
G01 X13.9301 Y21.4098
G01 X14.0291 Y21.3633
G01 X14.0397 Y21.3592
G01 X14.1428 Y21.3226
G01 X14.1537 Y21.3196
G01 X14.2600 Y21.2932
G01 X14.2711 Y21.2913
G01 X14.3794 Y21.2755
G01 X14.3907 Y21.2747
G01 X14.5000 Y21.2696
G01 X14.6093 Y21.2747
G01 X14.6206 Y21.2755
G01 X14.7289 Y21.2913
G01 X14.7400 Y21.2932
G01 X14.8463 Y21.3196
G01 X14.8572 Y21.3226
G01 X14.9603 Y21.3592
G01 X14.9709 Y21.3633
G01 X15.0699 Y21.4098
G01 X15.0800 Y21.4149
G01 X15.1740 Y21.4709
G01 X15.1836 Y21.4770
G01 X15.2716 Y21.5419
G01 X15.2806 Y21.5489
G01 X15.2891 Y21.5563
G01 X15.3700 Y21.6300
G01 X15.4437 Y21.7109
G01 X15.4511 Y21.7194
G01 X15.4581 Y21.7284
G01 X15.5230 Y21.8164
G01 X15.5291 Y21.8260
G01 X15.5851 Y21.9200
G01 X15.5902 Y21.9301
G01 X15.6367 Y22.0291
G01 X15.6408 Y22.0397
G01 X15.6774 Y22.1428
G01 X15.6804 Y22.1537
G01 X15.7068 Y22.2600
G01 X15.7087 Y22.2711
G01 X15.7245 Y22.3794
G01 X15.7301 Y22.4887
G01 X15.7303 Y22.5057
G00 Z2.0000
G00 X13.2299 Y22.6000
G01 F60.00
G01 Z-0.1000
G01 F120.00
G01 X13.2299 Y22.4000
G01 X13.2612 Y22.2026
G01 X13.3230 Y22.0124
G01 X13.4137 Y21.8343
G01 X13.5312 Y21.6726
G01 X13.6726 Y21.5312
G01 X13.8343 Y21.4137
G01 X14.0124 Y21.3230
G01 X14.2026 Y21.2612
G01 X14.4000 Y21.2299
G01 X14.6000 Y21.2299
G01 X14.7974 Y21.2612
G01 X14.9875 Y21.3230
G01 X15.1657 Y21.4137
G01 X15.3274 Y21.5312
G01 X15.4688 Y21.6726
G01 X15.5863 Y21.8343
G01 X15.6770 Y22.0125
G01 X15.7388 Y22.2026
G01 X15.7701 Y22.4000
G01 X15.7701 Y22.6000
G01 X15.7388 Y22.7974
G01 X15.6770 Y22.9876
G01 X15.5863 Y23.1657
G01 X15.4688 Y23.3274
G01 X15.3274 Y23.4688
G01 X15.1657 Y23.5863
G01 X14.9876 Y23.6770
G01 X14.7974 Y23.7388
G01 X14.6000 Y23.7701
G01 X14.4000 Y23.7701
G01 X14.2026 Y23.7388
G01 X14.0124 Y23.6770
G01 X13.8343 Y23.5863
G01 X13.6726 Y23.4688
G01 X13.5312 Y23.3274
G01 X13.4823 Y23.2600
G01 X13.4137 Y23.1657
G01 X13.3230 Y22.9876
G01 X13.2612 Y22.7974
G01 X13.2299 Y22.6000
G00 Z2.0000
G00 X13.0763 Y22.6121
G01 F60.00
G01 Z-0.1000
G01 F120.00
G01 X13.0763 Y22.3879
G01 X13.1114 Y22.1666
G01 X13.1806 Y21.9535
G01 X13.2823 Y21.7538
G01 X13.4141 Y21.5725
G01 X13.5725 Y21.4141
G01 X13.7538 Y21.2823
G01 X13.9535 Y21.1806
G01 X14.1666 Y21.1114
G01 X14.3879 Y21.0763
G01 X14.6121 Y21.0763
G01 X14.8334 Y21.1114
G01 X15.0465 Y21.1806
G01 X15.2462 Y21.2823
G01 X15.4275 Y21.4141
G01 X15.5859 Y21.5725
G01 X15.7177 Y21.7538
G01 X15.8194 Y21.9535
G01 X15.8886 Y22.1666
G01 X15.9237 Y22.3879
G01 X15.9237 Y22.6121
G01 X15.8886 Y22.8334
G01 X15.8194 Y23.0465
G01 X15.7177 Y23.2462
G01 X15.5859 Y23.4275
G01 X15.4275 Y23.5859
G01 X15.2462 Y23.7177
G01 X15.0465 Y23.8194
G01 X14.8334 Y23.8886
G01 X14.6121 Y23.9237
G01 X14.3879 Y23.9237
G01 X14.1666 Y23.8886
G01 X13.9535 Y23.8194
G01 X13.7538 Y23.7177
G01 X13.5725 Y23.5859
G01 X13.4141 Y23.4275
G01 X13.3580 Y23.3503
G01 X13.2823 Y23.2462
G01 X13.1806 Y23.0465
G01 X13.1114 Y22.8334
G01 X13.0763 Y22.6121
G00 Z2.0000
G00 X7.8231 Y23.5611
G01 F60.00
G01 Z-0.1000
G01 F120.00
G01 X7.7936 Y23.5568
G01 X7.7862 Y23.5553
G01 X7.6874 Y23.5304
G01 X7.5879 Y23.4948
G01 X7.4924 Y23.4497
G01 X7.4018 Y23.3953
G01 X7.3169 Y23.3324
G01 X7.2386 Y23.2614
G01 X7.1676 Y23.1831
G01 X7.1047 Y23.0982
G01 X7.0503 Y23.0076
G01 X7.0052 Y22.9121
G01 X6.9696 Y22.8126
G01 X6.9439 Y22.7101
G01 X6.9284 Y22.6055
G01 X6.9232 Y22.5000
G01 X6.9284 Y22.3945
G01 X6.9439 Y22.2899
G01 X6.9696 Y22.1874
G01 X7.0052 Y22.0879
G01 X7.0503 Y21.9924
G01 X7.1047 Y21.9018
G01 X7.1676 Y21.8169
G01 X7.2386 Y21.7386
G01 X7.3169 Y21.6676
G01 X7.4018 Y21.6047
G01 X7.4924 Y21.5503
G01 X7.5879 Y21.5052
G01 X7.6874 Y21.4696
G01 X7.7899 Y21.4439
G01 X7.8945 Y21.4284
G01 X8.0000 Y21.4232
G01 X8.1055 Y21.4284
G01 X8.2101 Y21.4439
G01 X8.3126 Y21.4696
G01 X8.4121 Y21.5052
G01 X8.5076 Y21.5503
G01 X8.5951 Y21.6027
G01 X8.6013 Y21.6068
G01 X8.6801 Y21.6653
G01 X8.6860 Y21.6701
G01 X8.7614 Y21.7386
G01 X8.8324 Y21.8169
G01 X8.8953 Y21.9018
G01 X8.9497 Y21.9924
G01 X8.9948 Y22.0879
G01 X9.0293 Y22.1838
G01 X9.0314 Y22.1911
G01 X9.0553 Y22.2862
G01 X9.0568 Y22.2936
G01 X9.0716 Y22.3945
G01 X9.0768 Y22.5019
G01 X9.0716 Y22.6055
G01 X9.0561 Y22.7101
G01 X9.0304 Y22.8126
G01 X8.9962 Y22.9086
G01 X8.9933 Y22.9155
G01 X8.9513 Y23.0042
G01 X8.9478 Y23.0109
G01 X8.8953 Y23.0982
G01 X8.8324 Y23.1831
G01 X8.7614 Y23.2614
G01 X8.6831 Y23.3324
G01 X8.5982 Y23.3953
G01 X8.5109 Y23.4478
G01 X8.5042 Y23.4513
G01 X8.4121 Y23.4948
G01 X8.3162 Y23.5293
G01 X8.3089 Y23.5314
G01 X8.2138 Y23.5553
G01 X8.2064 Y23.5568
G01 X8.1769 Y23.5611
G01 X8.1769 Y38.1805
G01 X8.2435 Y38.1973
G01 X8.3210 Y38.2251
G01 X8.3954 Y38.2602
G01 X8.4628 Y38.3005
G01 X8.4691 Y38.3047
G01 X8.5292 Y38.3493
G01 X8.5350 Y38.3541
G01 X8.5931 Y38.4069
G01 X8.6484 Y38.4679
G01 X8.6974 Y38.5340
G01 X8.7398 Y38.6046
G01 X8.7749 Y38.6790
G01 X8.8015 Y38.7529
G01 X8.8037 Y38.7601
G01 X8.8219 Y38.8327
G01 X8.8233 Y38.8401
G01 X8.8348 Y38.9178
G01 X8.8388 Y39.0000
G01 X8.8348 Y39.0822
G01 X8.8227 Y39.1636
G01 X8.8027 Y39.2435
G01 X8.7749 Y39.3210
G01 X8.7398 Y39.3954
G01 X8.6974 Y39.4660
G01 X8.6484 Y39.5321
G01 X8.5931 Y39.5931
G01 X8.5321 Y39.6484
G01 X8.4660 Y39.6974
G01 X8.3954 Y39.7398
G01 X8.3210 Y39.7749
G01 X8.2435 Y39.8027
G01 X8.1636 Y39.8227
G01 X8.0822 Y39.8348
G01 X8.0000 Y39.8388
G01 X7.9178 Y39.8348
G01 X7.8364 Y39.8227
G01 X7.7565 Y39.8027
G01 X7.6790 Y39.7749
G01 X7.6046 Y39.7398
G01 X7.5340 Y39.6974
G01 X7.4679 Y39.6484
G01 X7.4069 Y39.5931
G01 X7.3516 Y39.5321
G01 X7.3026 Y39.4660
G01 X7.2602 Y39.3954
G01 X7.2251 Y39.3210
G01 X7.1973 Y39.2435
G01 X7.1773 Y39.1636
G01 X7.1652 Y39.0822
G01 X7.1612 Y39.0000
G01 X7.1652 Y38.9178
G01 X7.1767 Y38.8401
G01 X7.1781 Y38.8327
G01 X7.1963 Y38.7601
G01 X7.1985 Y38.7529
G01 X7.2251 Y38.6790
G01 X7.2602 Y38.6046
G01 X7.3026 Y38.5340
G01 X7.3516 Y38.4679
G01 X7.4069 Y38.4069
G01 X7.4650 Y38.3541
G01 X7.4708 Y38.3493
G01 X7.5309 Y38.3047
G01 X7.5372 Y38.3005
G01 X7.6046 Y38.2602
G01 X7.6790 Y38.2251
G01 X7.7565 Y38.1973
G01 X7.8231 Y38.1805
G01 X7.8231 Y23.5611
G00 Z2.0000
G00 X7.6695 Y23.6844
G01 F60.00
G01 Z-0.1000
G01 F120.00
G01 X7.6428 Y23.6774
G01 X7.6321 Y23.6739
G01 X7.5291 Y23.6367
G01 X7.4301 Y23.5902
G01 X7.4200 Y23.5851
G01 X7.3260 Y23.5291
G01 X7.3164 Y23.5230
G01 X7.2284 Y23.4581
G01 X7.2194 Y23.4511
G01 X7.2109 Y23.4437
G01 X7.1300 Y23.3700
G01 X7.0563 Y23.2891
G01 X7.0489 Y23.2806
G01 X7.0419 Y23.2716
G01 X6.9770 Y23.1836
G01 X6.9709 Y23.1740
G01 X6.9149 Y23.0800
G01 X6.9098 Y23.0699
G01 X6.8633 Y22.9709
G01 X6.8592 Y22.9603
G01 X6.8226 Y22.8572
G01 X6.8196 Y22.8463
G01 X6.7932 Y22.7400
G01 X6.7913 Y22.7289
G01 X6.7755 Y22.6206
G01 X6.7747 Y22.6093
G01 X6.7696 Y22.5000
G01 X6.7747 Y22.3907
G01 X6.7755 Y22.3794
G01 X6.7913 Y22.2711
G01 X6.7932 Y22.2600
G01 X6.8196 Y22.1537
G01 X6.8226 Y22.1428
G01 X6.8592 Y22.0397
G01 X6.8633 Y22.0291
G01 X6.9098 Y21.9301
G01 X6.9149 Y21.9200
G01 X6.9709 Y21.8260
G01 X6.9770 Y21.8164
G01 X7.0419 Y21.7284
G01 X7.0489 Y21.7194
G01 X7.0563 Y21.7109
G01 X7.1300 Y21.6300
G01 X7.2109 Y21.5563
G01 X7.2194 Y21.5489
G01 X7.2284 Y21.5419
G01 X7.3164 Y21.4770
G01 X7.3260 Y21.4709
G01 X7.4200 Y21.4149
G01 X7.4301 Y21.4098
G01 X7.5291 Y21.3633
G01 X7.5397 Y21.3592
G01 X7.6428 Y21.3226
G01 X7.6537 Y21.3196
G01 X7.7600 Y21.2932
G01 X7.7711 Y21.2913
G01 X7.8794 Y21.2755
G01 X7.8907 Y21.2747
G01 X8.0000 Y21.2696
G01 X8.1093 Y21.2747
G01 X8.1206 Y21.2755
G01 X8.2289 Y21.2913
G01 X8.2400 Y21.2932
G01 X8.3463 Y21.3196
G01 X8.3572 Y21.3226
G01 X8.4603 Y21.3592
G01 X8.4709 Y21.3633
G01 X8.5699 Y21.4098
G01 X8.5800 Y21.4149
G01 X8.5898 Y21.4205
G01 X8.6836 Y21.4770
G01 X8.7716 Y21.5419
G01 X8.7806 Y21.5489
G01 X8.8618 Y21.6222
G01 X8.8700 Y21.6300
G01 X8.8778 Y21.6382
G01 X8.9437 Y21.7109
G01 X8.9511 Y21.7194
G01 X8.9581 Y21.7284
G01 X9.0230 Y21.8164
G01 X9.0291 Y21.8260
G01 X9.0851 Y21.9200
G01 X9.0902 Y21.9301
G01 X9.1367 Y22.0291
G01 X9.1739 Y22.1321
G01 X9.1774 Y22.1428
G01 X9.1804 Y22.1537
G01 X9.2043 Y22.2489
G01 X9.2068 Y22.2600
G01 X9.2087 Y22.2711
G01 X9.2245 Y22.3794
G01 X9.2253 Y22.3907
G01 X9.2303 Y22.4943
G01 X9.2301 Y22.5113
G01 X9.2245 Y22.6206
G01 X9.2087 Y22.7289
G01 X9.2068 Y22.7400
G01 X9.2043 Y22.7511
G01 X9.1804 Y22.8463
G01 X9.1774 Y22.8572
G01 X9.1739 Y22.8679
G01 X9.1367 Y22.9709
G01 X9.0902 Y23.0699
G01 X9.0851 Y23.0800
G01 X9.0291 Y23.1740
G01 X9.0230 Y23.1836
G01 X8.9581 Y23.2716
G01 X8.9511 Y23.2806
G01 X8.9437 Y23.2891
G01 X8.8778 Y23.3618
G01 X8.8700 Y23.3700
G01 X8.8618 Y23.3778
G01 X8.7806 Y23.4511
G01 X8.7716 Y23.4581
G01 X8.6836 Y23.5230
G01 X8.6740 Y23.5291
G01 X8.5800 Y23.5851
G01 X8.4812 Y23.6322
G01 X8.4709 Y23.6367
G01 X8.4603 Y23.6408
G01 X8.3679 Y23.6739
G01 X8.3572 Y23.6774
G01 X8.3305 Y23.6844
G01 X8.3305 Y38.0652
G01 X8.3798 Y38.0831
G01 X8.4577 Y38.1197
G01 X8.4678 Y38.1248
G01 X8.5418 Y38.1688
G01 X8.5514 Y38.1749
G01 X8.6207 Y38.2259
G01 X8.6296 Y38.2329
G01 X8.6381 Y38.2403
G01 X8.6935 Y38.2905
G01 X8.7017 Y38.2983
G01 X8.7095 Y38.3065
G01 X8.7671 Y38.3704
G01 X8.8186 Y38.4394
G01 X8.8251 Y38.4486
G01 X8.8312 Y38.4582
G01 X8.8696 Y38.5223
G01 X8.8752 Y38.5322
G01 X8.8803 Y38.5423
G01 X8.9169 Y38.6202
G01 X8.9209 Y38.6308
G01 X8.9497 Y38.7119
G01 X8.9709 Y38.7954
G01 X8.9733 Y38.8064
G01 X8.9753 Y38.8175
G01 X8.9876 Y38.9027
G01 X8.9885 Y38.9140
G01 X8.9924 Y39.0000
G01 X8.9885 Y39.0860
G01 X8.9876 Y39.0973
G01 X8.9753 Y39.1825
G01 X8.9733 Y39.1936
G01 X8.9527 Y39.2772
G01 X8.9497 Y39.2881
G01 X8.9209 Y39.3692
G01 X8.9169 Y39.3798
G01 X8.8803 Y39.4577
G01 X8.8752 Y39.4678
G01 X8.8312 Y39.5418
G01 X8.8251 Y39.5514
G01 X8.7741 Y39.6207
G01 X8.7671 Y39.6296
G01 X8.7597 Y39.6381
G01 X8.7017 Y39.7017
G01 X8.6381 Y39.7597
G01 X8.6296 Y39.7671
G01 X8.6207 Y39.7741
G01 X8.5514 Y39.8251
G01 X8.5418 Y39.8312
G01 X8.4678 Y39.8752
G01 X8.4577 Y39.8803
G01 X8.3798 Y39.9169
G01 X8.3692 Y39.9209
G01 X8.2881 Y39.9497
G01 X8.2772 Y39.9527
G01 X8.1936 Y39.9733
G01 X8.1825 Y39.9753
G01 X8.0973 Y39.9876
G01 X8.0860 Y39.9885
G01 X8.0000 Y39.9924
G01 X7.9140 Y39.9885
G01 X7.9027 Y39.9876
G01 X7.8175 Y39.9753
G01 X7.8064 Y39.9733
G01 X7.7228 Y39.9527
G01 X7.7119 Y39.9497
G01 X7.6308 Y39.9209
G01 X7.6202 Y39.9169
G01 X7.5423 Y39.8803
G01 X7.5322 Y39.8752
G01 X7.4582 Y39.8312
G01 X7.4486 Y39.8251
G01 X7.3793 Y39.7741
G01 X7.3704 Y39.7671
G01 X7.3619 Y39.7597
G01 X7.2983 Y39.7017
G01 X7.2403 Y39.6381
G01 X7.2329 Y39.6296
G01 X7.2259 Y39.6207
G01 X7.1749 Y39.5514
G01 X7.1688 Y39.5418
G01 X7.1248 Y39.4678
G01 X7.1197 Y39.4577
G01 X7.0831 Y39.3798
G01 X7.0791 Y39.3692
G01 X7.0503 Y39.2881
G01 X7.0473 Y39.2772
G01 X7.0267 Y39.1936
G01 X7.0247 Y39.1825
G01 X7.0124 Y39.0973
G01 X7.0115 Y39.0860
G01 X7.0076 Y39.0000
G01 X7.0115 Y38.9140
G01 X7.0124 Y38.9027
G01 X7.0247 Y38.8175
G01 X7.0267 Y38.8064
G01 X7.0291 Y38.7954
G01 X7.0503 Y38.7119
G01 X7.0791 Y38.6308
G01 X7.0831 Y38.6202
G01 X7.1197 Y38.5423
G01 X7.1248 Y38.5322
G01 X7.1304 Y38.5223
G01 X7.1688 Y38.4582
G01 X7.1749 Y38.4486
G01 X7.1814 Y38.4394
G01 X7.2329 Y38.3704
G01 X7.2905 Y38.3065
G01 X7.2983 Y38.2983
G01 X7.3065 Y38.2905
G01 X7.3619 Y38.2403
G01 X7.3704 Y38.2329
G01 X7.3793 Y38.2259
G01 X7.4486 Y38.1749
G01 X7.4582 Y38.1688
G01 X7.5322 Y38.1248
G01 X7.5423 Y38.1197
G01 X7.6202 Y38.0831
G01 X7.6695 Y38.0652
G01 X7.6695 Y23.6844
G00 Z2.0000
G00 X6.7299 Y22.6000
G01 F60.00
G01 Z-0.1000
G01 F120.00
G01 X6.7299 Y22.4000
G01 X6.7612 Y22.2026
G01 X6.8230 Y22.0124
G01 X6.9137 Y21.8343
G01 X7.0312 Y21.6726
G01 X7.1726 Y21.5312
G01 X7.3343 Y21.4137
G01 X7.5124 Y21.3230
G01 X7.7026 Y21.2612
G01 X7.9000 Y21.2299
G01 X8.1000 Y21.2299
G01 X8.2974 Y21.2612
G01 X8.4875 Y21.3230
G01 X8.6657 Y21.4137
G01 X8.8274 Y21.5312
G01 X8.9688 Y21.6726
G01 X9.0863 Y21.8343
G01 X9.1770 Y22.0125
G01 X9.2388 Y22.2026
G01 X9.2701 Y22.4000
G01 X9.2701 Y22.6000
G01 X9.2388 Y22.7974
G01 X9.1770 Y22.9876
G01 X9.0863 Y23.1657
G01 X8.9688 Y23.3274
G01 X8.8274 Y23.4688
G01 X8.6657 Y23.5863
G01 X8.5636 Y23.6383
G01 X8.5540 Y23.6435
G01 X8.5355 Y23.6553
G01 X8.5182 Y23.6687
G01 X8.5100 Y23.6761
G01 X8.4517 Y23.7315
G01 X8.4378 Y23.7473
G01 X8.4253 Y23.7644
G01 X8.4145 Y23.7825
G01 X8.4053 Y23.8015
G01 X8.3980 Y23.8213
G01 X8.3757 Y23.9038
G01 X8.3721 Y23.9237
G01 X8.3703 Y23.9439
G01 X8.3701 Y23.9541
G01 X8.3701 Y37.8133
G01 X8.3704 Y37.8242
G01 X8.3724 Y37.8461
G01 X8.3766 Y37.8676
G01 X8.3991 Y37.9452
G01 X8.4027 Y37.9564
G01 X8.4116 Y37.9782
G01 X8.4227 Y37.9989
G01 X8.4358 Y38.0184
G01 X8.4508 Y38.0365
G01 X8.4590 Y38.0450
G01 X8.4931 Y38.0785
G01 X8.5114 Y38.0953
G01 X8.5285 Y38.1084
G01 X8.6724 Y38.2128
G01 X8.7872 Y38.3276
G01 X8.8827 Y38.4591
G01 X8.9565 Y38.6038
G01 X9.0067 Y38.7583
G01 X9.0321 Y38.9188
G01 X9.0321 Y39.0812
G01 X9.0067 Y39.2417
G01 X8.9565 Y39.3962
G01 X8.8827 Y39.5409
G01 X8.7872 Y39.6724
G01 X8.6724 Y39.7872
G01 X8.5409 Y39.8827
G01 X8.3962 Y39.9565
G01 X8.2417 Y40.0067
G01 X8.0812 Y40.0321
G01 X7.9188 Y40.0321
G01 X7.8713 Y40.0246
G01 X7.7583 Y40.0067
G01 X7.6038 Y39.9565
G01 X7.4591 Y39.8827
G01 X7.3276 Y39.7872
G01 X7.2128 Y39.6724
G01 X7.1173 Y39.5409
G01 X7.0435 Y39.3962
G01 X6.9933 Y39.2417
G01 X6.9679 Y39.0812
G01 X6.9679 Y38.9188
G01 X6.9933 Y38.7583
G01 X7.0435 Y38.6038
G01 X7.1173 Y38.4591
G01 X7.2128 Y38.3276
G01 X7.3276 Y38.2128
G01 X7.4699 Y38.1095
G01 X7.4886 Y38.0953
G01 X7.5008 Y38.0845
G01 X7.5139 Y38.0710
G01 X7.5657 Y38.0129
G01 X7.5796 Y37.9939
G01 X7.5915 Y37.9736
G01 X7.6013 Y37.9522
G01 X7.6088 Y37.9300
G01 X7.6241 Y37.8647
G01 X7.6266 Y37.8519
G01 X7.6295 Y37.8262
G01 X7.6299 Y37.8133
G01 X7.6299 Y23.9541
G01 X7.6296 Y23.9431
G01 X7.6276 Y23.9213
G01 X7.6234 Y23.8997
G01 X7.6206 Y23.8892
G01 X7.5977 Y23.8121
G01 X7.5899 Y23.7924
G01 X7.5804 Y23.7736
G01 X7.5691 Y23.7557
G01 X7.5563 Y23.7390
G01 X7.5421 Y23.7234
G01 X7.5344 Y23.7162
G01 X7.4864 Y23.6727
G01 X7.4787 Y23.6661
G01 X7.4625 Y23.6539
G01 X7.4453 Y23.6431
G01 X7.4364 Y23.6383
G01 X7.3343 Y23.5863
G01 X7.1726 Y23.4688
G01 X7.0312 Y23.3274
G01 X6.9137 Y23.1657
G01 X6.8230 Y22.9876
G01 X6.7612 Y22.7974
G01 X6.7299 Y22.6000
G00 Z2.0000
G00 X6.5763 Y22.6121
G01 F60.00
G01 Z-0.1000
G01 F120.00
G01 X6.5763 Y22.3879
G01 X6.6114 Y22.1666
G01 X6.6806 Y21.9535
G01 X6.7823 Y21.7538
G01 X6.9141 Y21.5725
G01 X7.0725 Y21.4141
G01 X7.2538 Y21.2823
G01 X7.4535 Y21.1806
G01 X7.6666 Y21.1114
G01 X7.8879 Y21.0763
G01 X8.1121 Y21.0763
G01 X8.3334 Y21.1114
G01 X8.5465 Y21.1806
G01 X8.7462 Y21.2823
G01 X8.9275 Y21.4141
G01 X9.0859 Y21.5725
G01 X9.2177 Y21.7538
G01 X9.3194 Y21.9535
G01 X9.3886 Y22.1666
G01 X9.4237 Y22.3879
G01 X9.4237 Y22.6121
G01 X9.3886 Y22.8334
G01 X9.3194 Y23.0465
G01 X9.2177 Y23.2462
G01 X9.0859 Y23.4275
G01 X8.9275 Y23.5859
G01 X8.7462 Y23.7177
G01 X8.6333 Y23.7752
G01 X8.6240 Y23.7808
G01 X8.6155 Y23.7878
G01 X8.5622 Y23.8382
G01 X8.5575 Y23.8435
G01 X8.5534 Y23.8492
G01 X8.5498 Y23.8552
G01 X8.5467 Y23.8615
G01 X8.5443 Y23.8681
G01 X8.5256 Y23.9373
G01 X8.5244 Y23.9440
G01 X8.5237 Y23.9541
G01 X8.5238 Y37.8169
G01 X8.5245 Y37.8242
G01 X8.5268 Y37.8349
G01 X8.5477 Y37.9057
G01 X8.5507 Y37.9129
G01 X8.5543 Y37.9199
G01 X8.5587 Y37.9264
G01 X8.5637 Y37.9324
G01 X8.6040 Y37.9722
G01 X8.6096 Y37.9772
G01 X8.6160 Y37.9821
G01 X8.7724 Y38.0956
G01 X8.9044 Y38.2276
G01 X9.0141 Y38.3786
G01 X9.0988 Y38.5448
G01 X9.1565 Y38.7223
G01 X9.1857 Y38.9067
G01 X9.1857 Y39.0933
G01 X9.1565 Y39.2777
G01 X9.0988 Y39.4552
G01 X9.0141 Y39.6214
G01 X8.9044 Y39.7724
G01 X8.7724 Y39.9044
G01 X8.6214 Y40.0141
G01 X8.4552 Y40.0988
G01 X8.2777 Y40.1565
G01 X8.0933 Y40.1857
G01 X7.9067 Y40.1857
G01 X7.8472 Y40.1763
G01 X7.7223 Y40.1565
G01 X7.5449 Y40.0988
G01 X7.3786 Y40.0141
G01 X7.2276 Y39.9044
G01 X7.0956 Y39.7724
G01 X6.9859 Y39.6214
G01 X6.9012 Y39.4552
G01 X6.8435 Y39.2777
G01 X6.8143 Y39.0933
G01 X6.8143 Y38.9067
G01 X6.8435 Y38.7223
G01 X6.9012 Y38.5449
G01 X6.9859 Y38.3786
G01 X7.0956 Y38.2276
G01 X7.2276 Y38.0956
G01 X7.3893 Y37.9781
G01 X7.3951 Y37.9731
G01 X7.3995 Y37.9686
G01 X7.4444 Y37.9184
G01 X7.4513 Y37.9094
G01 X7.4553 Y37.9027
G01 X7.4585 Y37.8955
G01 X7.4611 Y37.8881
G01 X7.4744 Y37.8304
G01 X7.4762 Y37.8176
G01 X7.4763 Y23.9541
G01 X7.4755 Y23.9431
G01 X7.4741 Y23.9360
G01 X7.4524 Y23.8620
G01 X7.4498 Y23.8555
G01 X7.4467 Y23.8492
G01 X7.4429 Y23.8433
G01 X7.4387 Y23.8377
G01 X7.4339 Y23.8325
G01 X7.3833 Y23.7866
G01 X7.3754 Y23.7803
G01 X7.3667 Y23.7752
G01 X7.2538 Y23.7177
G01 X7.0725 Y23.5859
G01 X6.9141 Y23.4275
G01 X6.7823 Y23.2462
G01 X6.6806 Y23.0465
G01 X6.6114 Y22.8334
G01 X6.5763 Y22.6121
G00 Z2.0000
G00 X26.3143 Y39.0933
G01 F60.00
G01 Z-0.1000
G01 F120.00
G01 X26.3143 Y38.9067
G01 X26.3435 Y38.7223
G01 X26.4012 Y38.5449
G01 X26.4859 Y38.3786
G01 X26.5956 Y38.2276
G01 X26.7276 Y38.0956
G01 X26.8786 Y37.9859
G01 X27.0448 Y37.9012
G01 X27.2223 Y37.8435
G01 X27.4067 Y37.8143
G01 X27.5933 Y37.8143
G01 X27.7777 Y37.8435
G01 X27.9552 Y37.9012
G01 X28.1214 Y37.9859
G01 X28.2724 Y38.0956
G01 X28.4044 Y38.2276
G01 X28.5219 Y38.3893
G01 X28.5269 Y38.3951
G01 X28.5314 Y38.3995
G01 X28.5816 Y38.4444
G01 X28.5906 Y38.4513
G01 X28.5973 Y38.4553
G01 X28.6045 Y38.4585
G01 X28.6119 Y38.4611
G01 X28.6696 Y38.4744
G01 X28.6824 Y38.4762
G01 X36.6582 Y38.4763
G01 X36.6691 Y38.4755
G01 X36.6798 Y38.4732
G01 X36.7502 Y38.4524
G01 X36.7567 Y38.4498
G01 X36.7630 Y38.4467
G01 X36.7690 Y38.4429
G01 X36.7746 Y38.4387
G01 X36.7797 Y38.4339
G01 X36.8278 Y38.3808
G01 X36.8319 Y38.3754
G01 X36.8371 Y38.3667
G01 X36.8679 Y38.3062
G01 X36.9903 Y38.1377
G01 X37.0388 Y38.0891
G01 X37.0434 Y38.0835
G01 X37.0475 Y38.0774
G01 X37.0828 Y38.0129
G01 X37.0874 Y38.0030
G01 X37.0896 Y37.9960
G01 X37.0911 Y37.9889
G01 X37.0920 Y37.9816
G01 X37.0920 Y37.9707
G01 X37.0867 Y37.8973
G01 X37.0855 Y37.8901
G01 X37.0836 Y37.8831
G01 X37.0810 Y37.8762
G01 X37.0778 Y37.8696
G01 X37.0740 Y37.8634
G01 X37.0300 Y37.8045
G01 X37.0219 Y37.7953
G01 X37.0157 Y37.7899
G01 X37.0089 Y37.7852
G01 X36.9744 Y37.7662
G01 X36.9644 Y37.7616
G01 X36.8949 Y37.7357
G01 X36.7973 Y37.6627
G01 X36.7243 Y37.5652
G01 X36.6812 Y37.4497
G01 X36.6763 Y37.4038
G01 X36.6763 Y35.5162
G01 X36.6812 Y35.4703
G01 X36.7243 Y35.3549
G01 X36.7973 Y35.2573
G01 X36.8948 Y35.1843
G01 X37.0103 Y35.1412
G01 X37.0562 Y35.1363
G01 X37.2792 Y35.1362
G01 X37.2864 Y35.1355
G01 X37.2971 Y35.1332
G01 X37.3642 Y35.1135
G01 X37.3744 Y35.1097
G01 X37.3809 Y35.1063
G01 X37.3871 Y35.1024
G01 X37.3928 Y35.0979
G01 X37.3981 Y35.0928
G01 X37.4463 Y35.0373
G01 X37.4532 Y35.0281
G01 X37.4570 Y35.0214
G01 X37.4601 Y35.0144
G01 X37.4624 Y35.0071
G01 X37.4745 Y34.9518
G01 X37.4762 Y34.9396
G01 X37.4762 Y27.1711
G01 X37.4755 Y27.1638
G01 X37.4732 Y27.1531
G01 X37.4524 Y27.0826
G01 X37.4497 Y27.0758
G01 X37.4463 Y27.0693
G01 X37.4424 Y27.0631
G01 X37.4379 Y27.0574
G01 X37.4328 Y27.0521
G01 X37.3773 Y27.0039
G01 X37.3680 Y26.9970
G01 X37.3577 Y26.9915
G01 X37.2803 Y26.9594
G01 X37.0960 Y26.8530
G01 X36.9271 Y26.7234
G01 X36.7766 Y26.5729
G01 X36.6471 Y26.4040
G01 X36.5406 Y26.2197
G01 X36.4592 Y26.0231
G01 X36.4041 Y25.8175
G01 X36.3763 Y25.6064
G01 X36.3763 Y25.3936
G01 X36.4041 Y25.1826
G01 X36.4592 Y24.9770
G01 X36.5406 Y24.7803
G01 X36.6470 Y24.5960
G01 X36.7766 Y24.4271
G01 X36.9271 Y24.2766
G01 X37.0960 Y24.1470
G01 X37.2803 Y24.0406
G01 X37.4770 Y23.9592
G01 X37.6826 Y23.9041
G01 X37.8936 Y23.8763
G01 X38.1064 Y23.8763
G01 X38.3174 Y23.9041
G01 X38.5230 Y23.9592
G01 X38.7197 Y24.0406
G01 X38.9040 Y24.1470
G01 X39.0729 Y24.2766
G01 X39.2234 Y24.4271
G01 X39.3530 Y24.5960
G01 X39.4594 Y24.7803
G01 X39.5408 Y24.9770
G01 X39.5959 Y25.1826
G01 X39.6237 Y25.3936
G01 X39.6237 Y25.6064
G01 X39.5959 Y25.8174
G01 X39.5408 Y26.0230
G01 X39.4594 Y26.2197
G01 X39.3530 Y26.4040
G01 X39.2234 Y26.5729
G01 X39.0729 Y26.7234
G01 X38.9040 Y26.8529
G01 X38.7197 Y26.9594
G01 X38.6477 Y26.9892
G01 X38.6379 Y26.9941
G01 X38.6289 Y27.0004
G01 X38.5717 Y27.0466
G01 X38.5664 Y27.0517
G01 X38.5617 Y27.0573
G01 X38.5575 Y27.0633
G01 X38.5540 Y27.0696
G01 X38.5510 Y27.0763
G01 X38.5266 Y27.1498
G01 X38.5249 Y27.1573
G01 X38.5238 Y27.1689
G01 X38.5237 Y34.9355
G01 X38.5245 Y34.9464
G01 X38.5268 Y34.9571
G01 X38.5476 Y35.0277
G01 X38.5503 Y35.0344
G01 X38.5537 Y35.0409
G01 X38.5576 Y35.0471
G01 X38.5621 Y35.0528
G01 X38.5672 Y35.0581
G01 X38.6227 Y35.1063
G01 X38.6319 Y35.1132
G01 X38.6386 Y35.1170
G01 X38.6456 Y35.1201
G01 X38.6567 Y35.1233
G01 X38.7082 Y35.1345
G01 X38.7204 Y35.1362
G01 X38.9438 Y35.1363
G01 X38.9897 Y35.1412
G01 X39.1051 Y35.1843
G01 X39.2027 Y35.2573
G01 X39.2757 Y35.3549
G01 X39.3188 Y35.4703
G01 X39.3237 Y35.5162
G01 X39.3237 Y37.4038
G01 X39.3188 Y37.4497
G01 X39.2757 Y37.5651
G01 X39.2027 Y37.6627
G01 X39.1051 Y37.7357
G01 X39.0356 Y37.7616
G01 X39.0256 Y37.7662
G01 X39.0164 Y37.7721
G01 X38.9605 Y37.8140
G01 X38.9522 Y37.8212
G01 X38.9473 Y37.8266
G01 X38.9429 Y37.8324
G01 X38.9391 Y37.8387
G01 X38.9345 Y37.8486
G01 X38.9089 Y37.9176
G01 X38.9070 Y37.9246
G01 X38.9058 Y37.9318
G01 X38.9053 Y37.9391
G01 X38.9055 Y37.9464
G01 X38.9063 Y37.9537
G01 X38.9219 Y38.0255
G01 X38.9255 Y38.0373
G01 X38.9289 Y38.0448
G01 X38.9354 Y38.0552
G01 X38.9600 Y38.0878
G01 X39.0097 Y38.1377
G01 X39.1321 Y38.3062
G01 X39.2267 Y38.4919
G01 X39.2911 Y38.6900
G01 X39.3237 Y38.8958
G01 X39.3237 Y39.1042
G01 X39.2911 Y39.3100
G01 X39.2267 Y39.5081
G01 X39.1321 Y39.6938
G01 X39.0097 Y39.8623
G01 X38.8623 Y40.0097
G01 X38.6938 Y40.1321
G01 X38.5081 Y40.2267
G01 X38.3100 Y40.2911
G01 X38.2071 Y40.3074
G01 X38.1042 Y40.3237
G01 X37.8958 Y40.3237
G01 X37.6900 Y40.2911
G01 X37.4919 Y40.2267
G01 X37.3062 Y40.1321
G01 X37.1377 Y40.0097
G01 X36.9903 Y39.8623
G01 X36.8679 Y39.6938
G01 X36.8371 Y39.6333
G01 X36.8314 Y39.6240
G01 X36.8245 Y39.6155
G01 X36.7740 Y39.5622
G01 X36.7688 Y39.5575
G01 X36.7631 Y39.5534
G01 X36.7570 Y39.5498
G01 X36.7507 Y39.5467
G01 X36.7441 Y39.5443
G01 X36.6782 Y39.5264
G01 X36.6683 Y39.5244
G01 X36.6615 Y39.5238
G01 X28.6831 Y39.5238
G01 X28.6758 Y39.5245
G01 X28.6651 Y39.5268
G01 X28.5943 Y39.5477
G01 X28.5871 Y39.5507
G01 X28.5801 Y39.5543
G01 X28.5736 Y39.5587
G01 X28.5676 Y39.5637
G01 X28.5278 Y39.6040
G01 X28.5228 Y39.6096
G01 X28.5179 Y39.6160
G01 X28.4044 Y39.7724
G01 X28.2724 Y39.9044
G01 X28.1214 Y40.0141
G01 X27.9552 Y40.0988
G01 X27.7777 Y40.1565
G01 X27.5933 Y40.1857
G01 X27.4067 Y40.1857
G01 X27.2223 Y40.1565
G01 X27.0449 Y40.0988
G01 X26.8786 Y40.0141
G01 X26.7276 Y39.9044
G01 X26.5956 Y39.7724
G01 X26.4859 Y39.6214
G01 X26.4012 Y39.4552
G01 X26.3435 Y39.2777
G01 X26.3143 Y39.0933
G00 Z2.0000
G00 X26.4679 Y39.0812
G01 F60.00
G01 Z-0.1000
G01 F120.00
G01 X26.4679 Y38.9188
G01 X26.4933 Y38.7583
G01 X26.5435 Y38.6038
G01 X26.6173 Y38.4591
G01 X26.7128 Y38.3276
G01 X26.8276 Y38.2128
G01 X26.9591 Y38.1173
G01 X27.1038 Y38.0435
G01 X27.2583 Y37.9933
G01 X27.4188 Y37.9679
G01 X27.5812 Y37.9679
G01 X27.7417 Y37.9933
G01 X27.8962 Y38.0435
G01 X28.0409 Y38.1173
G01 X28.1724 Y38.2128
G01 X28.2872 Y38.3276
G01 X28.3906 Y38.4700
G01 X28.4047 Y38.4886
G01 X28.4155 Y38.5008
G01 X28.4290 Y38.5139
G01 X28.4872 Y38.5657
G01 X28.5061 Y38.5796
G01 X28.5264 Y38.5915
G01 X28.5478 Y38.6013
G01 X28.5700 Y38.6088
G01 X28.6353 Y38.6241
G01 X28.6481 Y38.6266
G01 X28.6738 Y38.6295
G01 X28.6867 Y38.6299
G01 X36.6582 Y38.6299
G01 X36.6691 Y38.6296
G01 X36.6910 Y38.6276
G01 X36.7125 Y38.6234
G01 X36.7231 Y38.6206
G01 X36.8002 Y38.5977
G01 X36.8198 Y38.5899
G01 X36.8386 Y38.5804
G01 X36.8565 Y38.5691
G01 X36.8733 Y38.5563
G01 X36.8888 Y38.5421
G01 X36.9461 Y38.4787
G01 X36.9584 Y38.4625
G01 X36.9691 Y38.4453
G01 X36.9992 Y38.3867
G01 X37.1075 Y38.2377
G01 X37.1524 Y38.1925
G01 X37.1664 Y38.1755
G01 X37.1787 Y38.1574
G01 X37.2176 Y38.0866
G01 X37.2227 Y38.0768
G01 X37.2313 Y38.0567
G01 X37.2380 Y38.0358
G01 X37.2426 Y38.0144
G01 X37.2452 Y37.9926
G01 X37.2457 Y37.9707
G01 X37.2402 Y37.8900
G01 X37.2392 Y37.8791
G01 X37.2356 Y37.8575
G01 X37.2299 Y37.8363
G01 X37.2222 Y37.8158
G01 X37.2126 Y37.7960
G01 X37.2012 Y37.7773
G01 X37.1949 Y37.7684
G01 X37.1530 Y37.7124
G01 X37.1453 Y37.7028
G01 X37.1285 Y37.6847
G01 X37.1099 Y37.6686
G01 X37.0896 Y37.6545
G01 X37.0480 Y37.6314
G01 X37.0333 Y37.6240
G01 X37.0181 Y37.6177
G01 X36.9692 Y37.5995
G01 X36.9070 Y37.5530
G01 X36.8605 Y37.4908
G01 X36.8319 Y37.4141
G01 X36.8299 Y37.3955
G01 X36.8299 Y35.5245
G01 X36.8319 Y35.5059
G01 X36.8605 Y35.4292
G01 X36.9070 Y35.3670
G01 X36.9692 Y35.3205
G01 X37.0459 Y35.2919
G01 X37.0645 Y35.2899
G01 X37.2755 Y35.2899
G01 X37.2865 Y35.2896
G01 X37.3083 Y35.2876
G01 X37.3298 Y35.2834
G01 X37.3404 Y35.2806
G01 X37.4179 Y35.2575
G01 X37.4382 Y35.2494
G01 X37.4577 Y35.2394
G01 X37.4762 Y35.2275
G01 X37.4934 Y35.2139
G01 X37.5093 Y35.1988
G01 X37.5624 Y35.1379
G01 X37.5697 Y35.1290
G01 X37.5830 Y35.1102
G01 X37.5943 Y35.0901
G01 X37.6036 Y35.0691
G01 X37.6107 Y35.0472
G01 X37.6246 Y34.9845
G01 X37.6269 Y34.9724
G01 X37.6296 Y34.9478
G01 X37.6299 Y34.9355
G01 X37.6299 Y27.1747
G01 X37.6296 Y27.1638
G01 X37.6276 Y27.1419
G01 X37.6234 Y27.1204
G01 X37.6009 Y27.0428
G01 X37.5975 Y27.0323
G01 X37.5894 Y27.0120
G01 X37.5793 Y26.9925
G01 X37.5675 Y26.9740
G01 X37.5539 Y26.9568
G01 X37.5388 Y26.9409
G01 X37.5307 Y26.9336
G01 X37.4779 Y26.8878
G01 X37.4689 Y26.8804
G01 X37.4498 Y26.8670
G01 X37.4295 Y26.8556
G01 X37.4190 Y26.8507
G01 X37.3484 Y26.8213
G01 X37.1815 Y26.7250
G01 X37.0286 Y26.6077
G01 X36.8924 Y26.4714
G01 X36.7750 Y26.3185
G01 X36.6787 Y26.1516
G01 X36.6049 Y25.9736
G01 X36.5551 Y25.7874
G01 X36.5299 Y25.5964
G01 X36.5299 Y25.4036
G01 X36.5551 Y25.2126
G01 X36.6049 Y25.0264
G01 X36.6787 Y24.8484
G01 X36.7750 Y24.6815
G01 X36.8923 Y24.5286
G01 X37.0286 Y24.3924
G01 X37.1815 Y24.2750
G01 X37.3484 Y24.1787
G01 X37.5264 Y24.1049
G01 X37.7126 Y24.0551
G01 X37.9036 Y24.0299
G01 X38.0964 Y24.0299
G01 X38.2874 Y24.0551
G01 X38.4736 Y24.1049
G01 X38.6516 Y24.1787
G01 X38.8185 Y24.2750
G01 X38.9714 Y24.3923
G01 X39.1077 Y24.5286
G01 X39.2250 Y24.6815
G01 X39.3213 Y24.8484
G01 X39.3951 Y25.0264
G01 X39.4449 Y25.2126
G01 X39.4701 Y25.4036
G01 X39.4701 Y25.5964
G01 X39.4449 Y25.7874
G01 X39.3951 Y25.9736
G01 X39.3213 Y26.1516
G01 X39.2250 Y26.3185
G01 X39.1077 Y26.4714
G01 X38.9714 Y26.6076
G01 X38.8185 Y26.7250
G01 X38.6516 Y26.8213
G01 X38.5889 Y26.8473
G01 X38.5789 Y26.8517
G01 X38.5595 Y26.8620
G01 X38.5412 Y26.8741
G01 X38.5325 Y26.8808
G01 X38.4697 Y26.9317
G01 X38.4540 Y26.9470
G01 X38.4399 Y26.9637
G01 X38.4274 Y26.9818
G01 X38.4166 Y27.0009
G01 X38.4077 Y27.0209
G01 X38.3820 Y27.0975
G01 X38.3786 Y27.1087
G01 X38.3735 Y27.1314
G01 X38.3707 Y27.1545
G01 X38.3701 Y27.1727
G01 X38.3701 Y34.9355
G01 X38.3704 Y34.9465
G01 X38.3724 Y34.9683
G01 X38.3766 Y34.9898
G01 X38.3794 Y35.0004
G01 X38.4025 Y35.0779
G01 X38.4106 Y35.0983
G01 X38.4207 Y35.1177
G01 X38.4325 Y35.1362
G01 X38.4461 Y35.1534
G01 X38.4612 Y35.1693
G01 X38.5221 Y35.2224
G01 X38.5310 Y35.2297
G01 X38.5498 Y35.2430
G01 X38.5699 Y35.2543
G01 X38.5909 Y35.2636
G01 X38.6128 Y35.2707
G01 X38.6755 Y35.2846
G01 X38.6876 Y35.2869
G01 X38.7122 Y35.2896
G01 X38.7245 Y35.2899
G01 X38.9355 Y35.2899
G01 X38.9541 Y35.2919
G01 X39.0308 Y35.3205
G01 X39.0930 Y35.3670
G01 X39.1395 Y35.4292
G01 X39.1681 Y35.5059
G01 X39.1701 Y35.5245
G01 X39.1701 Y37.3955
G01 X39.1681 Y37.4141
G01 X39.1395 Y37.4908
G01 X39.0930 Y37.5530
G01 X39.0308 Y37.5995
G01 X38.9717 Y37.6218
G01 X38.9520 Y37.6314
G01 X38.9333 Y37.6428
G01 X38.9243 Y37.6492
G01 X38.8598 Y37.6978
G01 X38.8436 Y37.7126
G01 X38.8288 Y37.7288
G01 X38.8157 Y37.7463
G01 X38.8043 Y37.7651
G01 X38.7947 Y37.7848
G01 X38.7906 Y37.7950
G01 X38.7626 Y37.8708
G01 X38.7569 Y37.8920
G01 X38.7533 Y37.9136
G01 X38.7517 Y37.9355
G01 X38.7523 Y37.9574
G01 X38.7549 Y37.9791
G01 X38.7718 Y38.0582
G01 X38.7747 Y38.0702
G01 X38.7825 Y38.0936
G01 X38.7928 Y38.1160
G01 X38.8053 Y38.1372
G01 X38.8336 Y38.1755
G01 X38.8439 Y38.1883
G01 X38.8552 Y38.2004
G01 X38.8925 Y38.2377
G01 X39.0008 Y38.3867
G01 X39.0844 Y38.5508
G01 X39.1413 Y38.7260
G01 X39.1701 Y38.9079
G01 X39.1701 Y39.0921
G01 X39.1413 Y39.2740
G01 X39.0844 Y39.4492
G01 X39.0008 Y39.6133
G01 X38.8925 Y39.7623
G01 X38.7623 Y39.8925
G01 X38.6133 Y40.0008
G01 X38.4492 Y40.0844
G01 X38.2740 Y40.1413
G01 X38.1830 Y40.1557
G01 X38.0921 Y40.1701
G01 X37.9079 Y40.1701
G01 X37.7260 Y40.1413
G01 X37.5508 Y40.0844
G01 X37.3867 Y40.0008
G01 X37.2377 Y39.8925
G01 X37.1075 Y39.7623
G01 X36.9992 Y39.6133
G01 X36.9687 Y39.5539
G01 X36.9570 Y39.5354
G01 X36.9435 Y39.5182
G01 X36.9362 Y39.5100
G01 X36.8882 Y39.4592
G01 X36.8808 Y39.4517
G01 X36.8649 Y39.4378
G01 X36.8479 Y39.4253
G01 X36.8298 Y39.4145
G01 X36.8107 Y39.4053
G01 X36.7910 Y39.3980
G01 X36.7085 Y39.3757
G01 X36.6885 Y39.3721
G01 X36.6683 Y39.3703
G01 X28.6867 Y39.3701
G01 X28.6758 Y39.3704
G01 X28.6539 Y39.3724
G01 X28.6324 Y39.3766
G01 X28.5548 Y39.3991
G01 X28.5436 Y39.4027
G01 X28.5218 Y39.4116
G01 X28.5011 Y39.4227
G01 X28.4815 Y39.4358
G01 X28.4635 Y39.4508
G01 X28.4550 Y39.4590
G01 X28.4215 Y39.4931
G01 X28.4047 Y39.5114
G01 X28.3916 Y39.5285
G01 X28.2872 Y39.6724
G01 X28.1724 Y39.7872
G01 X28.0409 Y39.8827
G01 X27.8962 Y39.9565
G01 X27.7417 Y40.0067
G01 X27.5812 Y40.0321
G01 X27.4188 Y40.0321
G01 X27.2583 Y40.0067
G01 X27.1038 Y39.9565
G01 X26.9591 Y39.8827
G01 X26.8276 Y39.7872
G01 X26.7128 Y39.6724
G01 X26.6173 Y39.5409
G01 X26.5435 Y39.3962
G01 X26.4933 Y39.2417
G01 X26.4679 Y39.0812
G00 Z2.0000
G00 X28.3195 Y38.8231
G01 F60.00
G01 Z-0.1000
G01 F120.00
G01 X37.0398 Y38.8231
G01 X37.0428 Y38.8058
G01 X37.0643 Y38.7201
G01 X37.0664 Y38.7129
G01 X37.0976 Y38.6262
G01 X37.1368 Y38.5429
G01 X37.1404 Y38.5363
G01 X37.1878 Y38.4573
G01 X37.2449 Y38.3803
G01 X37.3093 Y38.3093
G01 X37.3803 Y38.2449
G01 X37.4573 Y38.1878
G01 X37.5395 Y38.1385
G01 X37.6262 Y38.0976
G01 X37.7129 Y38.0664
G01 X37.7201 Y38.0643
G01 X37.8058 Y38.0428
G01 X37.8131 Y38.0413
G01 X37.9043 Y38.0279
G01 X38.0000 Y38.0232
G01 X38.0957 Y38.0279
G01 X38.1906 Y38.0420
G01 X38.2836 Y38.0653
G01 X38.3738 Y38.0976
G01 X38.4605 Y38.1385
G01 X38.5427 Y38.1878
G01 X38.6197 Y38.2449
G01 X38.6907 Y38.3093
G01 X38.7551 Y38.3803
G01 X38.8122 Y38.4573
G01 X38.8615 Y38.5395
G01 X38.9024 Y38.6262
G01 X38.9347 Y38.7164
G01 X38.9580 Y38.8094
G01 X38.9721 Y38.9043
G01 X38.9768 Y39.0019
G01 X38.9721 Y39.0957
G01 X38.9580 Y39.1906
G01 X38.9347 Y39.2836
G01 X38.9024 Y39.3738
G01 X38.8615 Y39.4605
G01 X38.8122 Y39.5427
G01 X38.7551 Y39.6197
G01 X38.6907 Y39.6907
G01 X38.6197 Y39.7551
G01 X38.5427 Y39.8122
G01 X38.4605 Y39.8615
G01 X38.3738 Y39.9024
G01 X38.2836 Y39.9347
G01 X38.1906 Y39.9580
G01 X38.0957 Y39.9721
G01 X38.0000 Y39.9768
G01 X37.9043 Y39.9721
G01 X37.8131 Y39.9587
G01 X37.8058 Y39.9572
G01 X37.7201 Y39.9357
G01 X37.7129 Y39.9336
G01 X37.6262 Y39.9024
G01 X37.5395 Y39.8615
G01 X37.4573 Y39.8122
G01 X37.3803 Y39.7551
G01 X37.3093 Y39.6907
G01 X37.2449 Y39.6197
G01 X37.1878 Y39.5427
G01 X37.1404 Y39.4637
G01 X37.1368 Y39.4571
G01 X37.0976 Y39.3738
G01 X37.0664 Y39.2871
G01 X37.0643 Y39.2799
G01 X37.0428 Y39.1942
G01 X37.0398 Y39.1769
G01 X28.3195 Y39.1769
G01 X28.3027 Y39.2435
G01 X28.2749 Y39.3210
G01 X28.2398 Y39.3954
G01 X28.1995 Y39.4628
G01 X28.1953 Y39.4691
G01 X28.1507 Y39.5292
G01 X28.1459 Y39.5350
G01 X28.0931 Y39.5931
G01 X28.0321 Y39.6484
G01 X27.9660 Y39.6974
G01 X27.8954 Y39.7398
G01 X27.8210 Y39.7749
G01 X27.7471 Y39.8015
G01 X27.7399 Y39.8037
G01 X27.6673 Y39.8219
G01 X27.6599 Y39.8233
G01 X27.5822 Y39.8348
G01 X27.5000 Y39.8388
G01 X27.4178 Y39.8348
G01 X27.3401 Y39.8233
G01 X27.3327 Y39.8219
G01 X27.2601 Y39.8037
G01 X27.2529 Y39.8015
G01 X27.1790 Y39.7749
G01 X27.1046 Y39.7398
G01 X27.0340 Y39.6974
G01 X26.9679 Y39.6484
G01 X26.9069 Y39.5931
G01 X26.8541 Y39.5350
G01 X26.8493 Y39.5292
G01 X26.8047 Y39.4691
G01 X26.8005 Y39.4628
G01 X26.7602 Y39.3954
G01 X26.7251 Y39.3210
G01 X26.6973 Y39.2435
G01 X26.6773 Y39.1636
G01 X26.6652 Y39.0822
G01 X26.6612 Y39.0000
G01 X26.6652 Y38.9178
G01 X26.6773 Y38.8364
G01 X26.6973 Y38.7565
G01 X26.7251 Y38.6790
G01 X26.7602 Y38.6046
G01 X26.8026 Y38.5340
G01 X26.8516 Y38.4679
G01 X26.9069 Y38.4069
G01 X26.9679 Y38.3516
G01 X27.0340 Y38.3026
G01 X27.1046 Y38.2602
G01 X27.1790 Y38.2251
G01 X27.2565 Y38.1973
G01 X27.3364 Y38.1773
G01 X27.4178 Y38.1652
G01 X27.5000 Y38.1612
G01 X27.5822 Y38.1652
G01 X27.6636 Y38.1773
G01 X27.7435 Y38.1973
G01 X27.8210 Y38.2251
G01 X27.8954 Y38.2602
G01 X27.9660 Y38.3026
G01 X28.0321 Y38.3516
G01 X28.0931 Y38.4069
G01 X28.1484 Y38.4679
G01 X28.1974 Y38.5340
G01 X28.2398 Y38.6046
G01 X28.2749 Y38.6790
G01 X28.3027 Y38.7565
G01 X28.3195 Y38.8231
G00 Z2.0000
G00 X28.4348 Y38.6695
G01 F60.00
G01 Z-0.1000
G01 F120.00
G01 X36.9190 Y38.6695
G01 X36.9516 Y38.5780
G01 X36.9556 Y38.5674
G01 X36.9980 Y38.4772
G01 X37.0031 Y38.4671
G01 X37.0087 Y38.4573
G01 X37.0541 Y38.3815
G01 X37.0601 Y38.3720
G01 X37.0666 Y38.3627
G01 X37.1262 Y38.2829
G01 X37.1336 Y38.2743
G01 X37.2007 Y38.2007
G01 X37.2743 Y38.1336
G01 X37.2829 Y38.1262
G01 X37.3627 Y38.0666
G01 X37.3720 Y38.0601
G01 X37.3815 Y38.0541
G01 X37.4573 Y38.0087
G01 X37.4671 Y38.0031
G01 X37.4772 Y37.9980
G01 X37.5674 Y37.9556
G01 X37.5780 Y37.9516
G01 X37.6719 Y37.9183
G01 X37.6828 Y37.9153
G01 X37.7795 Y37.8913
G01 X37.8780 Y37.8764
G01 X37.8892 Y37.8750
G01 X37.9005 Y37.8742
G01 X37.9887 Y37.8699
G01 X38.0000 Y37.8696
G01 X38.0113 Y37.8699
G01 X38.1108 Y37.8750
G01 X38.2094 Y37.8894
G01 X38.2205 Y37.8913
G01 X38.3172 Y37.9153
G01 X38.3281 Y37.9183
G01 X38.4220 Y37.9516
G01 X38.4326 Y37.9556
G01 X38.5228 Y37.9980
G01 X38.5329 Y38.0031
G01 X38.6185 Y38.0541
G01 X38.6280 Y38.0601
G01 X38.7082 Y38.1192
G01 X38.7171 Y38.1262
G01 X38.7257 Y38.1336
G01 X38.7993 Y38.2007
G01 X38.8664 Y38.2743
G01 X38.8738 Y38.2829
G01 X38.8808 Y38.2918
G01 X38.9399 Y38.3720
G01 X38.9459 Y38.3815
G01 X38.9969 Y38.4671
G01 X39.0020 Y38.4772
G01 X39.0444 Y38.5674
G01 X39.0484 Y38.5780
G01 X39.0817 Y38.6719
G01 X39.0847 Y38.6828
G01 X39.1087 Y38.7795
G01 X39.1106 Y38.7906
G01 X39.1250 Y38.8892
G01 X39.1301 Y38.9887
G01 X39.1303 Y39.0057
G01 X39.1258 Y39.0995
G01 X39.1250 Y39.1108
G01 X39.1106 Y39.2094
G01 X39.1087 Y39.2205
G01 X39.0847 Y39.3172
G01 X39.0817 Y39.3281
G01 X39.0484 Y39.4220
G01 X39.0444 Y39.4326
G01 X39.0020 Y39.5228
G01 X38.9969 Y39.5329
G01 X38.9459 Y39.6185
G01 X38.9399 Y39.6280
G01 X38.8808 Y39.7082
G01 X38.8738 Y39.7171
G01 X38.8664 Y39.7257
G01 X38.7993 Y39.7993
G01 X38.7257 Y39.8664
G01 X38.7171 Y39.8738
G01 X38.7082 Y39.8808
G01 X38.6280 Y39.9399
G01 X38.6185 Y39.9459
G01 X38.5329 Y39.9969
G01 X38.5228 Y40.0020
G01 X38.4326 Y40.0444
G01 X38.4220 Y40.0484
G01 X38.3281 Y40.0817
G01 X38.3172 Y40.0847
G01 X38.2205 Y40.1087
G01 X38.2094 Y40.1106
G01 X38.1108 Y40.1250
G01 X38.0995 Y40.1258
G01 X38.0000 Y40.1304
G01 X37.9005 Y40.1258
G01 X37.8892 Y40.1250
G01 X37.7906 Y40.1106
G01 X37.7795 Y40.1087
G01 X37.7684 Y40.1062
G01 X37.6719 Y40.0817
G01 X37.5780 Y40.0484
G01 X37.5674 Y40.0444
G01 X37.4772 Y40.0020
G01 X37.4671 Y39.9969
G01 X37.4573 Y39.9913
G01 X37.3815 Y39.9459
G01 X37.3720 Y39.9399
G01 X37.3627 Y39.9334
G01 X37.2829 Y39.8738
G01 X37.2743 Y39.8664
G01 X37.2007 Y39.7993
G01 X37.1336 Y39.7257
G01 X37.1262 Y39.7171
G01 X37.0666 Y39.6373
G01 X37.0601 Y39.6280
G01 X37.0541 Y39.6185
G01 X37.0087 Y39.5427
G01 X37.0031 Y39.5329
G01 X36.9980 Y39.5228
G01 X36.9556 Y39.4326
G01 X36.9516 Y39.4220
G01 X36.9190 Y39.3305
G01 X28.4348 Y39.3305
G01 X28.4169 Y39.3798
G01 X28.3803 Y39.4577
G01 X28.3752 Y39.4678
G01 X28.3312 Y39.5418
G01 X28.3251 Y39.5514
G01 X28.2741 Y39.6207
G01 X28.2671 Y39.6296
G01 X28.2597 Y39.6381
G01 X28.2095 Y39.6935
G01 X28.2017 Y39.7017
G01 X28.1935 Y39.7095
G01 X28.1296 Y39.7671
G01 X28.0606 Y39.8186
G01 X28.0514 Y39.8251
G01 X28.0418 Y39.8312
G01 X27.9777 Y39.8696
G01 X27.9678 Y39.8752
G01 X27.9577 Y39.8803
G01 X27.8798 Y39.9169
G01 X27.8692 Y39.9209
G01 X27.7881 Y39.9497
G01 X27.7046 Y39.9709
G01 X27.6936 Y39.9733
G01 X27.6825 Y39.9753
G01 X27.5973 Y39.9876
G01 X27.5860 Y39.9885
G01 X27.5000 Y39.9924
G01 X27.4140 Y39.9885
G01 X27.4027 Y39.9876
G01 X27.3175 Y39.9753
G01 X27.3064 Y39.9733
G01 X27.2954 Y39.9709
G01 X27.2119 Y39.9497
G01 X27.1308 Y39.9209
G01 X27.1202 Y39.9169
G01 X27.0423 Y39.8803
G01 X27.0322 Y39.8752
G01 X27.0223 Y39.8696
G01 X26.9582 Y39.8312
G01 X26.9486 Y39.8251
G01 X26.9394 Y39.8186
G01 X26.8704 Y39.7671
G01 X26.8065 Y39.7095
G01 X26.7983 Y39.7017
G01 X26.7905 Y39.6935
G01 X26.7403 Y39.6381
G01 X26.7329 Y39.6296
G01 X26.7259 Y39.6207
G01 X26.6749 Y39.5514
G01 X26.6688 Y39.5418
G01 X26.6248 Y39.4678
G01 X26.6197 Y39.4577
G01 X26.5831 Y39.3798
G01 X26.5539 Y39.2988
G01 X26.5503 Y39.2881
G01 X26.5473 Y39.2772
G01 X26.5267 Y39.1936
G01 X26.5247 Y39.1825
G01 X26.5124 Y39.0973
G01 X26.5115 Y39.0860
G01 X26.5076 Y39.0000
G01 X26.5115 Y38.9140
G01 X26.5124 Y38.9027
G01 X26.5247 Y38.8175
G01 X26.5267 Y38.8064
G01 X26.5473 Y38.7228
G01 X26.5503 Y38.7119
G01 X26.5791 Y38.6308
G01 X26.5831 Y38.6202
G01 X26.6197 Y38.5423
G01 X26.6248 Y38.5322
G01 X26.6688 Y38.4582
G01 X26.6749 Y38.4486
G01 X26.7259 Y38.3793
G01 X26.7329 Y38.3704
G01 X26.7403 Y38.3619
G01 X26.7983 Y38.2983
G01 X26.8619 Y38.2403
G01 X26.8704 Y38.2329
G01 X26.8793 Y38.2259
G01 X26.9486 Y38.1749
G01 X26.9582 Y38.1688
G01 X27.0322 Y38.1248
G01 X27.0423 Y38.1197
G01 X27.1202 Y38.0831
G01 X27.2012 Y38.0539
G01 X27.2119 Y38.0503
G01 X27.2228 Y38.0473
G01 X27.3064 Y38.0267
G01 X27.3175 Y38.0247
G01 X27.4027 Y38.0124
G01 X27.4140 Y38.0115
G01 X27.5000 Y38.0076
G01 X27.5860 Y38.0115
G01 X27.5973 Y38.0124
G01 X27.6825 Y38.0247
G01 X27.6936 Y38.0267
G01 X27.7772 Y38.0473
G01 X27.7881 Y38.0503
G01 X27.8692 Y38.0791
G01 X27.8798 Y38.0831
G01 X27.9577 Y38.1197
G01 X27.9678 Y38.1248
G01 X27.9777 Y38.1304
G01 X28.0514 Y38.1749
G01 X28.1207 Y38.2259
G01 X28.1296 Y38.2329
G01 X28.1381 Y38.2403
G01 X28.2017 Y38.2983
G01 X28.2597 Y38.3619
G01 X28.2671 Y38.3704
G01 X28.2741 Y38.3793
G01 X28.3251 Y38.4486
G01 X28.3696 Y38.5223
G01 X28.3752 Y38.5322
G01 X28.3803 Y38.5423
G01 X28.4169 Y38.6202
G01 X28.4348 Y38.6695
G00 Z2.0000
G00 X37.3925 Y37.8689
G01 F60.00
G01 Z-0.1000
G01 F120.00
G01 X37.3917 Y37.8609
G01 X37.3857 Y37.8248
G01 X37.3762 Y37.7895
G01 X37.3634 Y37.7553
G01 X37.3579 Y37.7440
G01 X37.7347 Y37.7440
G01 X37.6454 Y37.7663
G01 X37.6273 Y37.7713
G01 X37.6094 Y37.7772
G01 X37.5262 Y37.8070
G01 X37.5086 Y37.8137
G01 X37.4914 Y37.8214
G01 X37.4116 Y37.8591
G01 X37.3925 Y37.8689
G00 Z2.0000
G00 X38.6457 Y37.7440
G01 F60.00
G01 Z-0.1000
G01 F120.00
G01 X38.6223 Y37.8067
G01 X38.6163 Y37.8240
G01 X38.6068 Y37.8593
G01 X38.6054 Y37.8677
G01 X38.5884 Y37.8591
G01 X38.5086 Y37.8214
G01 X38.4914 Y37.8137
G01 X38.4738 Y37.8070
G01 X38.3906 Y37.7772
G01 X38.3727 Y37.7713
G01 X38.3546 Y37.7663
G01 X38.2653 Y37.7440
G01 X38.6457 Y37.7440
G00 Z2.0000
G00 X37.0962 Y35.4833
G01 F60.00
G01 Z-0.1000
G01 F120.00
G01 X37.8231 Y35.4832
G01 X37.8231 Y26.7631
G01 X37.7509 Y26.7523
G01 X37.6294 Y26.7218
G01 X37.5114 Y26.6796
G01 X37.3981 Y26.6260
G01 X37.2906 Y26.5616
G01 X37.1900 Y26.4870
G01 X37.0972 Y26.4028
G01 X37.0130 Y26.3100
G01 X36.9384 Y26.2094
G01 X36.8740 Y26.1019
G01 X36.8204 Y25.9886
G01 X36.7782 Y25.8706
G01 X36.7477 Y25.7491
G01 X36.7293 Y25.6251
G01 X36.7232 Y25.5000
G01 X36.7293 Y25.3749
G01 X36.7477 Y25.2509
G01 X36.7782 Y25.1294
G01 X36.8204 Y25.0114
G01 X36.8740 Y24.8981
G01 X36.9384 Y24.7906
G01 X37.0130 Y24.6900
G01 X37.0972 Y24.5972
G01 X37.1900 Y24.5130
G01 X37.2906 Y24.4384
G01 X37.3981 Y24.3740
G01 X37.5114 Y24.3204
G01 X37.6294 Y24.2782
G01 X37.7509 Y24.2477
G01 X37.8749 Y24.2293
G01 X38.0000 Y24.2232
G01 X38.1251 Y24.2293
G01 X38.2491 Y24.2477
G01 X38.3706 Y24.2782
G01 X38.4886 Y24.3204
G01 X38.5985 Y24.3723
G01 X38.6052 Y24.3758
G01 X38.7062 Y24.4364
G01 X38.7124 Y24.4406
G01 X38.8100 Y24.5130
G01 X38.9028 Y24.5972
G01 X38.9870 Y24.6900
G01 X39.0616 Y24.7906
G01 X39.1260 Y24.8981
G01 X39.1781 Y25.0079
G01 X39.1810 Y25.0149
G01 X39.2218 Y25.1294
G01 X39.2514 Y25.2472
G01 X39.2529 Y25.2546
G01 X39.2702 Y25.3711
G01 X39.2709 Y25.3786
G01 X39.2768 Y25.5019
G01 X39.2707 Y25.6251
G01 X39.2523 Y25.7491
G01 X39.2218 Y25.8706
G01 X39.1796 Y25.9886
G01 X39.1260 Y26.1019
G01 X39.0616 Y26.2094
G01 X38.9870 Y26.3100
G01 X38.9028 Y26.4028
G01 X38.8100 Y26.4870
G01 X38.7094 Y26.5616
G01 X38.6019 Y26.6260
G01 X38.4886 Y26.6796
G01 X38.3706 Y26.7218
G01 X38.2491 Y26.7523
G01 X38.1769 Y26.7631
G01 X38.1769 Y35.4832
G01 X38.9038 Y35.4833
G01 X38.9113 Y35.4840
G01 X38.9187 Y35.4855
G01 X38.9259 Y35.4877
G01 X38.9328 Y35.4906
G01 X38.9395 Y35.4941
G01 X38.9457 Y35.4983
G01 X38.9516 Y35.5031
G01 X38.9569 Y35.5084
G01 X38.9617 Y35.5143
G01 X38.9659 Y35.5205
G01 X38.9694 Y35.5272
G01 X38.9723 Y35.5341
G01 X38.9745 Y35.5413
G01 X38.9760 Y35.5487
G01 X38.9768 Y35.5600
G01 X38.9768 Y37.3600
G01 X38.9760 Y37.3713
G01 X38.9745 Y37.3787
G01 X38.9723 Y37.3859
G01 X38.9694 Y37.3928
G01 X38.9659 Y37.3995
G01 X38.9617 Y37.4057
G01 X38.9569 Y37.4116
G01 X38.9516 Y37.4169
G01 X38.9457 Y37.4217
G01 X38.9395 Y37.4259
G01 X38.9328 Y37.4294
G01 X38.9259 Y37.4323
G01 X38.9187 Y37.4345
G01 X38.9113 Y37.4360
G01 X38.9000 Y37.4368
G01 X37.1000 Y37.4368
G01 X37.0887 Y37.4360
G01 X37.0813 Y37.4345
G01 X37.0741 Y37.4323
G01 X37.0672 Y37.4294
G01 X37.0605 Y37.4259
G01 X37.0543 Y37.4217
G01 X37.0484 Y37.4169
G01 X37.0431 Y37.4116
G01 X37.0383 Y37.4057
G01 X37.0341 Y37.3995
G01 X37.0306 Y37.3928
G01 X37.0277 Y37.3859
G01 X37.0255 Y37.3787
G01 X37.0240 Y37.3713
G01 X37.0232 Y37.3600
G01 X37.0233 Y35.5562
G01 X37.0240 Y35.5487
G01 X37.0255 Y35.5413
G01 X37.0277 Y35.5341
G01 X37.0306 Y35.5272
G01 X37.0341 Y35.5205
G01 X37.0383 Y35.5143
G01 X37.0431 Y35.5084
G01 X37.0484 Y35.5031
G01 X37.0543 Y35.4983
G01 X37.0605 Y35.4941
G01 X37.0672 Y35.4906
G01 X37.0741 Y35.4877
G01 X37.0813 Y35.4855
G01 X37.0887 Y35.4840
G01 X37.0962 Y35.4833
G00 Z2.0000
G00 X37.0887 Y35.3299
G01 F60.00
G01 Z-0.1000
G01 F120.00
G01 X37.1000 Y35.3296
G01 X37.6695 Y35.3296
G01 X37.6695 Y26.8903
G01 X37.5848 Y26.8688
G01 X37.5740 Y26.8653
G01 X37.4632 Y26.8256
G01 X37.4526 Y26.8215
G01 X37.4423 Y26.8169
G01 X37.3358 Y26.7666
G01 X37.3257 Y26.7615
G01 X37.3159 Y26.7559
G01 X37.2149 Y26.6954
G01 X37.2053 Y26.6893
G01 X37.1961 Y26.6828
G01 X37.1015 Y26.6127
G01 X37.0926 Y26.6057
G01 X37.0840 Y26.5983
G01 X36.9967 Y26.5192
G01 X36.9886 Y26.5114
G01 X36.9808 Y26.5033
G01 X36.9017 Y26.4160
G01 X36.8943 Y26.4074
G01 X36.8873 Y26.3985
G01 X36.8172 Y26.3039
G01 X36.8107 Y26.2947
G01 X36.8046 Y26.2851
G01 X36.7441 Y26.1841
G01 X36.7385 Y26.1743
G01 X36.7334 Y26.1642
G01 X36.6831 Y26.0577
G01 X36.6785 Y26.0474
G01 X36.6744 Y26.0368
G01 X36.6347 Y25.9260
G01 X36.6312 Y25.9152
G01 X36.6282 Y25.9043
G01 X36.5996 Y25.7901
G01 X36.5971 Y25.7791
G01 X36.5952 Y25.7679
G01 X36.5779 Y25.6514
G01 X36.5765 Y25.6402
G01 X36.5757 Y25.6289
G01 X36.5699 Y25.5113
G01 X36.5696 Y25.5000
G01 X36.5699 Y25.4887
G01 X36.5757 Y25.3711
G01 X36.5765 Y25.3598
G01 X36.5779 Y25.3486
G01 X36.5952 Y25.2321
G01 X36.5971 Y25.2209
G01 X36.5996 Y25.2099
G01 X36.6282 Y25.0957
G01 X36.6312 Y25.0848
G01 X36.6347 Y25.0740
G01 X36.6744 Y24.9632
G01 X36.6785 Y24.9526
G01 X36.6831 Y24.9423
G01 X36.7334 Y24.8358
G01 X36.7385 Y24.8257
G01 X36.7441 Y24.8159
G01 X36.8046 Y24.7149
G01 X36.8107 Y24.7053
G01 X36.8172 Y24.6961
G01 X36.8873 Y24.6015
G01 X36.8943 Y24.5926
G01 X36.9017 Y24.5840
G01 X36.9808 Y24.4967
G01 X36.9886 Y24.4886
G01 X36.9967 Y24.4808
G01 X37.0840 Y24.4017
G01 X37.0926 Y24.3943
G01 X37.1015 Y24.3873
G01 X37.1961 Y24.3172
G01 X37.2053 Y24.3107
G01 X37.2149 Y24.3046
G01 X37.3159 Y24.2441
G01 X37.3257 Y24.2385
G01 X37.3358 Y24.2334
G01 X37.4423 Y24.1831
G01 X37.4526 Y24.1785
G01 X37.4632 Y24.1744
G01 X37.5740 Y24.1347
G01 X37.5848 Y24.1312
G01 X37.5957 Y24.1282
G01 X37.7099 Y24.0996
G01 X37.7209 Y24.0971
G01 X37.7321 Y24.0952
G01 X37.8486 Y24.0779
G01 X37.8598 Y24.0765
G01 X37.8711 Y24.0757
G01 X37.9887 Y24.0699
G01 X38.0000 Y24.0696
G01 X38.0113 Y24.0699
G01 X38.1289 Y24.0757
G01 X38.1402 Y24.0765
G01 X38.1514 Y24.0779
G01 X38.2679 Y24.0952
G01 X38.2791 Y24.0971
G01 X38.2901 Y24.0996
G01 X38.4043 Y24.1282
G01 X38.4152 Y24.1312
G01 X38.4260 Y24.1347
G01 X38.5368 Y24.1744
G01 X38.5474 Y24.1785
G01 X38.5577 Y24.1831
G01 X38.6642 Y24.2334
G01 X38.6743 Y24.2385
G01 X38.6841 Y24.2441
G01 X38.7851 Y24.3046
G01 X38.7947 Y24.3107
G01 X38.8039 Y24.3172
G01 X38.8985 Y24.3873
G01 X38.9074 Y24.3943
G01 X38.9160 Y24.4017
G01 X39.0033 Y24.4808
G01 X39.0114 Y24.4886
G01 X39.0192 Y24.4967
G01 X39.0983 Y24.5840
G01 X39.1057 Y24.5926
G01 X39.1127 Y24.6015
G01 X39.1828 Y24.6961
G01 X39.1893 Y24.7053
G01 X39.1954 Y24.7149
G01 X39.2559 Y24.8159
G01 X39.2615 Y24.8257
G01 X39.2666 Y24.8358
G01 X39.3169 Y24.9423
G01 X39.3215 Y24.9526
G01 X39.3256 Y24.9632
G01 X39.3653 Y25.0740
G01 X39.3688 Y25.0848
G01 X39.3718 Y25.0957
G01 X39.4004 Y25.2099
G01 X39.4029 Y25.2209
G01 X39.4048 Y25.2321
G01 X39.4221 Y25.3486
G01 X39.4235 Y25.3598
G01 X39.4243 Y25.3711
G01 X39.4301 Y25.4887
G01 X39.4303 Y25.5057
G01 X39.4243 Y25.6289
G01 X39.4235 Y25.6402
G01 X39.4221 Y25.6514
G01 X39.4048 Y25.7679
G01 X39.4029 Y25.7791
G01 X39.4004 Y25.7901
G01 X39.3718 Y25.9043
G01 X39.3688 Y25.9152
G01 X39.3653 Y25.9260
G01 X39.3256 Y26.0368
G01 X39.3215 Y26.0474
G01 X39.3169 Y26.0577
G01 X39.2666 Y26.1642
G01 X39.2615 Y26.1743
G01 X39.2559 Y26.1841
G01 X39.1954 Y26.2851
G01 X39.1893 Y26.2947
G01 X39.1828 Y26.3039
G01 X39.1127 Y26.3985
G01 X39.1057 Y26.4074
G01 X39.0983 Y26.4160
G01 X39.0192 Y26.5033
G01 X39.0114 Y26.5114
G01 X39.0033 Y26.5192
G01 X38.9160 Y26.5983
G01 X38.9074 Y26.6057
G01 X38.8985 Y26.6127
G01 X38.8039 Y26.6828
G01 X38.7947 Y26.6893
G01 X38.7851 Y26.6954
G01 X38.6841 Y26.7559
G01 X38.6743 Y26.7615
G01 X38.6642 Y26.7666
G01 X38.5577 Y26.8169
G01 X38.5474 Y26.8215
G01 X38.5368 Y26.8256
G01 X38.4260 Y26.8653
G01 X38.4152 Y26.8688
G01 X38.3305 Y26.8903
G01 X38.3305 Y35.3296
G01 X38.9000 Y35.3296
G01 X38.9113 Y35.3299
G01 X38.9338 Y35.3321
G01 X38.9560 Y35.3365
G01 X38.9776 Y35.3431
G01 X38.9985 Y35.3517
G01 X39.0184 Y35.3624
G01 X39.0372 Y35.3749
G01 X39.0547 Y35.3893
G01 X39.0707 Y35.4053
G01 X39.0851 Y35.4228
G01 X39.0976 Y35.4416
G01 X39.1083 Y35.4615
G01 X39.1169 Y35.4824
G01 X39.1235 Y35.5040
G01 X39.1279 Y35.5262
G01 X39.1301 Y35.5487
G01 X39.1304 Y35.5600
G01 X39.1304 Y37.3600
G01 X39.1301 Y37.3713
G01 X39.1279 Y37.3938
G01 X39.1235 Y37.4160
G01 X39.1169 Y37.4376
G01 X39.1083 Y37.4585
G01 X39.0976 Y37.4784
G01 X39.0851 Y37.4972
G01 X39.0707 Y37.5147
G01 X39.0547 Y37.5307
G01 X39.0372 Y37.5451
G01 X39.0184 Y37.5576
G01 X38.9985 Y37.5683
G01 X38.9776 Y37.5769
G01 X38.9560 Y37.5835
G01 X38.9338 Y37.5879
G01 X38.9113 Y37.5901
G01 X38.9000 Y37.5904
G01 X37.1000 Y37.5904
G01 X37.0887 Y37.5901
G01 X37.0662 Y37.5879
G01 X37.0440 Y37.5835
G01 X37.0224 Y37.5769
G01 X37.0015 Y37.5683
G01 X36.9816 Y37.5576
G01 X36.9628 Y37.5451
G01 X36.9453 Y37.5307
G01 X36.9293 Y37.5147
G01 X36.9149 Y37.4972
G01 X36.9024 Y37.4784
G01 X36.8917 Y37.4585
G01 X36.8831 Y37.4376
G01 X36.8765 Y37.4160
G01 X36.8721 Y37.3938
G01 X36.8699 Y37.3713
G01 X36.8696 Y37.3600
G01 X36.8696 Y35.5600
G01 X36.8699 Y35.5487
G01 X36.8721 Y35.5262
G01 X36.8765 Y35.5040
G01 X36.8831 Y35.4824
G01 X36.8917 Y35.4615
G01 X36.9024 Y35.4416
G01 X36.9149 Y35.4228
G01 X36.9293 Y35.4053
G01 X36.9453 Y35.3893
G01 X36.9628 Y35.3749
G01 X36.9816 Y35.3624
G01 X37.0015 Y35.3517
G01 X37.0224 Y35.3431
G01 X37.0440 Y35.3365
G01 X37.0662 Y35.3321
G01 X37.0887 Y35.3299
G00 Z2.0000
G00 X0.9237 Y51.3755
G01 F60.00
G01 Z-0.1000
G01 F120.00
G01 X0.9237 Y1.1245
G01 X0.9247 Y1.1122
G01 X0.9255 Y1.1082
G01 X0.9367 Y1.0567
G01 X0.9399 Y1.0456
G01 X0.9430 Y1.0386
G01 X0.9468 Y1.0319
G01 X0.9512 Y1.0257
G01 X0.9994 Y0.9699
G01 X1.0072 Y0.9621
G01 X1.0129 Y0.9576
G01 X1.0191 Y0.9537
G01 X1.0256 Y0.9503
G01 X1.0323 Y0.9476
G01 X1.1029 Y0.9268
G01 X1.1136 Y0.9245
G01 X1.1245 Y0.9237
G01 X89.3755 Y0.9237
G01 X89.3878 Y0.9247
G01 X89.3918 Y0.9255
G01 X89.4433 Y0.9367
G01 X89.4544 Y0.9399
G01 X89.4614 Y0.9430
G01 X89.4681 Y0.9468
G01 X89.4743 Y0.9512
G01 X89.5301 Y0.9994
G01 X89.5379 Y1.0072
G01 X89.5424 Y1.0129
G01 X89.5463 Y1.0191
G01 X89.5497 Y1.0256
G01 X89.5524 Y1.0323
G01 X89.5732 Y1.1029
G01 X89.5755 Y1.1136
G01 X89.5763 Y1.1245
G01 X89.5763 Y51.3755
G01 X89.5762 Y51.3796
G01 X89.5745 Y51.3918
G01 X89.5633 Y51.4433
G01 X89.5601 Y51.4544
G01 X89.5570 Y51.4614
G01 X89.5532 Y51.4681
G01 X89.5488 Y51.4743
G01 X89.5006 Y51.5301
G01 X89.4928 Y51.5379
G01 X89.4871 Y51.5424
G01 X89.4809 Y51.5463
G01 X89.4744 Y51.5497
G01 X89.4677 Y51.5524
G01 X89.3971 Y51.5732
G01 X89.3864 Y51.5755
G01 X89.3755 Y51.5763
G01 X1.1245 Y51.5763
G01 X1.1204 Y51.5762
G01 X1.1082 Y51.5745
G01 X1.0567 Y51.5633
G01 X1.0456 Y51.5601
G01 X1.0386 Y51.5570
G01 X1.0319 Y51.5532
G01 X1.0227 Y51.5463
G01 X0.9672 Y51.4981
G01 X0.9621 Y51.4928
G01 X0.9576 Y51.4871
G01 X0.9537 Y51.4809
G01 X0.9503 Y51.4744
G01 X0.9476 Y51.4677
G01 X0.9259 Y51.3936
G01 X0.9245 Y51.3864
G01 X0.9237 Y51.3755
G00 Z2.0000
G00 X0.7701 Y51.3755
G01 F60.00
G01 Z-0.1000
G01 F120.00
G01 X0.7701 Y1.1245
G01 X0.7704 Y1.1122
G01 X0.7731 Y1.0876
G01 X0.7754 Y1.0755
G01 X0.7893 Y1.0128
G01 X0.7964 Y0.9909
G01 X0.8057 Y0.9699
G01 X0.8170 Y0.9498
G01 X0.8303 Y0.9310
G01 X0.8376 Y0.9221
G01 X0.8907 Y0.8612
G01 X0.9066 Y0.8461
G01 X0.9238 Y0.8325
G01 X0.9423 Y0.8207
G01 X0.9617 Y0.8106
G01 X0.9821 Y0.8025
G01 X1.0596 Y0.7794
G01 X1.0702 Y0.7766
G01 X1.0917 Y0.7724
G01 X1.1135 Y0.7704
G01 X1.1245 Y0.7701
G01 X89.3755 Y0.7701
G01 X89.3878 Y0.7704
G01 X89.4124 Y0.7731
G01 X89.4245 Y0.7754
G01 X89.4872 Y0.7893
G01 X89.5091 Y0.7964
G01 X89.5301 Y0.8057
G01 X89.5502 Y0.8170
G01 X89.5690 Y0.8303
G01 X89.5779 Y0.8376
G01 X89.6388 Y0.8907
G01 X89.6539 Y0.9066
G01 X89.6675 Y0.9238
G01 X89.6794 Y0.9423
G01 X89.6894 Y0.9618
G01 X89.6975 Y0.9821
G01 X89.7206 Y1.0596
G01 X89.7234 Y1.0702
G01 X89.7276 Y1.0917
G01 X89.7296 Y1.1136
G01 X89.7299 Y1.1245
G01 X89.7299 Y51.3755
G01 X89.7296 Y51.3878
G01 X89.7269 Y51.4124
G01 X89.7246 Y51.4245
G01 X89.7107 Y51.4872
G01 X89.7036 Y51.5091
G01 X89.6943 Y51.5301
G01 X89.6830 Y51.5502
G01 X89.6697 Y51.5690
G01 X89.6624 Y51.5779
G01 X89.6093 Y51.6388
G01 X89.5934 Y51.6539
G01 X89.5762 Y51.6675
G01 X89.5577 Y51.6793
G01 X89.5383 Y51.6894
G01 X89.5179 Y51.6975
G01 X89.4404 Y51.7206
G01 X89.4298 Y51.7234
G01 X89.4083 Y51.7276
G01 X89.3865 Y51.7296
G01 X89.3755 Y51.7299
G01 X1.1245 Y51.7299
G01 X1.1122 Y51.7296
G01 X1.0876 Y51.7269
G01 X1.0755 Y51.7246
G01 X1.0240 Y51.7134
G01 X1.0128 Y51.7107
G01 X0.9909 Y51.7036
G01 X0.9699 Y51.6943
G01 X0.9498 Y51.6830
G01 X0.9310 Y51.6697
G01 X0.9221 Y51.6624
G01 X0.8612 Y51.6093
G01 X0.8461 Y51.5934
G01 X0.8325 Y51.5762
G01 X0.8207 Y51.5577
G01 X0.8106 Y51.5383
G01 X0.8025 Y51.5179
G01 X0.7991 Y51.5075
G01 X0.7766 Y51.4298
G01 X0.7724 Y51.4083
G01 X0.7704 Y51.3865
G01 X0.7701 Y51.3755
G00 Z2.0000
G00 X0.6165 Y51.3755
G01 F60.00
G01 Z-0.1000
G01 F120.00
G01 X0.6165 Y1.1245
G01 X0.6170 Y1.1040
G01 X0.6214 Y1.0631
G01 X0.6253 Y1.0429
G01 X0.6365 Y0.9914
G01 X0.6410 Y0.9727
G01 X0.6529 Y0.9362
G01 X0.6683 Y0.9011
G01 X0.6872 Y0.8677
G01 X0.7093 Y0.8363
G01 X0.7215 Y0.8215
G01 X0.7673 Y0.7687
G01 X0.7795 Y0.7552
G01 X0.8060 Y0.7300
G01 X0.8347 Y0.7074
G01 X0.8655 Y0.6876
G01 X0.8979 Y0.6709
G01 X0.9319 Y0.6573
G01 X0.9493 Y0.6517
G01 X1.0163 Y0.6321
G01 X1.0340 Y0.6273
G01 X1.0699 Y0.6204
G01 X1.1062 Y0.6169
G01 X1.1245 Y0.6165
G01 X89.3755 Y0.6165
G01 X89.3960 Y0.6171
G01 X89.4369 Y0.6214
G01 X89.4571 Y0.6253
G01 X89.5086 Y0.6365
G01 X89.5273 Y0.6410
G01 X89.5638 Y0.6529
G01 X89.5989 Y0.6683
G01 X89.6323 Y0.6872
G01 X89.6637 Y0.7093
G01 X89.6785 Y0.7215
G01 X89.7313 Y0.7673
G01 X89.7448 Y0.7796
G01 X89.7700 Y0.8060
G01 X89.7926 Y0.8347
G01 X89.8124 Y0.8655
G01 X89.8291 Y0.8980
G01 X89.8427 Y0.9319
G01 X89.8483 Y0.9493
G01 X89.8679 Y1.0163
G01 X89.8727 Y1.0340
G01 X89.8796 Y1.0699
G01 X89.8831 Y1.1063
G01 X89.8835 Y1.1245
G01 X89.8835 Y51.3755
G01 X89.8829 Y51.3961
G01 X89.8786 Y51.4369
G01 X89.8747 Y51.4571
G01 X89.8635 Y51.5086
G01 X89.8590 Y51.5273
G01 X89.8471 Y51.5638
G01 X89.8317 Y51.5989
G01 X89.8128 Y51.6323
G01 X89.7907 Y51.6637
G01 X89.7785 Y51.6785
G01 X89.7327 Y51.7313
G01 X89.7205 Y51.7448
G01 X89.6940 Y51.7700
G01 X89.6653 Y51.7926
G01 X89.6345 Y51.8124
G01 X89.6021 Y51.8291
G01 X89.5681 Y51.8427
G01 X89.5507 Y51.8483
G01 X89.4837 Y51.8679
G01 X89.4660 Y51.8727
G01 X89.4302 Y51.8796
G01 X89.3938 Y51.8831
G01 X89.3755 Y51.8835
G01 X1.1245 Y51.8835
G01 X1.1039 Y51.8829
G01 X1.0631 Y51.8786
G01 X1.0429 Y51.8747
G01 X0.9914 Y51.8635
G01 X0.9727 Y51.8590
G01 X0.9362 Y51.8471
G01 X0.9011 Y51.8317
G01 X0.8677 Y51.8128
G01 X0.8363 Y51.7907
G01 X0.8215 Y51.7785
G01 X0.7687 Y51.7327
G01 X0.7552 Y51.7204
G01 X0.7300 Y51.6940
G01 X0.7074 Y51.6653
G01 X0.6876 Y51.6345
G01 X0.6709 Y51.6021
G01 X0.6573 Y51.5682
G01 X0.6517 Y51.5507
G01 X0.6321 Y51.4837
G01 X0.6273 Y51.4660
G01 X0.6204 Y51.4302
G01 X0.6169 Y51.3938
G01 X0.6165 Y51.3755
G00 Z2.0000
G00 X0.4629 Y51.3755
G01 F60.00
G01 Z-0.1000
G01 F120.00
G01 X0.4629 Y1.1245
G01 X0.4637 Y1.0957
G01 X0.4698 Y1.0385
G01 X0.4752 Y1.0102
G01 X0.4864 Y0.9587
G01 X0.4928 Y0.9326
G01 X0.5094 Y0.8815
G01 X0.5310 Y0.8323
G01 X0.5574 Y0.7856
G01 X0.5883 Y0.7417
G01 X0.6054 Y0.7209
G01 X0.6512 Y0.6681
G01 X0.6684 Y0.6492
G01 X0.7054 Y0.6139
G01 X0.7456 Y0.5823
G01 X0.7887 Y0.5546
G01 X0.8341 Y0.5312
G01 X0.8816 Y0.5122
G01 X0.9060 Y0.5044
G01 X0.9730 Y0.4847
G01 X0.9977 Y0.4781
G01 X1.0480 Y0.4684
G01 X1.0989 Y0.4635
G01 X1.1245 Y0.4629
G01 X89.3755 Y0.4629
G01 X89.4043 Y0.4637
G01 X89.4615 Y0.4698
G01 X89.4898 Y0.4752
G01 X89.5413 Y0.4864
G01 X89.5674 Y0.4928
G01 X89.6185 Y0.5094
G01 X89.6676 Y0.5310
G01 X89.7144 Y0.5574
G01 X89.7583 Y0.5883
G01 X89.7791 Y0.6054
G01 X89.8319 Y0.6512
G01 X89.8508 Y0.6684
G01 X89.8861 Y0.7054
G01 X89.9177 Y0.7456
G01 X89.9454 Y0.7887
G01 X89.9688 Y0.8342
G01 X89.9879 Y0.8817
G01 X89.9956 Y0.9060
G01 X90.0153 Y0.9730
G01 X90.0219 Y0.9977
G01 X90.0316 Y1.0480
G01 X90.0365 Y1.0990
G01 X90.0371 Y1.1245
G01 X90.0371 Y51.3755
G01 X90.0363 Y51.4043
G01 X90.0302 Y51.4615
G01 X90.0248 Y51.4898
G01 X90.0136 Y51.5413
G01 X90.0072 Y51.5674
G01 X89.9906 Y51.6185
G01 X89.9690 Y51.6677
G01 X89.9426 Y51.7144
G01 X89.9117 Y51.7583
G01 X89.8946 Y51.7791
G01 X89.8488 Y51.8319
G01 X89.8316 Y51.8508
G01 X89.7946 Y51.8861
G01 X89.7544 Y51.9177
G01 X89.7113 Y51.9454
G01 X89.6659 Y51.9688
G01 X89.6184 Y51.9878
G01 X89.5940 Y51.9956
G01 X89.5270 Y52.0153
G01 X89.5023 Y52.0219
G01 X89.4520 Y52.0316
G01 X89.4011 Y52.0365
G01 X89.3755 Y52.0371
G01 X1.1245 Y52.0371
G01 X1.0957 Y52.0363
G01 X1.0385 Y52.0302
G01 X1.0102 Y52.0248
G01 X0.9587 Y52.0136
G01 X0.9326 Y52.0072
G01 X0.8815 Y51.9906
G01 X0.8323 Y51.9690
G01 X0.7856 Y51.9426
G01 X0.7417 Y51.9117
G01 X0.7209 Y51.8946
G01 X0.6681 Y51.8488
G01 X0.6492 Y51.8316
G01 X0.6139 Y51.7946
G01 X0.5823 Y51.7544
G01 X0.5546 Y51.7114
G01 X0.5312 Y51.6659
G01 X0.5122 Y51.6184
G01 X0.5044 Y51.5940
G01 X0.4847 Y51.5270
G01 X0.4781 Y51.5023
G01 X0.4684 Y51.4520
G01 X0.4635 Y51.4011
G01 X0.4629 Y51.3755
G00 Z2.0000
G00 X0.3093 Y51.3755
G01 F60.00
G01 Z-0.1000
G01 F120.00
G01 X0.3093 Y1.1245
G01 X0.3103 Y1.0875
G01 X0.3182 Y1.0139
G01 X0.3251 Y0.9776
G01 X0.3363 Y0.9261
G01 X0.3445 Y0.8925
G01 X0.3658 Y0.8268
G01 X0.3936 Y0.7636
G01 X0.4276 Y0.7035
G01 X0.4674 Y0.6470
G01 X0.4893 Y0.6203
G01 X0.5351 Y0.5675
G01 X0.5572 Y0.5432
G01 X0.6048 Y0.4978
G01 X0.6565 Y0.4572
G01 X0.7119 Y0.4216
G01 X0.7703 Y0.3915
G01 X0.8314 Y0.3670
G01 X0.8627 Y0.3570
G01 X0.9298 Y0.3373
G01 X0.9615 Y0.3288
G01 X1.0261 Y0.3163
G01 X1.0916 Y0.3101
G01 X1.1245 Y0.3093
G01 X89.3755 Y0.3093
G01 X89.4125 Y0.3103
G01 X89.4861 Y0.3182
G01 X89.5224 Y0.3251
G01 X89.5739 Y0.3363
G01 X89.6075 Y0.3445
G01 X89.6732 Y0.3658
G01 X89.7364 Y0.3936
G01 X89.7965 Y0.4276
G01 X89.8530 Y0.4674
G01 X89.8797 Y0.4893
G01 X89.9325 Y0.5351
G01 X89.9568 Y0.5572
G01 X90.0022 Y0.6048
G01 X90.0429 Y0.6566
G01 X90.0784 Y0.7119
G01 X90.1086 Y0.7704
G01 X90.1330 Y0.8314
G01 X90.1430 Y0.8627
G01 X90.1627 Y0.9298
G01 X90.1712 Y0.9615
G01 X90.1837 Y1.0261
G01 X90.1899 Y1.0917
G01 X90.1907 Y1.1245
G01 X90.1907 Y51.3755
G01 X90.1897 Y51.4125
G01 X90.1818 Y51.4861
G01 X90.1749 Y51.5224
G01 X90.1637 Y51.5739
G01 X90.1555 Y51.6076
G01 X90.1342 Y51.6732
G01 X90.1064 Y51.7364
G01 X90.0724 Y51.7965
G01 X90.0326 Y51.8530
G01 X90.0107 Y51.8797
G01 X89.9649 Y51.9325
G01 X89.9428 Y51.9568
G01 X89.8952 Y52.0022
G01 X89.8435 Y52.0428
G01 X89.7882 Y52.0784
G01 X89.7297 Y52.1086
G01 X89.6686 Y52.1330
G01 X89.6373 Y52.1430
G01 X89.5702 Y52.1627
G01 X89.5385 Y52.1712
G01 X89.4739 Y52.1837
G01 X89.4084 Y52.1899
G01 X89.3755 Y52.1907
G01 X1.1245 Y52.1907
G01 X1.0875 Y52.1897
G01 X1.0139 Y52.1818
G01 X0.9776 Y52.1749
G01 X0.9261 Y52.1637
G01 X0.8925 Y52.1555
G01 X0.8268 Y52.1342
G01 X0.7636 Y52.1064
G01 X0.7035 Y52.0724
G01 X0.6470 Y52.0326
G01 X0.6203 Y52.0107
G01 X0.5675 Y51.9649
G01 X0.5432 Y51.9428
G01 X0.4978 Y51.8952
G01 X0.4572 Y51.8435
G01 X0.4216 Y51.7882
G01 X0.3915 Y51.7297
G01 X0.3670 Y51.6687
G01 X0.3570 Y51.6373
G01 X0.3373 Y51.5702
G01 X0.3288 Y51.5385
G01 X0.3163 Y51.4739
G01 X0.3101 Y51.4084
G01 X0.3093 Y51.3755
G00 Z2.0000
G00 X0.1557 Y51.3755
G01 F60.00
G01 Z-0.1000
G01 F120.00
G01 X0.1557 Y1.1245
G01 X0.1569 Y1.0793
G01 X0.1666 Y0.9894
G01 X0.1750 Y0.9449
G01 X0.1862 Y0.8934
G01 X0.1962 Y0.8524
G01 X0.2223 Y0.7721
G01 X0.2563 Y0.6948
G01 X0.2978 Y0.6213
G01 X0.3464 Y0.5523
G01 X0.3732 Y0.5198
G01 X0.4190 Y0.4670
G01 X0.4460 Y0.4372
G01 X0.5042 Y0.3817
G01 X0.5674 Y0.3320
G01 X0.6351 Y0.2886
G01 X0.7065 Y0.2517
G01 X0.7811 Y0.2219
G01 X0.8194 Y0.2096
G01 X0.8865 Y0.1899
G01 X0.9253 Y0.1795
G01 X1.0043 Y0.1643
G01 X1.0843 Y0.1567
G01 X1.1245 Y0.1557
G01 X89.3755 Y0.1557
G01 X89.4207 Y0.1569
G01 X89.5106 Y0.1666
G01 X89.5551 Y0.1750
G01 X89.6066 Y0.1862
G01 X89.6476 Y0.1962
G01 X89.7279 Y0.2223
G01 X89.8052 Y0.2563
G01 X89.8787 Y0.2978
G01 X89.9476 Y0.3464
G01 X89.9802 Y0.3732
G01 X90.0330 Y0.4190
G01 X90.0628 Y0.4461
G01 X90.1183 Y0.5043
G01 X90.1680 Y0.5675
G01 X90.2115 Y0.6351
G01 X90.2483 Y0.7066
G01 X90.2782 Y0.7812
G01 X90.2904 Y0.8194
G01 X90.3101 Y0.8865
G01 X90.3205 Y0.9253
G01 X90.3357 Y1.0043
G01 X90.3433 Y1.0844
G01 X90.3443 Y1.1245
G01 X90.3443 Y51.3755
G01 X90.3431 Y51.4207
G01 X90.3334 Y51.5107
G01 X90.3250 Y51.5551
G01 X90.3138 Y51.6066
G01 X90.3038 Y51.6477
G01 X90.2777 Y51.7279
G01 X90.2437 Y51.8052
G01 X90.2022 Y51.8787
G01 X90.1536 Y51.9476
G01 X90.1268 Y51.9802
G01 X90.0810 Y52.0330
G01 X90.0540 Y52.0628
G01 X89.9958 Y52.1182
G01 X89.9326 Y52.1680
G01 X89.8650 Y52.2114
G01 X89.7935 Y52.2483
G01 X89.7188 Y52.2782
G01 X89.6806 Y52.2904
G01 X89.6135 Y52.3101
G01 X89.5747 Y52.3205
G01 X89.4957 Y52.3357
G01 X89.4157 Y52.3433
G01 X89.3755 Y52.3443
G01 X1.1245 Y52.3443
G01 X1.0793 Y52.3431
G01 X0.9894 Y52.3334
G01 X0.9449 Y52.3250
G01 X0.8934 Y52.3138
G01 X0.8524 Y52.3038
G01 X0.7721 Y52.2777
G01 X0.6948 Y52.2437
G01 X0.6214 Y52.2022
G01 X0.5524 Y52.1536
G01 X0.5198 Y52.1268
G01 X0.4670 Y52.0810
G01 X0.4372 Y52.0539
G01 X0.3817 Y51.9958
G01 X0.3320 Y51.9326
G01 X0.2886 Y51.8650
G01 X0.2517 Y51.7935
G01 X0.2219 Y51.7189
G01 X0.2096 Y51.6806
G01 X0.1899 Y51.6135
G01 X0.1795 Y51.5747
G01 X0.1643 Y51.4957
G01 X0.1567 Y51.4157
G01 X0.1557 Y51.3755
G00 Z2.0000
G00 X0.0021 Y51.3755
G01 F60.00
G01 Z-0.1000
G01 F120.00
G01 X0.0021 Y1.1245
G01 X0.0035 Y1.0711
G01 X0.0150 Y0.9648
G01 X0.0249 Y0.9123
G01 X0.0361 Y0.8608
G01 X0.0480 Y0.8123
G01 X0.0788 Y0.7174
G01 X0.1189 Y0.6261
G01 X0.1680 Y0.5392
G01 X0.2254 Y0.4577
G01 X0.2572 Y0.4192
G01 X0.3029 Y0.3664
G01 X0.3349 Y0.3312
G01 X0.4036 Y0.2657
G01 X0.4783 Y0.2069
G01 X0.5583 Y0.1556
G01 X0.6427 Y0.1120
G01 X0.7309 Y0.0767
G01 X0.7762 Y0.0622
G01 X0.8432 Y0.0425
G01 X0.8891 Y0.0302
G01 X0.9824 Y0.0123
G01 X1.0770 Y0.0032
G01 X1.1245 Y0.0021
G01 X89.3755 Y0.0021
G01 X89.4289 Y0.0035
G01 X89.5352 Y0.0150
G01 X89.5877 Y0.0249
G01 X89.6392 Y0.0361
G01 X89.6877 Y0.0479
G01 X89.7826 Y0.0788
G01 X89.8739 Y0.1189
G01 X89.9608 Y0.1680
G01 X90.0423 Y0.2254
G01 X90.0808 Y0.2572
G01 X90.1336 Y0.3029
G01 X90.1688 Y0.3349
G01 X90.2344 Y0.4037
G01 X90.2931 Y0.4784
G01 X90.3445 Y0.5583
G01 X90.3880 Y0.6428
G01 X90.4233 Y0.7310
G01 X90.4378 Y0.7762
G01 X90.4575 Y0.8432
G01 X90.4697 Y0.8891
G01 X90.4877 Y0.9824
G01 X90.4968 Y1.0771
G01 X90.4979 Y1.1245
G01 X90.4979 Y51.3755
G01 X90.4965 Y51.4289
G01 X90.4850 Y51.5353
G01 X90.4751 Y51.5877
G01 X90.4639 Y51.6392
G01 X90.4520 Y51.6878
G01 X90.4212 Y51.7827
G01 X90.3811 Y51.8739
G01 X90.3320 Y51.9608
G01 X90.2746 Y52.0423
G01 X90.2428 Y52.0808
G01 X90.1971 Y52.1336
G01 X90.1652 Y52.1687
G01 X90.0964 Y52.2343
G01 X90.0217 Y52.2931
G01 X89.9418 Y52.3444
G01 X89.8573 Y52.3880
G01 X89.7691 Y52.4233
G01 X89.7238 Y52.4378
G01 X89.6568 Y52.4575
G01 X89.6109 Y52.4698
G01 X89.5176 Y52.4877
G01 X89.4230 Y52.4968
G01 X89.3755 Y52.4979
G01 X1.1245 Y52.4979
G01 X1.0711 Y52.4965
G01 X0.9648 Y52.4850
G01 X0.9123 Y52.4751
G01 X0.8608 Y52.4639
G01 X0.8123 Y52.4520
G01 X0.7174 Y52.4212
G01 X0.6261 Y52.3811
G01 X0.5392 Y52.3320
G01 X0.4577 Y52.2746
G01 X0.4192 Y52.2428
G01 X0.3664 Y52.1971
G01 X0.3312 Y52.1651
G01 X0.2656 Y52.0963
G01 X0.2069 Y52.0217
G01 X0.1556 Y51.9418
G01 X0.1120 Y51.8573
G01 X0.0767 Y51.7692
G01 X0.0622 Y51.7238
G01 X0.0425 Y51.6568
G01 X0.0303 Y51.6109
G01 X0.0123 Y51.5176
G01 X0.0032 Y51.4230
G01 X0.0021 Y51.3755
G00 Z2.0000
G00 X-0.1515 Y51.3755
G01 F60.00
G01 Z-0.1000
G01 F120.00
G01 X-0.1515 Y1.1245
G01 X-0.1499 Y1.0629
G01 X-0.1367 Y0.9402
G01 X-0.1252 Y0.8796
G01 X-0.1140 Y0.8281
G01 X-0.1003 Y0.7722
G01 X-0.0647 Y0.6627
G01 X-0.0184 Y0.5573
G01 X0.0382 Y0.4571
G01 X0.1045 Y0.3630
G01 X0.1411 Y0.3186
G01 X0.1868 Y0.2658
G01 X0.2237 Y0.2252
G01 X0.3031 Y0.1496
G01 X0.3892 Y0.0818
G01 X0.4815 Y0.0225
G01 X0.5789 Y-0.0277
G01 X0.6807 Y-0.0685
G01 X0.7329 Y-0.0851
G01 X0.7999 Y-0.1048
G01 X0.8529 Y-0.1190
G01 X0.9606 Y-0.1398
G01 X1.0697 Y-0.1502
G01 X1.1245 Y-0.1515
G01 X89.3755 Y-0.1515
G01 X89.4371 Y-0.1498
G01 X89.5598 Y-0.1367
G01 X89.6204 Y-0.1252
G01 X89.6719 Y-0.1140
G01 X89.7278 Y-0.1003
G01 X89.8373 Y-0.0648
G01 X89.9427 Y-0.0184
G01 X90.0429 Y0.0382
G01 X90.1370 Y0.1045
G01 X90.1814 Y0.1411
G01 X90.2342 Y0.1868
G01 X90.2748 Y0.2237
G01 X90.3505 Y0.3031
G01 X90.4182 Y0.3893
G01 X90.4775 Y0.4815
G01 X90.5277 Y0.5790
G01 X90.5685 Y0.6807
G01 X90.5851 Y0.7329
G01 X90.6048 Y0.7999
G01 X90.6190 Y0.8529
G01 X90.6398 Y0.9606
G01 X90.6502 Y1.0698
G01 X90.6515 Y1.1245
G01 X90.6515 Y51.3755
G01 X90.6498 Y51.4372
G01 X90.6367 Y51.5598
G01 X90.6252 Y51.6204
G01 X90.6140 Y51.6719
G01 X90.6003 Y51.7279
G01 X90.5647 Y51.8374
G01 X90.5184 Y51.9427
G01 X90.4618 Y52.0429
G01 X90.3956 Y52.1369
G01 X90.3589 Y52.1814
G01 X90.3132 Y52.2342
G01 X90.2763 Y52.2747
G01 X90.1970 Y52.3504
G01 X90.1108 Y52.4182
G01 X90.0186 Y52.4775
G01 X89.9211 Y52.5277
G01 X89.8193 Y52.5685
G01 X89.7671 Y52.5851
G01 X89.7001 Y52.6048
G01 X89.6471 Y52.6190
G01 X89.5395 Y52.6398
G01 X89.4303 Y52.6502
G01 X89.3755 Y52.6515
G01 X1.1245 Y52.6515
G01 X1.0628 Y52.6498
G01 X0.9402 Y52.6367
G01 X0.8796 Y52.6252
G01 X0.8281 Y52.6140
G01 X0.7721 Y52.6003
G01 X0.6627 Y52.5648
G01 X0.5573 Y52.5184
G01 X0.4571 Y52.4618
G01 X0.3631 Y52.3955
G01 X0.3186 Y52.3589
G01 X0.2658 Y52.3132
G01 X0.2252 Y52.2763
G01 X0.1496 Y52.1969
G01 X0.0818 Y52.1108
G01 X0.0225 Y52.0186
G01 X-0.0277 Y51.9212
G01 X-0.0684 Y51.8194
G01 X-0.0851 Y51.7671
G01 X-0.1048 Y51.7001
G01 X-0.1190 Y51.6471
G01 X-0.1398 Y51.5395
G01 X-0.1502 Y51.4303
G01 X-0.1515 Y51.3755
G00 Z2.0000
G00 X-0.3051 Y51.3755
G01 F60.00
G01 Z-0.1000
G01 F120.00
G01 X-0.3051 Y1.1245
G01 X-0.3032 Y1.0547
G01 X-0.2883 Y0.9156
G01 X-0.2753 Y0.8470
G01 X-0.2641 Y0.7955
G01 X-0.2486 Y0.7320
G01 X-0.2083 Y0.6080
G01 X-0.1558 Y0.4886
G01 X-0.0916 Y0.3750
G01 X-0.0165 Y0.2684
G01 X0.0250 Y0.2180
G01 X0.0708 Y0.1652
G01 X0.1125 Y0.1192
G01 X0.2025 Y0.0335
G01 X0.3001 Y-0.0433
G01 X0.4046 Y-0.1105
G01 X0.5151 Y-0.1674
G01 X0.6304 Y-0.2136
G01 X0.6896 Y-0.2325
G01 X0.7567 Y-0.2522
G01 X0.8167 Y-0.2683
G01 X0.9387 Y-0.2918
G01 X1.0624 Y-0.3036
G01 X1.1245 Y-0.3051
G01 X89.3755 Y-0.3051
G01 X89.4454 Y-0.3032
G01 X89.5843 Y-0.2883
G01 X89.6530 Y-0.2753
G01 X89.7045 Y-0.2641
G01 X89.7679 Y-0.2486
G01 X89.8920 Y-0.2083
G01 X90.0114 Y-0.1558
G01 X90.1250 Y-0.0917
G01 X90.2316 Y-0.0165
G01 X90.2820 Y0.0250
G01 X90.3348 Y0.0708
G01 X90.3808 Y0.1126
G01 X90.4666 Y0.2025
G01 X90.5434 Y0.3002
G01 X90.6105 Y0.4047
G01 X90.6675 Y0.5152
G01 X90.7136 Y0.6305
G01 X90.7325 Y0.6896
G01 X90.7522 Y0.7567
G01 X90.7683 Y0.8166
G01 X90.7918 Y0.9387
G01 X90.8036 Y1.0625
G01 X90.8051 Y1.1245
G01 X90.8051 Y51.3755
G01 X90.8032 Y51.4454
G01 X90.7883 Y51.5844
G01 X90.7753 Y51.6530
G01 X90.7641 Y51.7045
G01 X90.7486 Y51.7681
G01 X90.7083 Y51.8921
G01 X90.6558 Y52.0115
G01 X90.5916 Y52.1250
G01 X90.5165 Y52.2316
G01 X90.4750 Y52.2820
G01 X90.4292 Y52.3348
G01 X90.3875 Y52.3807
G01 X90.2976 Y52.4665
G01 X90.1999 Y52.5433
G01 X90.0954 Y52.6105
G01 X89.9849 Y52.6674
G01 X89.8696 Y52.7136
G01 X89.8104 Y52.7325
G01 X89.7433 Y52.7522
G01 X89.6833 Y52.7683
G01 X89.5613 Y52.7918
G01 X89.4376 Y52.8036
G01 X89.3755 Y52.8051
G01 X1.1245 Y52.8051
G01 X1.0546 Y52.8032
G01 X0.9156 Y52.7883
G01 X0.8470 Y52.7753
G01 X0.7955 Y52.7641
G01 X0.7320 Y52.7486
G01 X0.6080 Y52.7083
G01 X0.4886 Y52.6558
G01 X0.3750 Y52.5917
G01 X0.2684 Y52.5165
G01 X0.2180 Y52.4750
G01 X0.1652 Y52.4292
G01 X0.1192 Y52.3874
G01 X0.0335 Y52.2975
G01 X-0.0433 Y52.1999
G01 X-0.1105 Y52.0954
G01 X-0.1674 Y51.9850
G01 X-0.2136 Y51.8696
G01 X-0.2325 Y51.8104
G01 X-0.2522 Y51.7433
G01 X-0.2683 Y51.6834
G01 X-0.2918 Y51.5613
G01 X-0.3036 Y51.4376
G01 X-0.3051 Y51.3755
G00 Z2.0000
G00 X-0.4587 Y51.3755
G01 F60.00
G01 Z-0.1000
G01 F120.00
G01 X-0.4587 Y1.1245
G01 X-0.4566 Y1.0464
G01 X-0.4399 Y0.8911
G01 X-0.4254 Y0.8143
G01 X-0.4141 Y0.7628
G01 X-0.3969 Y0.6919
G01 X-0.3518 Y0.5533
G01 X-0.2931 Y0.4198
G01 X-0.2214 Y0.2929
G01 X-0.1374 Y0.1737
G01 X-0.0911 Y0.1174
G01 X-0.0453 Y0.0646
G01 X0.0014 Y0.0132
G01 X0.1019 Y-0.0826
G01 X0.2110 Y-0.1684
G01 X0.3278 Y-0.2435
G01 X0.4513 Y-0.3071
G01 X0.5802 Y-0.3588
G01 X0.6463 Y-0.3799
G01 X0.7134 Y-0.3996
G01 X0.7804 Y-0.4176
G01 X0.9168 Y-0.4438
G01 X1.0551 Y-0.4570
G01 X1.1245 Y-0.4587
G01 X89.3755 Y-0.4587
G01 X89.4536 Y-0.4566
G01 X89.6089 Y-0.4399
G01 X89.6857 Y-0.4254
G01 X89.7372 Y-0.4141
G01 X89.8080 Y-0.3969
G01 X89.9467 Y-0.3518
G01 X90.0802 Y-0.2932
G01 X90.2071 Y-0.2215
G01 X90.3263 Y-0.1375
G01 X90.3826 Y-0.0911
G01 X90.4354 Y-0.0453
G01 X90.4868 Y0.0014
G01 X90.5826 Y0.1019
G01 X90.6685 Y0.2111
G01 X90.7436 Y0.3279
G01 X90.8072 Y0.4514
G01 X90.8588 Y0.5803
G01 X90.8799 Y0.6463
G01 X90.8996 Y0.7134
G01 X90.9176 Y0.7804
G01 X90.9438 Y0.9168
G01 X90.9571 Y1.0552
G01 X90.9587 Y1.1245
G01 X90.9587 Y51.3755
G01 X90.9566 Y51.4536
G01 X90.9399 Y51.6090
G01 X90.9254 Y51.6857
G01 X90.9141 Y51.7372
G01 X90.8968 Y51.8082
G01 X90.8518 Y51.9468
G01 X90.7931 Y52.0802
G01 X90.7215 Y52.2071
G01 X90.6375 Y52.3262
G01 X90.5911 Y52.3826
G01 X90.5453 Y52.4354
G01 X90.4987 Y52.4867
G01 X90.3982 Y52.5826
G01 X90.2890 Y52.6684
G01 X90.1722 Y52.7435
G01 X90.0487 Y52.8071
G01 X89.9198 Y52.8588
G01 X89.8537 Y52.8799
G01 X89.7866 Y52.8996
G01 X89.7196 Y52.9176
G01 X89.5832 Y52.9438
G01 X89.4449 Y52.9570
G01 X89.3755 Y52.9587
G01 X1.1245 Y52.9587
G01 X1.0464 Y52.9566
G01 X0.8911 Y52.9399
G01 X0.8143 Y52.9254
G01 X0.7628 Y52.9141
G01 X0.6919 Y52.8969
G01 X0.5533 Y52.8518
G01 X0.4198 Y52.7931
G01 X0.2929 Y52.7215
G01 X0.1737 Y52.6375
G01 X0.1174 Y52.5911
G01 X0.0646 Y52.5453
G01 X0.0132 Y52.4986
G01 X-0.0826 Y52.3981
G01 X-0.1684 Y52.2890
G01 X-0.2435 Y52.1722
G01 X-0.3071 Y52.0488
G01 X-0.3587 Y51.9199
G01 X-0.3799 Y51.8537
G01 X-0.3996 Y51.7866
G01 X-0.4176 Y51.7196
G01 X-0.4438 Y51.5832
G01 X-0.4570 Y51.4449
G01 X-0.4587 Y51.3755
G00 Z2.0000
G00 X-0.6123 Y51.3755
G01 F60.00
G01 Z-0.1000
G01 F120.00
G01 X-0.6123 Y1.1245
G01 X-0.6100 Y1.0382
G01 X-0.5915 Y0.8665
G01 X-0.5754 Y0.7817
G01 X-0.5642 Y0.7302
G01 X-0.5451 Y0.6518
G01 X-0.4953 Y0.4986
G01 X-0.4305 Y0.3510
G01 X-0.3512 Y0.2107
G01 X-0.2584 Y0.0790
G01 X-0.2072 Y0.0168
G01 X-0.1614 Y-0.0360
G01 X-0.1098 Y-0.0928
G01 X0.0013 Y-0.1987
G01 X0.1219 Y-0.2936
G01 X0.2510 Y-0.3765
G01 X0.3875 Y-0.4469
G01 X0.5299 Y-0.5039
G01 X0.6031 Y-0.5273
G01 X0.6701 Y-0.5470
G01 X0.7442 Y-0.5668
G01 X0.8950 Y-0.5959
G01 X1.0478 Y-0.6105
G01 X1.1245 Y-0.6123
G01 X89.3755 Y-0.6123
G01 X89.4618 Y-0.6100
G01 X89.6335 Y-0.5915
G01 X89.7183 Y-0.5754
G01 X89.7698 Y-0.5642
G01 X89.8481 Y-0.5451
G01 X90.0014 Y-0.4953
G01 X90.1489 Y-0.4305
G01 X90.2892 Y-0.3513
G01 X90.4209 Y-0.2584
G01 X90.4832 Y-0.2072
G01 X90.5360 Y-0.1614
G01 X90.5928 Y-0.1097
G01 X90.6987 Y0.0014
G01 X90.7936 Y0.1220
G01 X90.8766 Y0.2511
G01 X90.9469 Y0.3876
G01 X91.0039 Y0.5301
G01 X91.0273 Y0.6031
G01 X91.0470 Y0.6701
G01 X91.0668 Y0.7442
G01 X91.0959 Y0.8950
G01 X91.1105 Y1.0479
G01 X91.1123 Y1.1245
G01 X91.1123 Y51.3755
G01 X91.1100 Y51.4618
G01 X91.0915 Y51.6336
G01 X91.0754 Y51.7183
G01 X91.0642 Y51.7698
G01 X91.0451 Y51.8483
G01 X90.9953 Y52.0015
G01 X90.9305 Y52.1490
G01 X90.8513 Y52.2892
G01 X90.7585 Y52.4209
G01 X90.7072 Y52.4832
G01 X90.6614 Y52.5360
G01 X90.6098 Y52.5927
G01 X90.4988 Y52.6986
G01 X90.3781 Y52.7935
G01 X90.2490 Y52.8765
G01 X90.1125 Y52.9469
G01 X89.9700 Y53.0039
G01 X89.8969 Y53.0273
G01 X89.8299 Y53.0470
G01 X89.7558 Y53.0668
G01 X89.6050 Y53.0959
G01 X89.4522 Y53.1105
G01 X89.3755 Y53.1123
G01 X1.1245 Y53.1123
G01 X1.0382 Y53.1100
G01 X0.8665 Y53.0915
G01 X0.7817 Y53.0754
G01 X0.7302 Y53.0642
G01 X0.6518 Y53.0451
G01 X0.4986 Y52.9953
G01 X0.3511 Y52.9305
G01 X0.2108 Y52.8513
G01 X0.0791 Y52.7584
G01 X0.0168 Y52.7072
G01 X-0.0360 Y52.6614
G01 X-0.0928 Y52.6097
G01 X-0.1987 Y52.4987
G01 X-0.2936 Y52.3781
G01 X-0.3765 Y52.2490
G01 X-0.4468 Y52.1126
G01 X-0.5039 Y51.9701
G01 X-0.5273 Y51.8969
G01 X-0.5470 Y51.8299
G01 X-0.5668 Y51.7558
G01 X-0.5959 Y51.6050
G01 X-0.6105 Y51.4522
G01 X-0.6123 Y51.3755
G00 Z2.0000
G00 X-0.7659 Y51.3755
G01 F60.00
G01 Z-0.1000
G01 F120.00
G01 X-0.7659 Y1.1245
G01 X-0.7634 Y1.0300
G01 X-0.7432 Y0.8419
G01 X-0.7255 Y0.7490
G01 X-0.7143 Y0.6975
G01 X-0.6934 Y0.6117
G01 X-0.6389 Y0.4439
G01 X-0.5678 Y0.2823
G01 X-0.4811 Y0.1286
G01 X-0.3794 Y-0.0156
G01 X-0.3232 Y-0.0838
G01 X-0.2775 Y-0.1366
G01 X-0.2210 Y-0.1988
G01 X-0.0993 Y-0.3148
G01 X0.0328 Y-0.4187
G01 X0.1742 Y-0.5096
G01 X0.3237 Y-0.5866
G01 X0.4797 Y-0.6491
G01 X0.5598 Y-0.6747
G01 X0.6268 Y-0.6943
G01 X0.7080 Y-0.7161
G01 X0.8731 Y-0.7479
G01 X1.0405 Y-0.7639
G01 X1.1245 Y-0.7659
G01 X89.3755 Y-0.7659
G01 X89.4700 Y-0.7634
