(G-CODE GENERATED BY FLATCAM v8.99 - www.flatcam.org - Version Date: 2019/12/15)

(Name: BusCardv1-Edge_Cuts.gbr_iso_cnc)
(Type: G-code from Geometry)
(Units: MM)

(Created on Sunday, 23 November 2025 at 23:52)

(TOOL DIAMETER: 2.0 mm)
(Feedrate: 120.0 mm/min)
(Feedrate_Z: 60.0 mm/min)
(Feedrate rapids 1500.0 mm/min)

(Z_Cut: -2.4 mm)
(Z_Move: 2.0 mm)
(Z Toolchange: 15.0 mm)
(X,Y Toolchange: 0.0000, 0.0000 mm)
(Z Start: None mm)
(Z End: 15.0 mm)
(Steps per circle: 64)
(Preprocessor Geometry: default)

(X range:   -0.5250 ...   91.0250  mm)
(Y range:   -0.5250 ...   53.0250  mm)

(Spindle Speed: None RPM)
G21
G90
G94




G01 F120.00
G00 Z2.0000

M03
G00 X1.5250 Y50.9750
G01 F60.00
G01 Z-2.4000
G01 F120.00
G01 X1.5250 Y1.5250
G01 X88.9750 Y1.5250
G01 X88.9750 Y50.9750
G01 X1.5250 Y50.9750
G00 Z2.0000
G00 X-0.5250 Y52.0000
G01 F60.00
G01 Z-2.4000
G01 F120.00
G01 X-0.5250 Y0.5000
G01 X-0.5247 Y0.4755
G01 X-0.5237 Y0.4485
G01 X-0.5201 Y0.3995
G01 X-0.5141 Y0.3508
G01 X-0.5053 Y0.3000
G01 X-0.4940 Y0.2498
G01 X-0.4809 Y0.2024
G01 X-0.4655 Y0.1558
G01 X-0.4470 Y0.1077
G01 X-0.4260 Y0.0607
G01 X-0.4040 Y0.0168
G01 X-0.3798 Y-0.0259
G01 X-0.3523 Y-0.0695
G01 X-0.3225 Y-0.1116
G01 X-0.2924 Y-0.1503
G01 X-0.2603 Y-0.1874
G01 X-0.2248 Y-0.2248
G01 X-0.1874 Y-0.2603
G01 X-0.1503 Y-0.2924
G01 X-0.1116 Y-0.3225
G01 X-0.0695 Y-0.3523
G01 X-0.0259 Y-0.3798
G01 X0.0168 Y-0.4040
G01 X0.0607 Y-0.4260
G01 X0.1077 Y-0.4470
G01 X0.1558 Y-0.4655
G01 X0.2024 Y-0.4809
G01 X0.2498 Y-0.4940
G01 X0.3000 Y-0.5053
G01 X0.3508 Y-0.5141
G01 X0.3995 Y-0.5201
G01 X0.4485 Y-0.5237
G01 X0.4755 Y-0.5247
G01 X0.5000 Y-0.5250
G01 X90.0000 Y-0.5250
G01 X90.0245 Y-0.5247
G01 X90.0515 Y-0.5237
G01 X90.1005 Y-0.5201
G01 X90.1492 Y-0.5141
G01 X90.2000 Y-0.5053
G01 X90.2502 Y-0.4940
G01 X90.2975 Y-0.4809
G01 X90.3442 Y-0.4655
G01 X90.3923 Y-0.4470
G01 X90.4393 Y-0.4260
G01 X90.4832 Y-0.4040
G01 X90.5259 Y-0.3798
G01 X90.5695 Y-0.3523
G01 X90.6116 Y-0.3225
G01 X90.6503 Y-0.2924
G01 X90.6874 Y-0.2603
G01 X90.7248 Y-0.2248
G01 X90.7603 Y-0.1874
G01 X90.7923 Y-0.1503
G01 X90.8225 Y-0.1116
G01 X90.8523 Y-0.0695
G01 X90.8798 Y-0.0259
G01 X90.9040 Y0.0168
G01 X90.9260 Y0.0607
G01 X90.9470 Y0.1078
G01 X90.9655 Y0.1558
G01 X90.9809 Y0.2025
G01 X90.9940 Y0.2498
G01 X91.0053 Y0.3000
G01 X91.0141 Y0.3508
G01 X91.0201 Y0.3995
G01 X91.0237 Y0.4485
G01 X91.0247 Y0.4755
G01 X91.0250 Y0.5000
G01 X91.0250 Y52.0000
G01 X91.0247 Y52.0245
G01 X91.0237 Y52.0515
G01 X91.0201 Y52.1005
G01 X91.0141 Y52.1492
G01 X91.0053 Y52.2000
G01 X90.9940 Y52.2502
G01 X90.9809 Y52.2975
G01 X90.9655 Y52.3442
G01 X90.9470 Y52.3922
G01 X90.9260 Y52.4393
G01 X90.9040 Y52.4832
G01 X90.8798 Y52.5259
G01 X90.8523 Y52.5695
G01 X90.8225 Y52.6116
G01 X90.7923 Y52.6503
G01 X90.7603 Y52.6874
G01 X90.7248 Y52.7248
G01 X90.6874 Y52.7603
G01 X90.6503 Y52.7924
G01 X90.6116 Y52.8225
G01 X90.5695 Y52.8523
G01 X90.5259 Y52.8798
G01 X90.4832 Y52.9040
G01 X90.4393 Y52.9260
G01 X90.3923 Y52.9470
G01 X90.3442 Y52.9655
G01 X90.2976 Y52.9809
G01 X90.2502 Y52.9940
G01 X90.2000 Y53.0053
G01 X90.1492 Y53.0141
G01 X90.1005 Y53.0201
G01 X90.0515 Y53.0237
G01 X90.0245 Y53.0247
G01 X90.0000 Y53.0250
G01 X0.5000 Y53.0250
G01 X0.4755 Y53.0247
G01 X0.4485 Y53.0237
G01 X0.3995 Y53.0201
G01 X0.3484 Y53.0137
G01 X0.3000 Y53.0053
G01 X0.2498 Y52.9940
G01 X0.2025 Y52.9809
G01 X0.1558 Y52.9655
G01 X0.1077 Y52.9470
G01 X0.0629 Y52.9271
G01 X0.0168 Y52.9040
G01 X-0.0259 Y52.8798
G01 X-0.0695 Y52.8523
G01 X-0.1096 Y52.8240
G01 X-0.1503 Y52.7924
G01 X-0.1892 Y52.7586
G01 X-0.2248 Y52.7248
G01 X-0.2586 Y52.6892
G01 X-0.2923 Y52.6503
G01 X-0.3225 Y52.6116
G01 X-0.3523 Y52.5695
G01 X-0.3798 Y52.5259
G01 X-0.4040 Y52.4832
G01 X-0.4260 Y52.4393
G01 X-0.4470 Y52.3923
G01 X-0.4647 Y52.3465
G01 X-0.4809 Y52.2976
G01 X-0.4940 Y52.2502
G01 X-0.5053 Y52.2000
G01 X-0.5141 Y52.1492
G01 X-0.5201 Y52.1005
G01 X-0.5238 Y52.0491
G01 X-0.5247 Y52.0245
G01 X-0.5250 Y52.0000
G00 Z2.0000
M05
G00 Z2.0000
G00 Z15.00
G00 X0.0 Y0.0

