(G-CODE GENERATED BY FLATCAM v8.99 - www.flatcam.org - Version Date: 2019/12/15)

(Name: BusCardv1-PTH.drl_cnc)
(Type: G-code from Excellon)
(Units: MM)

(Created on Sunday, 23 November 2025 at 23:52)

(Feedrate: 300.0 mm/min)
(Feedrate rapids 1500.0 mm/min)

(Z_Cut: -1.7 mm)
(Z_Move: 2.0 mm)
(Z Toolchange: 15.0 mm)
(X,Y Toolchange: 0.0000, 0.0000 mm)
(Z Start: None mm)
(Z End: 0.5 mm)
(Steps per circle: 64)
(Preprocessor Excellon: default)

(X range:    7.4509 ...   38.6002  mm)
(Y range:   17.2803 ...   39.4495  mm)

(Spindle Speed: None RPM)
G21
G90
G94




G01 F300.00
G00 Z2.0000

M03
G00 X8.0008 Y38.9999
G01 Z-1.7000
G01 Z0
G00 Z2.0000
G00 X27.5004 Y38.9999
G01 Z-1.7000
G01 Z0
G00 Z2.0000
M03
G00 X38.0008 Y38.9999
G01 Z-1.7000
G01 Z0
G00 Z2.0000
G00 X38.0008 Y36.4599
G01 Z-1.7000
G01 Z0
G00 Z2.0000
M03
G00 X8.0008 Y22.5000
G01 Z-1.7000
G01 Z0
G00 Z2.0000
G00 X8.0008 Y17.9992
G01 Z-1.7000
G01 Z0
G00 Z2.0000
G00 X14.5007 Y17.9992
G01 Z-1.7000
G01 Z0
G00 Z2.0000
G00 X14.5007 Y22.5000
G01 Z-1.7000
G01 Z0
G00 Z2.0000
M03
G00 X38.0008 Y25.4998
G01 Z-1.7000
G01 Z0
G00 Z2.0000
G00 X38.0008 Y17.8798
G01 Z-1.7000
G01 Z0
G00 Z2.0000
M05
G00 Z0.50
G00 X0.0 Y0.0

